; generated by Slic3r 1.1.7 on 2014-08-31 at 18:52:55

; perimeters extrusion width = 0.42mm
; infill extrusion width = 0.74mm
; solid infill extrusion width = 0.71mm
; top infill extrusion width = 0.71mm

G21 ; set units to millimeters
M107 ; disable fan
M104 S200 ; set temperature
POSOFFSET CLEAR X Y U A B C D
M109 S200 ; wait for temperature to be reached
G90 ; use absolute coordinates
G92 E0 ; reset extrusion distance
M82 ; use absolute distances for extrusion
G1 Z0.200 F7800.000 ; move to next layer (0)
;LayerChange
G1 F1800.000 E-1.00000 ; retract
G92 E0 ; reset extrusion distance
G1 X487.265 Y123.088 F7800.000 ; move to first skirt point
G1 E1.00000 F1800.000 ; compensate retraction
G1 X487.666 Y122.016 E1.01309 F600.000 ; skirt
G1 X487.956 Y121.460 E1.02027 ; skirt
G1 X488.336 Y120.875 E1.02824 ; skirt
G1 X488.597 Y120.541 E1.03309 ; skirt
G1 X490.609 Y118.126 E1.06905 ; skirt
G1 X491.694 Y116.967 E1.08721 ; skirt
G1 X492.224 Y116.495 E1.09533 ; skirt
G1 X492.730 Y116.130 E1.10246 ; skirt
G1 X493.355 Y115.757 E1.11080 ; skirt
G1 X495.484 Y115.015 E1.13659 ; skirt
G1 X497.739 Y115.056 E1.16238 ; skirt
G1 X499.711 Y115.800 E1.18649 F600.000 ; skirt
G1 X501.055 Y116.824 E1.20582 ; skirt
G1 X503.557 Y119.315 E1.24621 ; skirt
G1 X504.713 Y120.883 E1.26849 ; skirt
G1 X507.639 Y126.476 E1.34070 ; skirt
G1 X508.083 Y127.552 E1.35402 ; skirt
G1 X508.367 Y129.789 E1.37981 ; skirt
G1 X507.858 Y131.985 E1.40560 ; skirt
G1 X506.945 Y133.499 E1.42582 ; skirt
G1 X506.320 Y134.174 E1.43635 ; skirt
G1 X505.107 Y135.079 E1.45366 ; skirt
G1 X504.796 Y135.251 E1.45772 ; skirt
G1 X504.212 Y135.523 E1.46509 ; skirt
G1 X503.694 Y135.729 E1.47147 ; skirt
G1 X501.415 Y136.523 E1.49907 ; skirt
G1 X500.704 Y136.677 E1.50740 ; skirt
G1 X499.240 Y136.836 E1.52424 ; skirt
G1 X496.493 Y136.411 E1.55604 ; skirt
G1 X495.756 Y136.088 E1.56524 ; skirt
G1 X495.277 Y135.823 E1.57151 ; skirt
G1 X494.888 Y135.578 E1.57677 ; skirt
G1 X494.425 Y135.239 E1.58333 ; skirt
G1 X489.078 Y130.868 E1.66233 ; skirt
G1 X488.427 Y130.062 E1.67419 ; skirt
G1 X487.980 Y129.340 E1.68389 ; skirt
G1 X487.535 Y128.414 E1.69565 ; skirt
G1 X487.314 Y127.824 E1.70285 ; skirt
G1 X487.196 Y127.427 E1.70759 ; skirt
G1 X487.073 Y126.888 E1.71392 ; skirt
G1 X486.982 Y126.319 E1.72052 ; skirt
G1 X486.944 Y125.900 E1.72532 ; skirt
G1 X486.927 Y125.122 E1.73423 ; skirt
G1 X486.997 Y124.361 E1.74297 ; skirt
G1 X487.047 Y124.052 E1.74655 ; skirt
G1 X487.250 Y123.149 E1.75713 ; skirt
G1 F1800.000 E0.75713 ; retract
G92 E0 ; reset extrusion distance
G1 X494.429 Y125.856 F7800.000 ; move to first fill point
G1 E1.00000 F1800.000 ; compensate retraction
G1 X494.335 Y125.762 E1.00153 F600.000 ; fill
G1 X494.403 Y125.170 E1.00835 ; fill
G1 X495.622 Y126.389 E1.02806 ; fill
G1 X496.455 Y126.561 E1.03779 ; fill
G1 X494.738 Y124.844 E1.06556 ; fill
G1 X495.141 Y124.587 E1.07103 ; fill
G1 X496.690 Y126.136 E1.09610 ; fill
G1 X496.732 Y125.518 E1.10319 ; fill
G1 X496.694 Y125.479 E1.10381 ; fill
G1 F1800.000 E0.10381 ; retract
G92 E0 ; reset extrusion distance
G1 X499.026 Y123.785 F7800.000 ; move to first perimeter point
G1 E1.00000 F1800.000 ; compensate retraction
G1 X498.963 Y124.065 E1.00329 F631.404 ; perimeter
G1 X498.960 Y124.360 E1.00666 ; perimeter
G1 X498.930 Y124.461 E1.00786 ; perimeter
G1 X498.885 Y124.520 E1.00872 ; perimeter
G1 X498.753 Y124.454 E1.01040 ; perimeter
G1 X498.684 Y124.380 E1.01155 ; perimeter
G1 X498.607 Y124.272 E1.01308 ; perimeter
G1 X498.622 Y124.151 E1.01446 ; perimeter
G1 F1800.000 E0.01446 ; retract
G92 E0 ; reset extrusion distance
G1 X500.441 Y129.879 F7800.000 ; move to first perimeter point
G1 E1.00000 F1800.000 ; compensate retraction
G1 X501.117 Y129.501 E1.00886 F631.404 ; perimeter
G1 X501.535 Y129.411 E1.01375 ; perimeter
G1 X501.752 Y129.448 E1.01627 ; perimeter
G1 X501.969 Y129.451 E1.01875 ; perimeter
G1 F1800.000 E0.01875 ; retract
G92 E0 ; reset extrusion distance
G1 X498.643 Y124.752 F7800.000 ; move to first perimeter point
G1 E1.00000 F1800.000 ; compensate retraction
G1 X498.318 Y125.095 E1.00541 F631.404 ; perimeter
G1 X497.937 Y125.308 E1.01040 ; perimeter
G1 X497.887 Y125.362 E1.01123 ; perimeter
G1 X497.768 Y125.350 E1.01260 ; perimeter
G1 X497.548 Y125.437 E1.01531 ; perimeter
G1 X497.409 Y125.611 E1.01785 ; perimeter
G1 X497.373 Y125.999 E1.02231 ; perimeter
G1 X497.365 Y126.791 E1.03138 ; perimeter
G1 X497.540 Y127.962 E1.04492 ; perimeter
G1 X497.271 Y128.041 E1.04813 ; perimeter
G1 X497.142 Y127.754 E1.05173 ; perimeter
G1 X497.078 Y127.667 E1.05296 ; perimeter
G1 X496.885 Y127.503 E1.05585 ; perimeter
G1 X496.687 Y127.400 E1.05841 ; perimeter
G1 X496.561 Y127.362 E1.05992 ; perimeter
G1 X496.435 Y127.367 E1.06136 ; perimeter
G1 X496.311 Y127.224 E1.06351 ; perimeter
G1 X496.193 Y127.178 E1.06497 ; perimeter
G1 X496.094 Y127.173 E1.06610 ; perimeter
G1 X496.018 Y127.131 E1.06709 ; perimeter
G1 X495.925 Y127.121 E1.06816 ; perimeter
G1 X495.817 Y127.073 E1.06951 ; perimeter
G1 X495.663 Y127.058 E1.07128 ; perimeter
G1 X495.529 Y127.079 E1.07284 ; perimeter
G1 X495.255 Y127.044 E1.07600 ; perimeter
G1 X494.885 Y126.858 E1.08073 ; perimeter
G1 X494.733 Y126.888 E1.08250 ; perimeter
G1 X494.687 Y126.798 E1.08367 ; perimeter
G1 X494.477 Y126.674 E1.08645 ; perimeter
G1 X494.314 Y126.667 E1.08831 ; perimeter
G1 X494.223 Y126.533 E1.09017 ; perimeter
G1 X494.028 Y126.397 E1.09289 ; perimeter
G1 X493.865 Y126.314 E1.09497 ; perimeter
G1 X493.640 Y125.893 E1.10044 ; perimeter
G1 X493.579 Y125.733 E1.10239 ; perimeter
G1 X493.542 Y125.557 E1.10445 ; perimeter
G1 X493.528 Y125.345 E1.10688 ; perimeter
G1 X493.559 Y125.152 E1.10912 ; perimeter
G1 X493.616 Y125.023 E1.11073 ; perimeter
G1 X493.627 Y124.860 E1.11260 ; perimeter
G1 X493.670 Y124.769 E1.11375 ; perimeter
G1 X493.712 Y124.727 E1.11443 ; perimeter
G1 X493.953 Y124.634 E1.11739 ; perimeter
G1 X494.055 Y124.491 E1.11939 ; perimeter
G1 X494.109 Y124.480 E1.12003 ; perimeter
G1 X494.506 Y124.164 E1.12583 ; perimeter
G1 X494.707 Y124.048 E1.12849 ; perimeter
G1 X494.936 Y123.656 E1.13368 ; perimeter
G1 X495.160 Y123.337 E1.13814 ; perimeter
G1 X495.243 Y123.167 E1.14031 ; perimeter
G1 X495.302 Y123.092 E1.14140 ; perimeter
G1 X495.514 Y122.565 E1.14789 ; perimeter
G1 X495.646 Y122.385 E1.15045 ; perimeter
G1 X495.764 Y122.472 E1.15212 ; perimeter
G1 X495.970 Y122.449 E1.15449 ; perimeter
G1 X495.879 Y123.391 E1.16533 ; perimeter
G1 X495.938 Y123.567 E1.16745 ; perimeter
G1 X495.860 Y123.725 E1.16947 ; perimeter
G1 X495.847 Y123.829 E1.17066 ; perimeter
G1 X495.860 Y123.938 E1.17192 ; perimeter
G1 X495.919 Y124.122 E1.17413 ; perimeter
G1 X496.007 Y124.262 E1.17602 ; perimeter
G1 X496.084 Y124.341 E1.17728 ; perimeter
G1 X496.514 Y124.649 E1.18334 ; perimeter
G1 X496.658 Y124.699 E1.18508 ; perimeter
G1 X496.739 Y124.802 E1.18657 ; perimeter
G1 X497.202 Y124.841 E1.19189 ; perimeter
G1 X497.815 Y124.782 E1.19893 ; perimeter
G1 X497.964 Y124.754 E1.20067 ; perimeter
G1 X498.184 Y124.652 E1.20344 ; perimeter
G1 X498.299 Y124.640 E1.20477 ; perimeter
G1 X498.445 Y124.530 E1.20685 ; perimeter
G1 X498.601 Y124.705 E1.20953 ; perimeter
G1 X498.237 Y124.861 F7800.000 ; move inwards before travel
G1 X497.189 Y125.239 F7800.000 ; move to first perimeter point
G1 X497.011 Y125.461 E1.21279 F600.000 ; perimeter
G1 X496.969 Y125.958 E1.21850 ; perimeter
G1 X496.954 Y126.438 E1.22398 ; perimeter
G1 X496.978 Y127.070 E1.23123 ; perimeter
G1 X496.615 Y126.958 E1.23557 ; perimeter
G1 X496.556 Y126.890 E1.23660 ; perimeter
G1 X496.130 Y126.732 E1.24180 ; perimeter
G1 X496.045 Y126.728 E1.24278 ; perimeter
G1 X495.922 Y126.680 E1.24429 ; perimeter
G1 X495.750 Y126.654 E1.24627 ; perimeter
G1 X495.563 Y126.666 E1.24842 ; perimeter
G1 X495.326 Y126.637 E1.25114 ; perimeter
G1 X494.946 Y126.433 E1.25608 ; perimeter
G1 X494.884 Y126.445 E1.25680 ; perimeter
G1 X494.740 Y126.367 E1.25868 ; perimeter
G1 X494.636 Y126.277 E1.26025 ; perimeter
G1 X494.556 Y126.273 E1.26117 ; perimeter
G1 X494.396 Y126.152 E1.26347 ; perimeter
G1 X494.147 Y126.009 E1.26675 ; perimeter
G1 X493.980 Y125.659 E1.27119 ; perimeter
G1 X493.933 Y125.367 E1.27457 ; perimeter
G1 X493.948 Y125.273 E1.27566 ; perimeter
G1 X494.058 Y125.025 E1.27877 ; perimeter
G1 X494.202 Y124.981 E1.28049 ; perimeter
G1 X494.287 Y124.862 E1.28216 ; perimeter
G1 X494.466 Y124.705 E1.28489 ; perimeter
G1 X494.828 Y124.440 E1.29001 ; perimeter
G1 X495.000 Y124.352 E1.29223 ; perimeter
G1 X495.377 Y123.679 E1.30106 ; perimeter
G1 X495.501 Y124.167 E1.30681 ; perimeter
G1 X495.549 Y124.291 E1.30834 ; perimeter
G1 X495.645 Y124.458 E1.31053 ; perimeter
G1 X495.819 Y124.649 E1.31350 ; perimeter
G1 X496.314 Y125.008 E1.32049 ; perimeter
G1 X496.414 Y125.043 E1.32170 ; perimeter
G1 X496.544 Y125.207 E1.32409 ; perimeter
G1 X496.837 Y125.206 E1.32745 ; perimeter
G1 X497.127 Y125.233 E1.33077 ; perimeter
G1 X497.641 Y128.107 F7800.000 ; move to first perimeter point
G1 X498.196 Y128.992 E1.34272 F631.404 ; perimeter
G1 X498.304 Y129.103 E1.34449 ; perimeter
G1 X499.078 Y129.395 E1.35396 ; perimeter
G1 X499.285 Y129.407 E1.35633 ; perimeter
G1 X499.500 Y129.455 E1.35884 ; perimeter
G1 X500.488 Y129.468 E1.37014 ; perimeter
G1 X500.170 Y129.838 E1.37572 ; perimeter
G1 X499.818 Y130.105 E1.38078 ; perimeter
G1 X499.586 Y130.167 E1.38353 ; perimeter
G1 X499.390 Y130.071 E1.38602 ; perimeter
G1 X499.219 Y130.200 E1.38848 ; perimeter
G1 X499.061 Y130.224 E1.39030 ; perimeter
G1 X498.936 Y130.174 E1.39185 ; perimeter
G1 X498.838 Y130.226 E1.39311 ; perimeter
G1 X498.714 Y130.183 E1.39461 ; perimeter
G1 X498.596 Y130.081 E1.39639 ; perimeter
G1 X498.554 Y130.075 E1.39689 ; perimeter
G1 X498.395 Y129.893 E1.39964 ; perimeter
G1 X498.232 Y129.748 E1.40215 ; perimeter
G1 X498.086 Y129.692 E1.40393 ; perimeter
G1 X497.814 Y129.387 E1.40861 ; perimeter
G1 X497.688 Y129.201 E1.41118 ; perimeter
G1 X497.529 Y128.772 E1.41641 ; perimeter
G1 X497.479 Y128.490 E1.41969 ; perimeter
G1 X497.376 Y128.244 E1.42274 ; perimeter
G1 X497.585 Y128.136 E1.42542 ; perimeter
G1 X497.645 Y128.527 F7800.000 ; move inwards before travel
M106 S255 ; enable fan
G1 Z0.400 F7800.000 ; move to next layer (1)
;LayerChange
G1 X497.066 Y126.794 F7800.000 ; move to first fill point
G1 X497.033 Y126.826 E1.42629 F600.000 ; fill
G1 X496.275 Y126.605 E1.44128 ; fill
G1 X497.393 Y125.488 E1.47128 ; fill
G1 X496.637 Y125.264 E1.48624 ; fill
G1 X495.524 Y126.378 E1.51615 ; fill
G1 X494.896 Y126.026 E1.52980 ; fill
G1 X494.850 Y126.072 E1.53105 ; fill
G1 F1800.000 E0.53105 ; retract
G92 E0 ; reset extrusion distance
G1 X498.295 Y129.169 F7800.000 ; move to first fill point
G1 E1.00000 F1800.000 ; compensate retraction
G1 X498.417 Y129.327 E1.00144 F600.000 ; fill
G1 X498.665 Y129.492 E1.00359 ; fill
G1 X498.898 Y129.599 E1.00544 ; fill
G1 F1800.000 E0.00544 ; retract
G92 E0 ; reset extrusion distance
G1 X505.271 Y124.178 F7800.000 ; move to first fill point
G1 E1.00000 F1800.000 ; compensate retraction
G1 X505.318 Y123.555 E1.00451 F600.000 ; fill
G1 X505.425 Y123.045 E1.00827 ; fill
G1 X506.908 Y127.176 F7800.000 ; move to first fill point
G1 X506.974 Y127.403 E1.00997 F600.000 ; fill
G1 X506.970 Y127.501 E1.01068 ; fill
G1 X506.820 Y127.876 E1.01360 ; fill
G1 X506.715 Y128.053 E1.01509 ; fill
G1 X506.567 Y128.213 E1.01666 ; fill
G1 X506.440 Y128.321 E1.01786 ; fill
G1 X506.308 Y128.396 E1.01896 ; fill
G1 X505.789 Y128.593 E1.02296 ; fill
G1 X504.944 Y128.818 E1.02927 ; fill
G1 X503.416 Y129.047 E1.04042 ; fill
G1 X502.870 Y129.104 E1.04438 ; fill
G1 X502.407 Y129.215 E1.04782 ; fill
G1 X501.555 Y129.363 E1.05406 ; fill
G1 F1800.000 E0.05406 ; retract
G92 E0 ; reset extrusion distance
G1 X502.081 Y118.072 F7800.000 ; move to first fill point
G1 E1.00000 F1800.000 ; compensate retraction
G1 X501.633 Y117.987 E1.00329 F600.000 ; fill
G1 X501.586 Y117.918 E1.00390 ; fill
G1 X501.611 Y117.774 E1.00495 ; fill
G1 X498.035 Y119.828 F7800.000 ; move to first fill point
M106 S255 ; enable fan
G1 X498.065 Y119.899 E1.00646 F1800.000 ; fill
G1 X497.455 Y119.711 E1.01897 ; fill
G1 X497.850 Y120.648 E1.03891 ; fill
G1 X497.424 Y120.896 E1.04856 ; fill
G1 X496.844 Y119.521 E1.07781 ; fill
G1 X496.203 Y119.258 E1.09139 ; fill
G1 X497.181 Y121.578 E1.14072 ; fill
G1 X496.624 Y121.514 E1.15172 ; fill
G1 X496.864 Y122.085 E1.16385 ; fill
G1 X496.594 Y122.701 E1.17705 ; fill
G1 X495.211 Y119.422 E1.24680 ; fill
G1 X495.658 Y119.223 E1.25639 ; fill
G1 X496.485 Y121.184 E1.29812 ; fill
M106 S255 ; enable fan
G1 X495.803 Y122.084 F7800.000 ; move to first fill point
M106 S255 ; enable fan
G1 X494.939 Y120.034 E1.34172 F1800.000 ; fill
M106 S255 ; enable fan
G1 X495.841 Y122.174 F7800.000 ; move to first fill point
M106 S255 ; enable fan
G1 X496.214 Y123.058 E1.36051 F1800.000 ; fill
G1 X495.775 Y123.276 E1.37011 ; fill
G1 X495.454 Y122.514 E1.38631 ; fill
G1 X495.202 Y123.174 E1.40016 ; fill
G1 X495.337 Y123.494 E1.40696 ; fill
G1 X494.846 Y123.588 E1.41676 ; fill
G1 X495.599 Y125.373 E1.45473 ; fill
G1 X495.160 Y125.591 E1.46433 ; fill
G1 X494.479 Y123.976 E1.49868 ; fill
G1 X494.122 Y124.387 E1.50935 ; fill
G1 X494.722 Y125.809 E1.53961 ; fill
G1 X494.173 Y125.767 E1.55039 ; fill
G1 X493.901 Y125.120 E1.56414 ; fill
M106 S255 ; enable fan
G1 X495.835 Y124.677 F7800.000 ; move to first fill point
M106 S255 ; enable fan
G1 X496.037 Y125.155 E1.57432 F1800.000 ; fill
M106 S255 ; enable fan
G1 F1800.000 E0.57432 ; retract
G92 E0 ; reset extrusion distance
G1 X508.215 Y121.952 F7800.000 ; move to first perimeter point
G1 E1.00000 F1800.000 ; compensate retraction
G1 X508.163 Y122.100 E1.00187 F1150.580 ; perimeter
G1 X508.423 Y122.323 E1.00594 ; perimeter
G1 X508.772 Y122.770 E1.01268 ; perimeter
G1 X508.782 Y123.296 E1.01894 ; perimeter
G1 X508.270 Y124.797 F7800.000 ; move to first perimeter point
M106 S255 ; enable fan
G1 X508.435 Y124.600 E1.02397 F1800.000 ; perimeter
G1 X508.550 Y124.264 E1.03093 ; perimeter
G1 X508.736 Y124.067 E1.03624 ; perimeter
G1 X508.811 Y123.952 E1.03894 ; perimeter
G1 X508.878 Y123.632 E1.04533 ; perimeter
G1 X509.082 Y123.111 E1.05630 ; perimeter
G1 X509.285 Y123.377 E1.06284 ; perimeter
G1 X509.376 Y123.558 E1.06682 ; perimeter
G1 X509.411 Y123.783 E1.07129 ; perimeter
G1 X509.386 Y123.980 E1.07519 ; perimeter
G1 X509.284 Y124.159 E1.07921 ; perimeter
G1 X509.137 Y124.350 E1.08395 ; perimeter
G1 X508.704 Y124.864 E1.09710 ; perimeter
G1 X508.448 Y125.019 E1.10298 ; perimeter
G1 X508.309 Y124.846 E1.10734 ; perimeter
M106 S255 ; enable fan
G1 X505.775 Y123.247 F7800.000 ; move to first perimeter point
M106 S255 ; enable fan
G1 X505.573 Y124.181 E1.12606 F1800.000 ; perimeter
G1 X505.513 Y124.321 E1.12904 ; perimeter
G1 X505.498 Y124.492 E1.13241 ; perimeter
G1 X505.515 Y124.618 E1.13490 ; perimeter
G1 X505.665 Y124.769 E1.13907 ; perimeter
G1 X505.873 Y124.913 E1.14403 ; perimeter
G1 X506.012 Y125.083 E1.14834 ; perimeter
G1 X506.153 Y125.188 E1.15179 ; perimeter
G1 X506.275 Y125.235 E1.15435 ; perimeter
G1 X506.865 Y125.267 E1.16594 ; perimeter
G1 X507.182 Y125.352 E1.17237 ; perimeter
G1 X507.345 Y125.365 E1.17557 ; perimeter
G1 X507.539 Y125.341 E1.17940 ; perimeter
G1 X507.644 Y125.297 E1.18163 ; perimeter
G1 X507.882 Y125.138 E1.18723 ; perimeter
G1 X508.174 Y124.889 E1.19475 ; perimeter
G1 X508.386 Y125.090 E1.20048 ; perimeter
G1 X508.079 Y125.521 E1.21084 ; perimeter
G1 X507.878 Y125.739 E1.21666 ; perimeter
G1 X507.808 Y125.921 E1.22048 ; perimeter
G1 X507.724 Y125.990 E1.22261 ; perimeter
G1 X507.648 Y126.092 E1.22512 ; perimeter
G1 X507.506 Y126.359 E1.23103 ; perimeter
G1 X507.415 Y126.623 E1.23650 ; perimeter
G1 X507.349 Y126.991 E1.24384 ; perimeter
G1 X507.337 Y127.613 E1.25603 ; perimeter
G1 X507.224 Y127.811 E1.26050 ; perimeter
G1 X507.060 Y128.242 E1.26954 ; perimeter
G1 X506.874 Y128.494 E1.27567 ; perimeter
G1 X506.677 Y128.664 E1.28077 ; perimeter
G1 X506.505 Y128.751 E1.28454 ; perimeter
G1 X506.235 Y128.822 E1.29003 ; perimeter
G1 X505.912 Y128.939 E1.29675 ; perimeter
G1 X505.535 Y129.003 E1.30425 ; perimeter
G1 X505.211 Y129.128 E1.31105 ; perimeter
