; generated by Slic3r 1.1.7 on 2014-08-31 at 18:15:19

; perimeters extrusion width = 0.42mm
; infill extrusion width = 0.52mm
; solid infill extrusion width = 0.52mm
; top infill extrusion width = 0.52mm

G21 ; set units to millimeters
M107 ; disable fan
M104 S200 ; set temperature
POSOFFSET CLEAR X Y U A B C D
M109 S200 ; wait for temperature to be reached
G90 ; use absolute coordinates
G92 E0 ; reset extrusion distance
M82 ; use absolute distances for extrusion
G1 Z0.280 F7800.000 ; move to next layer (0)
;LayerChange
G1 F1800.000 E-1.00000 ; retract
G92 E0 ; reset extrusion distance
G1 X483.931 Y122.702 F7800.000 ; move to first skirt point
G1 E1.00000 F1800.000 ; compensate retraction
G1 X484.353 Y121.561 E1.02555 F600.000 ; skirt
G1 X484.672 Y120.948 E1.04005 ; skirt
G1 X485.090 Y120.306 E1.05614 ; skirt
G1 X485.379 Y119.930 E1.06608 ; skirt
G1 X488.051 Y116.710 E1.15393 ; skirt
G1 X488.417 Y116.299 E1.16548 ; skirt
G1 X489.447 Y115.263 E1.19615 ; skirt
G1 X489.999 Y114.772 E1.21165 ; skirt
G1 X490.550 Y114.378 E1.22587 ; skirt
G1 X491.406 Y113.876 E1.24670 ; skirt
G1 X493.568 Y113.164 E1.29450 ; skirt
G1 X495.844 Y113.237 E1.34230 ; skirt
G1 X497.736 Y113.957 E1.38479 F600.000 ; skirt
G1 X499.171 Y115.045 E1.42260 ; skirt
G1 X502.588 Y118.472 E1.52420 ; skirt
G1 X503.744 Y120.043 E1.56513 ; skirt
G1 X507.775 Y127.709 E1.74697 ; skirt
G1 X508.227 Y128.797 E1.77169 ; skirt
G1 X508.538 Y131.116 E1.82082 ; skirt
G1 X508.036 Y133.337 E1.86861 ; skirt
G1 X507.127 Y134.873 E1.90608 ; skirt
G1 X507.049 Y134.971 E1.90872 ; skirt
G1 X505.241 Y136.541 E1.95899 ; skirt
G1 X504.944 Y136.706 E1.96611 ; skirt
G1 X504.107 Y137.092 E1.98546 ; skirt
G1 X503.529 Y137.311 E1.99843 ; skirt
G1 X500.657 Y138.317 E2.06232 ; skirt
G1 X499.862 Y138.491 E2.07940 ; skirt
G1 X498.266 Y138.682 E2.11314 ; skirt
G1 X495.236 Y138.247 E2.17740 ; skirt
G1 X494.459 Y137.903 E2.19523 ; skirt
G1 X493.993 Y137.646 E2.20641 ; skirt
G1 X493.528 Y137.356 E2.21793 ; skirt
G1 X493.045 Y137.005 E2.23045 ; skirt
G1 X486.435 Y131.717 E2.40815 ; skirt
G1 X485.223 Y130.365 E2.44627 ; skirt
G1 X484.760 Y129.603 E2.46500 ; skirt
G1 X484.256 Y128.561 E2.48930 ; skirt
G1 X483.990 Y127.861 E2.50501 ; skirt
G1 X483.867 Y127.447 E2.51407 ; skirt
G1 X483.725 Y126.826 E2.52744 ; skirt
G1 X483.629 Y126.228 E2.54016 ; skirt
G1 X483.583 Y125.746 E2.55034 ; skirt
G1 X483.562 Y124.916 E2.56776 ; skirt
G1 X483.634 Y124.134 E2.58425 ; skirt
G1 X483.690 Y123.781 E2.59174 ; skirt
G1 X483.916 Y122.763 E2.61363 ; skirt
G1 F1800.000 E1.61363 ; retract
G92 E0 ; reset extrusion distance
G1 X491.468 Y125.788 F7800.000 ; move to first fill point
G1 E1.00000 F1800.000 ; compensate retraction
G1 X491.575 Y125.896 E1.00320 F600.000 ; fill
G1 X493.072 Y126.621 F7800.000 ; move to first fill point
G1 X491.396 Y124.945 E1.05295 F600.000 ; fill
G1 X491.800 Y124.577 E1.06442 ; fill
G1 X493.954 Y126.731 E1.12838 ; fill
G1 X494.779 Y126.784 E1.14574 ; fill
G1 X492.226 Y124.231 E1.22153 ; fill
G1 X492.677 Y123.910 E1.23315 ; fill
G1 X494.796 Y126.030 E1.29607 ; fill
G1 X494.892 Y125.353 E1.31041 ; fill
G1 X494.854 Y125.315 E1.31154 ; fill
G1 F1800.000 E0.31154 ; retract
G92 E0 ; reset extrusion distance
G1 X493.794 Y121.086 F7800.000 ; move to first perimeter point
G1 E1.00000 F1800.000 ; compensate retraction
G1 X493.865 Y120.789 E1.00641 F794.063 ; perimeter
G1 X493.888 Y120.563 E1.01119 ; perimeter
G1 X494.049 Y120.312 E1.01744 ; perimeter
G1 X494.187 Y120.039 E1.02386 ; perimeter
G1 X494.545 Y119.621 E1.03544 ; perimeter
G1 F1800.000 E0.03544 ; retract
G92 E0 ; reset extrusion distance
G1 X502.010 Y130.793 F7800.000 ; move to first perimeter point
G1 E1.00000 F1800.000 ; compensate retraction
G1 X501.704 Y130.788 E1.00642 F794.063 ; perimeter
G1 X501.393 Y130.740 E1.01302 ; perimeter
G1 X500.473 Y130.920 E1.03270 ; perimeter
G1 X500.251 Y130.775 E1.03827 ; perimeter
G1 X499.973 Y130.543 E1.04586 ; perimeter
G1 X499.822 Y131.138 F7800.000 ; move to first perimeter point
G1 X499.555 Y131.263 E1.05203 F794.063 ; perimeter
G1 X499.434 Y131.387 E1.05568 ; perimeter
G1 X499.295 Y131.473 E1.05910 ; perimeter
G1 X499.073 Y131.664 E1.06527 ; perimeter
G1 X498.952 Y131.724 E1.06808 ; perimeter
G1 X498.685 Y131.783 E1.07382 ; perimeter
G1 X498.448 Y131.666 E1.07937 ; perimeter
G1 X498.201 Y131.825 E1.08553 ; perimeter
G1 X497.980 Y131.860 E1.09022 ; perimeter
G1 X497.782 Y131.815 E1.09449 ; perimeter
G1 X497.656 Y131.882 E1.09748 ; perimeter
G1 X497.524 Y131.822 E1.10052 ; perimeter
G1 X497.347 Y131.677 E1.10532 ; perimeter
G1 X497.287 Y131.668 E1.10660 ; perimeter
G1 X497.155 Y131.543 E1.11042 ; perimeter
G1 X497.061 Y131.417 E1.11372 ; perimeter
G1 X496.833 Y131.216 E1.12011 ; perimeter
G1 X496.674 Y131.155 E1.12367 ; perimeter
G1 X496.617 Y131.111 E1.12519 ; perimeter
G1 X496.321 Y130.786 E1.13441 ; perimeter
G1 X496.162 Y130.575 E1.13995 ; perimeter
G1 X496.074 Y130.412 E1.14385 ; perimeter
G1 X495.914 Y129.984 E1.15344 ; perimeter
G1 X495.817 Y129.638 E1.16098 ; perimeter
G1 X495.802 Y129.478 E1.16437 ; perimeter
G1 X495.336 Y128.468 E1.18770 ; perimeter
G1 X495.171 Y128.271 E1.19310 ; perimeter
G1 X494.996 Y128.136 E1.19775 ; perimeter
G1 X494.589 Y127.931 E1.20731 ; perimeter
G1 X494.369 Y127.939 E1.21192 ; perimeter
G1 X494.204 Y127.727 E1.21756 ; perimeter
G1 X494.055 Y127.683 E1.22082 ; perimeter
G1 X493.902 Y127.675 E1.22403 ; perimeter
G1 X493.800 Y127.619 E1.22648 ; perimeter
G1 X493.655 Y127.604 E1.22954 ; perimeter
G1 X493.530 Y127.546 E1.23243 ; perimeter
G1 X493.353 Y127.520 E1.23618 ; perimeter
G1 X493.152 Y127.549 E1.24045 ; perimeter
G1 X492.980 Y127.525 E1.24410 ; perimeter
G1 X492.963 Y127.509 E1.24459 ; perimeter
G1 X492.750 Y127.493 E1.24909 ; perimeter
G1 X492.586 Y127.426 E1.25280 ; perimeter
G1 X492.260 Y127.232 E1.26077 ; perimeter
G1 X492.036 Y127.277 E1.26557 ; perimeter
G1 X491.953 Y127.155 E1.26866 ; perimeter
G1 X491.703 Y127.001 E1.27481 ; perimeter
G1 X491.509 Y126.977 E1.27893 ; perimeter
G1 X491.364 Y126.908 E1.28230 ; perimeter
G1 X491.162 Y126.693 E1.28849 ; perimeter
G1 X490.851 Y126.531 E1.29585 ; perimeter
G1 X490.572 Y126.012 E1.30822 ; perimeter
G1 X490.432 Y125.638 E1.31662 ; perimeter
G1 X490.393 Y125.441 E1.32083 ; perimeter
G1 X490.369 Y125.140 E1.32717 ; perimeter
G1 X490.416 Y124.860 E1.33313 ; perimeter
G1 X490.470 Y124.737 E1.33594 ; perimeter
G1 X490.463 Y124.668 E1.33739 ; perimeter
G1 X490.492 Y124.526 E1.34044 ; perimeter
G1 X490.604 Y124.294 E1.34584 ; perimeter
G1 X490.807 Y124.189 E1.35064 ; perimeter
G1 X490.964 Y124.142 E1.35408 ; perimeter
G1 X491.107 Y123.940 E1.35927 ; perimeter
G1 X491.189 Y123.923 E1.36102 ; perimeter
G1 X491.806 Y123.424 E1.37769 ; perimeter
G1 X491.986 Y123.313 E1.38214 ; perimeter
G1 X492.207 Y122.934 E1.39135 ; perimeter
G1 X492.675 Y122.242 E1.40888 ; perimeter
G1 X492.716 Y122.121 E1.41156 ; perimeter
G1 X492.817 Y121.993 E1.41498 ; perimeter
G1 X492.928 Y121.766 E1.42030 ; perimeter
G1 X493.103 Y121.299 E1.43076 ; perimeter
G1 X493.282 Y121.057 E1.43708 ; perimeter
G1 X493.719 Y121.379 E1.44848 ; perimeter
G1 X493.611 Y122.491 E1.47193 ; perimeter
G1 X493.693 Y122.732 E1.47728 ; perimeter
G1 X493.590 Y122.964 E1.48259 ; perimeter
G1 X493.574 Y123.095 E1.48537 ; perimeter
G1 X493.597 Y123.256 E1.48878 ; perimeter
G1 X493.667 Y123.475 E1.49360 ; perimeter
G1 X493.795 Y123.679 E1.49867 ; perimeter
G1 X493.890 Y123.778 E1.50155 ; perimeter
G1 X494.482 Y124.200 E1.51680 ; perimeter
G1 X494.671 Y124.266 E1.52101 ; perimeter
G1 X494.790 Y124.416 E1.52502 ; perimeter
G1 X495.121 Y124.428 E1.53200 ; perimeter
G1 X495.328 Y124.468 E1.53641 ; perimeter
G1 X495.423 Y124.467 E1.53840 ; perimeter
G1 X496.288 Y124.379 E1.55667 ; perimeter
G1 X496.474 Y124.340 E1.56064 ; perimeter
G1 X496.748 Y124.203 E1.56709 ; perimeter
G1 X496.949 Y124.168 E1.57136 ; perimeter
G1 X497.274 Y123.938 E1.57973 ; perimeter
G1 X497.524 Y124.197 E1.58729 ; perimeter
G1 X497.406 Y124.354 E1.59139 ; perimeter
G1 X496.956 Y124.829 E1.60514 ; perimeter
G1 X496.637 Y125.032 E1.61309 ; perimeter
G1 X496.405 Y125.133 E1.61839 ; perimeter
G1 X496.355 Y125.215 E1.62040 ; perimeter
G1 X496.215 Y125.201 E1.62336 ; perimeter
G1 X495.908 Y125.322 E1.63029 ; perimeter
G1 X495.765 Y125.573 E1.63635 ; perimeter
G1 X495.689 Y126.100 E1.64752 ; perimeter
G1 X495.666 Y126.696 E1.66005 ; perimeter
G1 X495.671 Y127.183 E1.67027 ; perimeter
G1 X495.876 Y128.477 E1.69778 ; perimeter
G1 X495.991 Y128.810 E1.70518 ; perimeter
G1 X496.796 Y130.112 E1.73730 ; perimeter
G1 X496.875 Y130.218 E1.74008 ; perimeter
G1 X496.960 Y130.290 E1.74242 ; perimeter
G1 X497.411 Y130.471 E1.75262 ; perimeter
G1 X497.474 Y130.516 E1.75424 ; perimeter
G1 X497.836 Y130.627 E1.76220 ; perimeter
G1 X497.974 Y130.692 E1.76538 ; perimeter
G1 X498.302 Y130.726 E1.77231 ; perimeter
G1 X498.634 Y130.793 E1.77943 ; perimeter
G1 X498.964 Y130.785 E1.78635 ; perimeter
G1 X499.329 Y130.813 E1.79403 ; perimeter
G1 X499.746 Y130.805 E1.80278 ; perimeter
G1 X499.808 Y131.077 E1.80863 ; perimeter
G1 X499.531 Y131.092 F7800.000 ; move inwards before travel
G1 X495.211 Y127.678 F7800.000 ; move to first perimeter point
G1 X494.722 Y127.397 E1.82048 F600.000 ; perimeter
G1 X494.623 Y127.400 E1.82256 ; perimeter
G1 X494.528 Y127.261 E1.82608 ; perimeter
G1 X494.177 Y127.158 E1.83376 ; perimeter
G1 X494.050 Y127.152 E1.83644 ; perimeter
G1 X493.946 Y127.095 E1.83893 ; perimeter
G1 X493.816 Y127.090 E1.84165 ; perimeter
G1 X493.668 Y127.031 E1.84500 ; perimeter
G1 X493.342 Y126.983 E1.85190 ; perimeter
G1 X493.221 Y127.006 E1.85450 ; perimeter
G1 X492.836 Y126.959 E1.86264 ; perimeter
G1 X492.363 Y126.670 E1.87427 ; perimeter
G1 X492.223 Y126.698 E1.87728 ; perimeter
G1 X492.057 Y126.607 E1.88125 ; perimeter
G1 X491.941 Y126.505 E1.88449 ; perimeter
G1 X491.700 Y126.462 E1.88964 ; perimeter
G1 X491.497 Y126.278 E1.89539 ; perimeter
G1 X491.320 Y126.165 E1.89979 ; perimeter
G1 X491.225 Y126.126 E1.90195 ; perimeter
G1 X490.968 Y125.584 E1.91455 ; perimeter
G1 X490.917 Y125.361 E1.91935 ; perimeter
G1 X490.902 Y125.164 E1.92349 ; perimeter
G1 X490.926 Y125.016 E1.92664 ; perimeter
G1 X491.011 Y124.826 E1.93102 ; perimeter
G1 X490.997 Y124.685 E1.93399 ; perimeter
G1 X491.290 Y124.597 E1.94041 ; perimeter
G1 X491.399 Y124.444 E1.94434 ; perimeter
G1 X491.734 Y124.149 E1.95372 ; perimeter
G1 X492.172 Y123.814 E1.96529 ; perimeter
G1 X492.371 Y123.712 E1.96999 ; perimeter
G1 X492.649 Y123.226 E1.98173 ; perimeter
G1 X493.008 Y122.717 E1.99480 ; perimeter
G1 X493.059 Y123.285 E2.00676 ; perimeter
G1 X493.119 Y123.529 E2.01205 ; perimeter
G1 X493.183 Y123.696 E2.01580 ; perimeter
G1 X493.304 Y123.908 E2.02093 ; perimeter
G1 X493.544 Y124.182 E2.02857 ; perimeter
G1 X494.220 Y124.670 E2.04607 ; perimeter
G1 X494.351 Y124.715 E2.04898 ; perimeter
G1 X494.533 Y124.946 E2.05515 ; perimeter
G1 X495.049 Y124.954 E2.06598 ; perimeter
G1 X495.467 Y125.026 E2.07488 ; perimeter
G1 X495.253 Y125.402 E2.08396 ; perimeter
G1 X495.160 Y126.047 E2.09763 ; perimeter
G1 X495.136 Y127.115 E2.12006 ; perimeter
G1 X495.202 Y127.615 E2.13066 ; perimeter
M106 S255 ; enable fan
G1 Z0.560 F7800.000 ; move to next layer (1)
;LayerChange
G1 X494.403 Y127.333 F7800.000 ; move to first fill point
G1 X494.364 Y127.372 E2.13172 F699.983 ; fill
G1 X493.733 Y127.259 E2.14428 ; fill
G1 X494.510 Y126.482 E2.16582 ; fill
G1 X494.518 Y125.730 E2.18055 ; fill
G1 X493.208 Y127.040 E2.21685 ; fill
G1 X492.648 Y126.856 E2.22840 ; fill
G1 X494.084 Y125.420 E2.26819 ; fill
G1 X493.646 Y125.114 E2.27866 ; fill
G1 X492.132 Y126.628 E2.32064 ; fill
G1 X491.617 Y126.399 E2.33168 ; fill
G1 X493.222 Y124.794 E2.37615 ; fill
G1 X492.374 Y124.898 E2.39289 ; fill
G1 X491.128 Y126.144 E2.42744 ; fill
G1 X490.817 Y125.711 E2.43789 ; fill
G1 X491.309 Y125.219 E2.45152 ; fill
G1 X495.168 Y127.607 F7800.000 ; move to first fill point
M106 S255 ; enable fan
G1 X495.163 Y127.658 E2.45252 F1800.000 ; fill
G1 X495.778 Y127.804 E2.46490 ; fill
G1 X495.786 Y127.709 E2.46678 ; fill
M106 S255 ; enable fan
G1 X495.760 Y128.219 F7800.000 ; move to first fill point
G1 X495.926 Y128.412 E2.46935 F699.983 ; fill
G1 X496.235 Y129.188 E2.47779 ; fill
G1 X494.604 Y127.436 F7800.000 ; move to first fill point
M106 S255 ; enable fan
G1 X494.582 Y127.373 E2.47910 F1800.000 ; fill
G1 X494.723 Y126.257 E2.50116 ; fill
G1 X495.136 Y127.392 E2.52483 ; fill
G1 X495.550 Y127.028 E2.53565 ; fill
G1 X495.024 Y125.580 E2.56584 ; fill
G1 X495.762 Y126.105 E2.58359 ; fill
G1 X495.487 Y125.350 E2.59933 ; fill
G1 X496.093 Y125.512 E2.61163 ; fill
G1 X495.950 Y125.119 E2.61982 ; fill
G1 X496.431 Y124.936 E2.62990 ; fill
G1 X496.421 Y124.908 E2.63049 ; fill
M106 S255 ; enable fan
G1 X496.584 Y124.549 F7800.000 ; move to first fill point
M106 S255 ; enable fan
G1 X496.512 Y124.636 E2.63272 F1800.000 ; fill
G1 X495.824 Y124.708 E2.64627 ; fill
G1 X495.443 Y125.168 E2.65798 ; fill
G1 X495.181 Y124.726 E2.66805 ; fill
G1 X494.531 Y125.510 E2.68801 ; fill
G1 X494.133 Y125.232 E2.69752 ; fill
G1 X494.648 Y124.611 E2.71334 ; fill
G1 X494.251 Y124.332 E2.72285 ; fill
G1 X493.736 Y124.954 E2.73868 ; fill
G1 X493.363 Y124.646 E2.74815 ; fill
G1 X493.894 Y124.004 E2.76448 ; fill
G1 X493.623 Y123.575 E2.77445 ; fill
G1 X492.786 Y124.583 E2.80012 ; fill
G1 X491.949 Y124.836 E2.81727 ; fill
G1 X496.061 Y119.878 E2.94351 ; fill
M106 S255 ; enable fan
G1 X496.849 Y118.927 F7800.000 ; move to first fill point
M106 S255 ; enable fan
G1 X497.122 Y118.598 E2.95189 F1800.000 ; fill
G1 X497.039 Y117.941 E2.96488 ; fill
G1 X490.905 Y125.336 E3.15319 ; fill
G1 X490.501 Y125.066 E3.16272 ; fill
G1 X497.103 Y117.106 E3.36542 ; fill
G1 X496.440 Y117.148 E3.37846 ; fill
G1 X490.494 Y124.317 E3.56100 ; fill
M106 S255 ; enable fan
G1 X492.641 Y120.971 F7800.000 ; move to first fill point
M106 S255 ; enable fan
G1 X495.929 Y117.007 E3.66196 F1800.000 ; fill
G1 X495.414 Y116.870 E3.67240 ; fill
G1 X492.550 Y120.324 E3.76035 ; fill
G1 X492.305 Y119.861 E3.77061 ; fill
G1 X494.928 Y116.698 E3.85114 ; fill
G1 X494.499 Y116.459 E3.86078 ; fill
G1 X492.138 Y119.305 E3.93325 ; fill
G1 X491.924 Y118.806 E3.94390 ; fill
G1 X493.937 Y116.379 E4.00569 ; fill
G1 X493.355 Y116.323 E4.01714 ; fill
G1 X491.902 Y118.074 E4.06174 ; fill
M106 S255 ; enable fan
G1 X492.250 Y116.898 F7800.000 ; move to first fill point
M106 S255 ; enable fan
G1 X492.404 Y116.711 E4.06649 F1800.000 ; fill
M106 S255 ; enable fan
G1 X494.874 Y122.065 F7800.000 ; move to first fill point
M106 S255 ; enable fan
G1 X494.826 Y122.124 E4.06799 F1800.000 ; fill
M106 S255 ; enable fan
G1 X497.522 Y123.816 F7800.000 ; move to first fill point
G1 X497.718 Y123.464 E4.07206 F699.983 ; fill
G1 X498.084 Y123.012 E4.07794 ; fill
G1 X498.305 Y122.662 E4.08211 ; fill
G1 X498.320 Y122.631 E4.08247 ; fill
G1 X498.228 Y122.442 E4.08459 ; fill
G1 X498.393 Y122.505 F7800.000 ; move to first fill point
G1 X498.473 Y122.280 E4.09012 F699.983 ; fill
G1 X498.496 Y121.798 E4.10131 ; fill
G1 X498.336 Y121.051 E4.11899 ; fill
G1 X498.335 Y121.052 F7800.000 ; move to first fill point
G1 X498.237 Y120.511 E4.12455 F699.983 ; fill
G1 X498.057 Y119.983 E4.13018 ; fill
G1 X497.948 Y119.736 E4.13291 ; fill
G1 X497.776 Y119.609 E4.13507 ; fill
G1 X497.812 Y116.854 F7800.000 ; move to first fill point
G1 X498.037 Y116.322 E4.14844 F699.983 ; fill
G1 X498.498 Y115.777 E4.16497 ; fill
G1 X498.374 Y115.468 E4.17269 ; fill
G1 X502.866 Y115.044 F7800.000 ; move to first fill point
G1 X503.014 Y115.265 E4.17537 F699.983 ; fill
G1 X503.508 Y115.387 E4.18051 ; fill
G1 X507.326 Y116.090 F7800.000 ; move to first fill point
G1 X507.304 Y116.395 E4.18759 F699.983 ; fill
G1 X507.515 Y116.446 E4.19261 ; fill
G1 X507.871 Y116.485 E4.20090 ; fill
G1 X508.177 Y116.662 E4.20911 ; fill
G1 X508.419 Y116.864 E4.21641 ; fill
G1 X508.614 Y117.066 E4.22290 ; fill
G1 X508.814 Y117.297 E4.22999 ; fill
G1 X508.995 Y117.610 E4.23835 ; fill
G1 X509.089 Y118.005 E4.24777 ; fill
G1 X508.135 Y116.516 F7800.000 ; move to first fill point
G1 X507.052 Y116.353 E4.27316 F699.983 ; fill
