; generated by Slic3r 1.1.7 on 2014-08-31 at 16:47:33

; perimeters extrusion width = 0.42mm
; infill extrusion width = 0.52mm
; solid infill extrusion width = 0.52mm
; top infill extrusion width = 0.52mm

G21 ; set units to millimeters
M107 ; disable fan
M104 S200 ; set temperature
POSOFFSET CLEAR X Y U A B C D
M109 S200 ; wait for temperature to be reached
G90 ; use absolute coordinates
G92 E0 ; reset extrusion distance
M82 ; use absolute distances for extrusion
G1 Z0.280 F7800.000 ; move to next layer (0)
;LayerChange
G1 F1800.000 E-1.00000 ; retract
G92 E0 ; reset extrusion distance
G1 X482.317 Y123.047 F7800.000 ; move to first skirt point
G1 E1.00000 F1800.000 ; compensate retraction
G1 X482.554 Y122.369 E1.01508 F600.000 ; skirt
G1 X482.907 Y121.522 E1.03433 ; skirt
G1 X483.646 Y120.258 E1.06507 ; skirt
G1 X487.834 Y115.048 E1.20541 ; skirt
G1 X488.350 Y114.474 E1.22161 ; skirt
G1 X488.917 Y113.969 E1.23754 ; skirt
G1 X489.440 Y113.591 E1.25109 ; skirt
G1 X489.931 Y113.296 E1.26311 ; skirt
G1 X492.080 Y112.545 E1.31091 ; skirt
G1 X494.357 Y112.578 E1.35870 ; skirt
G1 X496.364 Y113.320 E1.40362 F600.000 ; skirt
G1 X496.473 Y113.383 E1.40627 ; skirt
G1 X498.436 Y115.104 E1.46108 ; skirt
G1 X502.240 Y120.171 E1.59409 ; skirt
G1 X507.446 Y128.932 E1.80802 ; skirt
G1 X507.516 Y129.107 E1.81197 ; skirt
G1 X507.977 Y131.336 E1.85976 ; skirt
G1 X507.644 Y133.589 E1.90756 ; skirt
G1 X507.012 Y134.943 E1.93892 ; skirt
G1 X506.713 Y135.417 E1.95069 ; skirt
G1 X504.743 Y137.320 E2.00820 ; skirt
G1 X504.295 Y137.582 E2.01909 ; skirt
G1 X503.500 Y137.954 E2.03751 ; skirt
G1 X500.099 Y139.181 E2.11342 ; skirt
G1 X499.575 Y139.295 E2.12467 ; skirt
G1 X499.073 Y139.369 E2.13532 ; skirt
G1 X498.070 Y139.466 E2.15649 ; skirt
G1 X496.327 Y139.397 E2.19310 ; skirt
G1 X495.900 Y139.322 E2.20220 ; skirt
G1 X494.640 Y138.969 E2.22967 ; skirt
G1 X493.859 Y138.642 E2.24744 ; skirt
G1 X493.320 Y138.368 E2.26014 ; skirt
G1 X492.429 Y137.788 E2.28246 ; skirt
G1 X492.220 Y137.622 E2.28807 ; skirt
G1 X484.318 Y131.045 E2.50388 ; skirt
G1 X483.630 Y130.241 E2.52609 ; skirt
G1 X483.301 Y129.765 E2.53824 ; skirt
G1 X483.057 Y129.352 E2.54831 ; skirt
G1 X482.714 Y128.659 E2.56455 ; skirt
G1 X482.463 Y128.019 E2.57897 ; skirt
G1 X482.311 Y127.534 E2.58965 ; skirt
G1 X482.140 Y126.788 E2.60572 ; skirt
G1 X482.073 Y126.353 E2.61496 ; skirt
G1 X482.017 Y125.741 E2.62784 ; skirt
G1 X482.005 Y125.030 E2.64279 ; skirt
G1 X482.088 Y124.089 E2.66262 ; skirt
G1 X482.303 Y123.108 E2.68369 ; skirt
G1 F1800.000 E1.68369 ; retract
G92 E0 ; reset extrusion distance
G1 X492.658 Y120.331 F7800.000 ; move to first perimeter point
G1 E1.00000 F1800.000 ; compensate retraction
G1 X492.722 Y119.812 E1.01099 F823.516 ; perimeter
G1 X493.039 Y119.205 E1.02536 ; perimeter
G1 X493.186 Y119.025 E1.03024 ; perimeter
G1 F1800.000 E0.03024 ; retract
G92 E0 ; reset extrusion distance
G1 X494.422 Y125.260 F7800.000 ; move to first perimeter point
G1 E1.00000 F1800.000 ; compensate retraction
G1 X494.397 Y125.704 E1.00935 F823.516 ; perimeter
G1 X494.490 Y126.001 E1.01587 ; perimeter
G1 X494.506 Y126.682 E1.03016 ; perimeter
G1 X494.418 Y127.577 E1.04905 ; perimeter
G1 X494.487 Y127.872 E1.05541 ; perimeter
G1 X494.682 Y128.200 E1.06340 ; perimeter
G1 X494.778 Y128.677 E1.07363 ; perimeter
G1 X494.479 Y128.818 E1.08057 ; perimeter
G1 X494.361 Y128.673 E1.08449 ; perimeter
G1 X493.965 Y128.372 E1.09493 ; perimeter
G1 X493.673 Y128.229 E1.10176 ; perimeter
G1 X493.487 Y128.183 E1.10579 ; perimeter
G1 X493.278 Y128.198 E1.11018 ; perimeter
G1 X493.153 Y128.032 E1.11454 ; perimeter
G1 X492.965 Y127.909 E1.11925 ; perimeter
G1 X492.818 Y127.888 E1.12237 ; perimeter
G1 X492.355 Y127.709 E1.13279 ; perimeter
G1 X492.203 Y127.674 E1.13606 ; perimeter
G1 X492.004 Y127.672 E1.14024 ; perimeter
G1 X491.686 Y127.740 E1.14708 ; perimeter
G1 X491.459 Y127.719 E1.15185 ; perimeter
G1 X491.285 Y127.639 E1.15588 ; perimeter
G1 X490.918 Y127.396 E1.16512 ; perimeter
G1 X490.609 Y127.386 E1.17160 ; perimeter
G1 X490.530 Y127.260 E1.17473 ; perimeter
G1 X490.222 Y127.113 E1.18188 ; perimeter
G1 X490.017 Y126.824 E1.18933 ; perimeter
G1 X489.898 Y126.713 E1.19275 ; perimeter
G1 X489.634 Y126.615 E1.19866 ; perimeter
G1 X489.232 Y126.330 E1.20900 ; perimeter
G1 X489.055 Y126.123 E1.21472 ; perimeter
G1 X488.973 Y125.977 E1.21823 ; perimeter
G1 X488.852 Y125.635 E1.22585 ; perimeter
G1 X488.819 Y125.421 E1.23040 ; perimeter
G1 X488.814 Y125.154 E1.23599 ; perimeter
G1 X488.835 Y125.018 E1.23889 ; perimeter
G1 X488.913 Y124.827 E1.24321 ; perimeter
G1 X489.124 Y124.515 E1.25113 ; perimeter
G1 X489.233 Y124.267 E1.25682 ; perimeter
G1 X489.427 Y124.208 E1.26107 ; perimeter
G1 X489.461 Y124.149 E1.26250 ; perimeter
G1 X489.710 Y123.937 E1.26935 ; perimeter
G1 X490.179 Y123.601 E1.28147 ; perimeter
G1 X490.259 Y123.632 E1.28326 ; perimeter
G1 X490.462 Y123.593 E1.28760 ; perimeter
G1 X490.596 Y123.478 E1.29130 ; perimeter
G1 X490.670 Y123.440 E1.29306 ; perimeter
G1 X491.138 Y122.618 E1.31292 ; perimeter
G1 X491.539 Y121.993 E1.32851 ; perimeter
G1 X491.601 Y121.829 E1.33219 ; perimeter
G1 X491.600 Y121.767 E1.33348 ; perimeter
G1 X491.763 Y121.337 E1.34314 ; perimeter
G1 X491.859 Y121.024 E1.35001 ; perimeter
G1 X491.927 Y120.911 E1.35279 ; perimeter
G1 X492.188 Y120.642 E1.36067 ; perimeter
G1 X492.294 Y120.655 E1.36289 ; perimeter
G1 X492.532 Y120.628 E1.36792 ; perimeter
G1 X492.406 Y121.926 E1.39529 ; perimeter
G1 X492.483 Y122.155 E1.40038 ; perimeter
G1 X492.349 Y122.362 E1.40556 ; perimeter
G1 X492.317 Y122.597 E1.41053 ; perimeter
G1 X492.322 Y122.757 E1.41390 ; perimeter
G1 X492.399 Y123.045 E1.42014 ; perimeter
G1 X492.554 Y123.372 E1.42776 ; perimeter
G1 X492.690 Y123.489 E1.43151 ; perimeter
G1 X492.927 Y123.636 E1.43737 ; perimeter
G1 X493.180 Y123.824 E1.44398 ; perimeter
G1 X493.375 Y124.003 E1.44955 ; perimeter
G1 X493.626 Y124.099 E1.45518 ; perimeter
G1 X493.810 Y124.482 E1.46410 ; perimeter
G1 X494.073 Y124.236 E1.47166 ; perimeter
G1 X494.262 Y124.286 E1.47577 ; perimeter
G1 X494.432 Y124.303 E1.47935 ; perimeter
G1 X495.576 Y124.236 E1.50342 ; perimeter
G1 X495.735 Y124.199 E1.50684 ; perimeter
G1 X495.957 Y124.225 E1.51153 ; perimeter
G1 X496.074 Y124.477 E1.51737 ; perimeter
G1 X495.995 Y124.641 E1.52118 ; perimeter
G1 X495.909 Y124.697 E1.52335 ; perimeter
G1 X495.693 Y124.751 E1.52801 ; perimeter
G1 X495.577 Y124.811 E1.53076 ; perimeter
G1 X495.503 Y124.873 E1.53277 ; perimeter
G1 X495.319 Y124.865 E1.53665 ; perimeter
G1 X494.770 Y124.992 E1.54847 ; perimeter
G1 X494.470 Y125.219 E1.55639 ; perimeter
G1 X494.009 Y125.336 F7800.000 ; move inwards before travel
G1 X493.644 Y125.363 F7800.000 ; move to first perimeter point
G1 X493.904 Y125.119 E1.56386 F600.000 ; perimeter
G1 X493.862 Y125.768 E1.57751 ; perimeter
G1 X493.967 Y126.106 E1.58494 ; perimeter
G1 X493.976 Y126.653 E1.59643 ; perimeter
G1 X493.897 Y127.381 E1.61178 ; perimeter
G1 X493.883 Y127.743 E1.61939 ; perimeter
G1 X493.511 Y127.641 E1.62749 ; perimeter
G1 X493.322 Y127.486 E1.63262 ; perimeter
G1 X493.255 Y127.463 E1.63410 ; perimeter
G1 X493.177 Y127.402 E1.63618 ; perimeter
G1 X492.959 Y127.373 E1.64080 ; perimeter
G1 X492.423 Y127.171 E1.65282 ; perimeter
G1 X492.245 Y127.144 E1.65660 ; perimeter
G1 X491.945 Y127.141 E1.66289 ; perimeter
G1 X491.680 Y127.202 E1.66861 ; perimeter
G1 X491.545 Y127.179 E1.67148 ; perimeter
G1 X491.352 Y127.033 E1.67658 ; perimeter
G1 X491.065 Y126.871 E1.68348 ; perimeter
G1 X490.939 Y126.867 E1.68613 ; perimeter
G1 X490.574 Y126.694 E1.69461 ; perimeter
G1 X490.418 Y126.474 E1.70028 ; perimeter
G1 X490.191 Y126.262 E1.70679 ; perimeter
G1 X489.892 Y126.141 E1.71356 ; perimeter
G1 X489.618 Y125.955 E1.72052 ; perimeter
G1 X489.536 Y125.880 E1.72284 ; perimeter
G1 X489.451 Y125.746 E1.72618 ; perimeter
G1 X489.384 Y125.574 E1.73004 ; perimeter
G1 X489.354 Y125.430 E1.73314 ; perimeter
G1 X489.353 Y125.139 E1.73924 ; perimeter
G1 X489.620 Y124.704 E1.74997 ; perimeter
G1 X489.780 Y124.655 E1.75348 ; perimeter
G1 X489.874 Y124.494 E1.75740 ; perimeter
G1 X490.308 Y124.162 E1.76887 ; perimeter
G1 X490.700 Y124.088 E1.77725 ; perimeter
G1 X490.894 Y123.921 E1.78262 ; perimeter
G1 X491.054 Y123.839 E1.78640 ; perimeter
G1 X491.736 Y122.644 E1.81528 ; perimeter
G1 X491.898 Y123.222 E1.82788 ; perimeter
G1 X492.133 Y123.714 E1.83933 ; perimeter
G1 X492.368 Y123.910 E1.84575 ; perimeter
G1 X492.642 Y124.082 E1.85254 ; perimeter
G1 X492.865 Y124.251 E1.85842 ; perimeter
G1 X493.064 Y124.440 E1.86417 ; perimeter
G1 X493.245 Y124.530 E1.86842 ; perimeter
G1 X493.617 Y125.306 E1.88648 ; perimeter
G1 X497.068 Y132.319 F7800.000 ; move to first perimeter point
G1 X496.943 Y132.595 E1.89284 F823.516 ; perimeter
G1 X496.629 Y132.380 E1.90082 ; perimeter
G1 X496.562 Y132.368 E1.90224 ; perimeter
G1 X496.298 Y131.966 E1.91234 ; perimeter
G1 X496.086 Y131.854 E1.91737 ; perimeter
G1 X495.991 Y131.827 E1.91944 ; perimeter
G1 X495.857 Y131.732 E1.92288 ; perimeter
G1 X495.813 Y131.668 E1.92452 ; perimeter
G1 X495.471 Y131.340 E1.93447 ; perimeter
G1 X495.167 Y130.870 E1.94621 ; perimeter
G1 X494.970 Y130.330 E1.95830 ; perimeter
G1 X495.305 Y130.161 E1.96615 ; perimeter
G1 X495.732 Y130.817 E1.98259 ; perimeter
G1 X495.947 Y131.093 E1.98993 ; perimeter
G1 X496.075 Y131.214 E1.99362 ; perimeter
G1 X496.237 Y131.233 E1.99706 ; perimeter
G1 X496.307 Y131.222 E1.99855 ; perimeter
G1 X496.776 Y131.378 E2.00892 ; perimeter
G1 X497.106 Y131.423 E2.01590 ; perimeter
G1 X497.169 Y131.449 E2.01734 ; perimeter
G1 X497.327 Y131.571 E2.02152 ; perimeter
G1 X497.657 Y131.564 E2.02846 ; perimeter
G1 X497.782 Y131.596 E2.03116 ; perimeter
G1 X497.918 Y131.668 E2.03440 ; perimeter
G1 X498.155 Y131.718 E2.03948 ; perimeter
G1 X498.463 Y131.604 E2.04637 ; perimeter
G1 X498.528 Y131.597 E2.04775 ; perimeter
G1 X498.989 Y131.640 E2.05747 ; perimeter
G1 X499.626 Y131.665 E2.07085 ; perimeter
G1 X499.100 Y132.132 E2.08563 ; perimeter
G1 X498.901 Y132.259 E2.09058 ; perimeter
G1 X498.676 Y132.457 E2.09688 ; perimeter
G1 X498.503 Y132.554 E2.10103 ; perimeter
G1 X498.277 Y132.621 E2.10599 ; perimeter
G1 X498.203 Y132.525 E2.10854 ; perimeter
G1 X497.904 Y132.437 E2.11508 ; perimeter
G1 X497.598 Y132.639 E2.12278 ; perimeter
G1 X497.546 Y132.375 E2.12843 ; perimeter
G1 X497.131 Y132.326 E2.13722 ; perimeter
G1 X496.781 Y132.223 F7800.000 ; move inwards before travel
G1 X493.605 Y126.253 F7800.000 ; move to first fill point
G1 X491.371 Y124.018 E2.20356 F600.000 ; fill
G1 X490.933 Y124.368 E2.21533 ; fill
G1 X493.571 Y127.006 E2.29365 ; fill
G1 X492.640 Y126.864 E2.31342 ; fill
G1 X490.358 Y124.582 E2.38117 ; fill
G1 X489.968 Y124.979 E2.39286 ; fill
G1 X491.792 Y126.803 E2.44700 ; fill
G1 X489.919 Y125.718 F7800.000 ; move to first fill point
G1 X489.786 Y125.585 E2.45097 F600.000 ; fill
G1 X492.911 Y124.770 F7800.000 ; move to first fill point
G1 X492.998 Y124.857 E2.45356 F600.000 ; fill
G1 F1800.000 E1.45356 ; retract
G92 E0 ; reset extrusion distance
G1 X501.196 Y131.305 F7800.000 ; move to first perimeter point
G1 E1.00000 F1800.000 ; compensate retraction
G1 X501.190 Y131.520 E1.00453 F823.516 ; perimeter
G1 X501.097 Y131.588 E1.00695 ; perimeter
G1 X500.683 Y131.676 E1.01583 ; perimeter
G1 X500.430 Y131.665 E1.02114 ; perimeter
G1 X499.667 Y132.080 E1.03939 ; perimeter
M106 S255 ; enable fan
G1 Z0.560 F7800.000 ; move to next layer (1)
;LayerChange
G1 F1800.000 E0.03939 ; retract
G92 E0 ; reset extrusion distance
G1 X500.571 Y114.255 F7800.000 ; move to first perimeter point
G1 E1.00000 F1800.000 ; compensate retraction
G1 X499.683 Y114.420 E1.01504 F2528.309 ; perimeter
G1 X499.471 Y114.339 E1.01881 ; perimeter
G1 X499.403 Y114.281 E1.02031 ; perimeter
G1 X499.450 Y114.217 E1.02163 ; perimeter
G1 X499.445 Y114.013 E1.02502 ; perimeter
G1 F1800.000 E0.02502 ; retract
G92 E0 ; reset extrusion distance
G1 X507.674 Y124.080 F7800.000 ; move to first perimeter point
G1 E1.00000 F1800.000 ; compensate retraction
M106 S255 ; enable fan
G1 X507.769 Y124.151 E1.00232 F1800.000 ; perimeter
G1 X507.926 Y124.213 E1.00564 ; perimeter
G1 X508.125 Y124.327 E1.01013 ; perimeter
G1 X508.330 Y124.589 E1.01664 ; perimeter
G1 X508.578 Y124.798 E1.02300 ; perimeter
G1 X508.679 Y124.843 E1.02517 ; perimeter
G1 X508.853 Y124.868 E1.02861 ; perimeter
G1 X509.278 Y124.860 E1.03695 ; perimeter
G1 X509.680 Y124.889 E1.04484 ; perimeter
G1 X509.887 Y124.935 E1.04900 ; perimeter
G1 X510.089 Y125.011 E1.05324 ; perimeter
G1 X510.260 Y125.042 E1.05663 ; perimeter
G1 X510.410 Y125.052 E1.05958 ; perimeter
G1 X510.713 Y125.011 E1.06557 ; perimeter
G1 X510.904 Y124.932 E1.06963 ; perimeter
G1 X511.216 Y124.724 E1.07697 ; perimeter
G1 X511.612 Y124.392 E1.08709 ; perimeter
G1 X511.734 Y124.259 E1.09064 ; perimeter
G1 X511.932 Y124.088 E1.09577 ; perimeter
G1 X512.118 Y123.833 E1.10195 ; perimeter
G1 X512.253 Y123.348 E1.11182 ; perimeter
G1 X512.330 Y123.254 E1.11420 ; perimeter
G1 X512.518 Y123.091 E1.11907 ; perimeter
G1 X512.621 Y122.961 E1.12234 ; perimeter
G1 X512.685 Y122.856 E1.12474 ; perimeter
G1 X512.748 Y122.623 E1.12947 ; perimeter
G1 X512.821 Y122.446 E1.13322 ; perimeter
G1 X513.144 Y122.018 E1.14373 ; perimeter
G1 X513.269 Y122.288 E1.14956 ; perimeter
G1 X513.345 Y122.527 E1.15447 ; perimeter
G1 X513.347 Y122.635 E1.15659 ; perimeter
G1 X513.316 Y122.830 E1.16046 ; perimeter
G1 X513.210 Y123.049 E1.16524 ; perimeter
G1 X513.018 Y123.323 E1.17179 ; perimeter
G1 X512.884 Y123.658 E1.17886 ; perimeter
G1 X512.824 Y123.754 E1.18108 ; perimeter
G1 X512.657 Y123.941 E1.18599 ; perimeter
G1 X512.489 Y124.197 E1.19198 ; perimeter
G1 X512.307 Y124.351 E1.19667 ; perimeter
G1 X512.101 Y124.474 E1.20137 ; perimeter
G1 X511.980 Y124.615 E1.20501 ; perimeter
G1 X511.847 Y124.725 E1.20840 ; perimeter
G1 X511.622 Y125.005 E1.21543 ; perimeter
G1 X511.322 Y125.266 E1.22322 ; perimeter
G1 X511.204 Y125.419 E1.22700 ; perimeter
G1 X511.093 Y125.643 E1.23191 ; perimeter
G1 X510.864 Y125.858 E1.23808 ; perimeter
G1 X510.720 Y126.063 E1.24299 ; perimeter
G1 X510.473 Y126.548 E1.25365 ; perimeter
G1 X510.390 Y126.833 E1.25947 ; perimeter
G1 X510.314 Y127.203 E1.26687 ; perimeter
G1 X510.249 Y127.723 E1.27714 ; perimeter
G1 X510.244 Y128.048 E1.28351 ; perimeter
G1 X510.066 Y129.370 E1.30966 ; perimeter
G1 X509.963 Y129.625 E1.31505 ; perimeter
G1 X509.736 Y129.975 E1.32322 ; perimeter
G1 X509.666 Y130.043 E1.32513 ; perimeter
G1 X509.517 Y130.123 E1.32844 ; perimeter
G1 X509.352 Y130.278 E1.33289 ; perimeter
G1 X509.053 Y130.433 E1.33948 ; perimeter
G1 X508.851 Y130.500 E1.34366 ; perimeter
G1 X508.639 Y130.544 E1.34790 ; perimeter
G1 X508.283 Y130.710 E1.35560 ; perimeter
G1 X508.130 Y130.758 E1.35874 ; perimeter
G1 X507.552 Y130.851 E1.37022 ; perimeter
G1 X507.015 Y131.067 E1.38157 ; perimeter
G1 X506.178 Y131.238 E1.39830 ; perimeter
G1 X505.948 Y131.267 E1.40284 ; perimeter
G1 X505.600 Y131.274 E1.40968 ; perimeter
G1 X505.251 Y131.360 E1.41672 ; perimeter
G1 X504.957 Y131.382 E1.42249 ; perimeter
G1 X504.479 Y131.469 E1.43201 ; perimeter
G1 X504.232 Y131.492 E1.43687 ; perimeter
G1 X503.547 Y131.509 E1.45031 ; perimeter
G1 X503.039 Y131.688 E1.46087 ; perimeter
G1 X502.758 Y131.761 E1.46655 ; perimeter
G1 X501.659 Y131.956 E1.48844 ; perimeter
G1 X501.189 Y132.195 E1.49876 ; perimeter
G1 X500.899 Y132.287 E1.50473 ; perimeter
G1 X499.646 Y132.517 E1.52970 ; perimeter
G1 X499.358 Y132.676 E1.53614 ; perimeter
G1 X499.299 Y132.685 E1.53732 ; perimeter
G1 X499.104 Y132.810 E1.54185 ; perimeter
G1 X498.938 Y132.871 E1.54533 ; perimeter
M106 S255 ; enable fan
G1 X497.899 Y133.057 F7800.000 ; move to first perimeter point
G1 X497.310 Y133.130 E1.55521 F2528.309 ; perimeter
M106 S255 ; enable fan
G1 X497.135 Y133.158 E1.55868 F1800.000 ; perimeter
G1 X497.041 Y133.134 E1.56059 ; perimeter
G1 X496.869 Y133.047 E1.56437 ; perimeter
M106 S255 ; enable fan
G1 X496.861 Y133.042 E1.56452 F2528.309 ; perimeter
M106 S255 ; enable fan
G1 X496.813 Y133.017 E1.56558 F1800.000 ; perimeter
M106 S255 ; enable fan
