; generated by Slic3r 1.0.0 on 2014-10-02 at 14:34:54

; layer_height = 0.199
; perimeters = 2
; top_solid_layers = 3
; bottom_solid_layers = 3
; fill_density = 0.4
; perimeter_speed = 30
; infill_speed = 60
; travel_speed = 130
; nozzle_diameter = 0.4
; filament_diameter = 1.75
; extrusion_multiplier = 1
; perimeters extrusion width = 0.40mm
; infill extrusion width = 0.67mm
; solid infill extrusion width = 0.67mm
; top infill extrusion width = 0.67mm
; first layer extrusion width = 0.40mm

G21 ; set units to millimeters
M104 S205 ; set temperature
G28 ; home all axes
G1 Z5 F5000 ; lift nozzle
M109 S205 ; wait for temperature to be reached
G90 ; use absolute coordinates
G92 E0 ; reset extrusion distance
M82 ; use absolute distances for extrusion
G1 F1800.000 E-1.00000 ; retract
G92 E0 ; reset extrusion distance
G1 Z0.199 F7800.000 ; move to next layer (0)
G1 X60.430 Y71.681 F7800.000 ; move to first skirt point
G1 E1.00000 F1800.000 ; compensate retraction
G1 X60.940 Y71.291 E1.02116 F540.000 ; skirt
G1 X62.350 Y70.311 E1.07777 ; skirt
G1 X62.880 Y69.971 E1.09852 ; skirt
G1 X64.240 Y69.211 E1.14988 ; skirt
G1 X64.980 Y68.841 E1.17715 ; skirt
G1 X66.560 Y68.161 E1.23385 ; skirt
G1 X67.190 Y67.931 E1.25596 ; skirt
G1 X68.830 Y67.421 E1.31258 ; skirt
G1 X69.430 Y67.261 E1.33305 ; skirt
G1 X71.120 Y66.911 E1.38994 ; skirt
G1 X71.790 Y66.811 E1.41227 ; skirt
G1 X73.500 Y66.641 E1.46891 ; skirt
G1 X74.130 Y66.611 E1.48970 ; skirt
G1 X75.860 Y66.611 E1.54673 ; skirt
G1 X76.490 Y66.641 E1.56752 ; skirt
G1 X78.200 Y66.811 E1.62417 ; skirt
G1 X78.870 Y66.911 E1.64650 ; skirt
G1 X80.560 Y67.261 E1.70339 ; skirt
G1 X81.160 Y67.421 E1.72386 ; skirt
G1 X82.800 Y67.931 E1.78047 ; skirt
G1 X83.430 Y68.161 E1.80258 ; skirt
G1 X84.850 Y68.771 E1.85353 ; skirt
G1 X85.590 Y69.131 E1.88065 ; skirt
G1 X87.100 Y69.971 E1.93761 ; skirt
G1 X87.640 Y70.311 E1.95865 ; skirt
G1 X89.050 Y71.291 E2.01525 ; skirt
G1 X89.560 Y71.681 E2.03641 ; skirt
G1 X90.740 Y72.691 E2.08761 ; skirt
G1 X91.360 Y73.271 E2.11560 ; skirt
G1 X92.540 Y74.521 E2.17226 ; skirt
G1 X92.940 Y74.981 E2.19236 ; skirt
G1 X94.000 Y76.341 E2.24920 ; skirt
G1 X94.380 Y76.891 E2.27124 ; skirt
G1 X95.290 Y78.351 E2.32795 ; skirt
G1 X95.600 Y78.911 E2.34904 ; skirt
G1 X96.360 Y80.461 E2.40595 ; skirt
G1 X96.620 Y81.051 E2.42720 ; skirt
G1 X97.220 Y82.661 E2.48384 ; skirt
G1 X97.420 Y83.291 E2.50563 ; skirt
G1 X97.850 Y84.961 E2.56247 ; skirt
G1 X97.970 Y85.591 E2.58362 ; skirt
G1 X98.230 Y87.291 E2.64031 ; skirt
G1 X98.300 Y87.931 E2.66153 ; skirt
G1 X98.400 Y89.981 E2.72918 ; skirt
G1 X98.400 Y105.981 E3.25661 ; skirt
G1 X98.350 Y106.771 E3.28270 ; skirt
G1 X98.110 Y107.981 E3.32336 ; skirt
G1 X98.020 Y108.281 E3.33369 ; skirt
G1 X97.590 Y109.341 E3.37140 ; skirt
G1 X96.980 Y110.311 E3.40917 ; skirt
G1 X96.790 Y110.561 E3.41952 ; skirt
G1 X96.170 Y111.271 E3.45059 ; skirt
G1 X95.440 Y111.881 E3.48195 ; skirt
G1 X95.190 Y112.061 E3.49210 ; skirt
G1 X94.360 Y112.571 E3.52422 ; skirt
G1 X93.470 Y112.941 E3.55599 ; skirt
G1 X93.170 Y113.041 E3.56641 ; skirt
G1 X92.380 Y113.251 E3.59336 ; skirt
G1 X91.580 Y113.351 E3.61993 ; skirt
G1 X91.000 Y113.381 E3.63908 ; skirt
G1 X58.990 Y113.381 E4.69425 ; skirt
G1 X57.940 Y113.291 E4.72899 ; skirt
G1 X57.640 Y113.241 E4.73902 ; skirt
G1 X56.970 Y113.091 E4.76165 ; skirt
G1 X56.160 Y112.811 E4.78990 ; skirt
G1 X55.460 Y112.481 E4.81541 ; skirt
G1 X54.800 Y112.061 E4.84120 ; skirt
G1 X54.550 Y111.881 E4.85135 ; skirt
G1 X53.820 Y111.271 E4.88271 ; skirt
G1 X53.200 Y110.561 E4.91378 ; skirt
G1 X53.010 Y110.311 E4.92414 ; skirt
G1 X52.410 Y109.371 E4.96090 ; skirt
G1 X51.990 Y108.341 E4.99756 ; skirt
G1 X51.900 Y108.051 E5.00757 ; skirt
G1 X51.710 Y107.291 E5.03340 ; skirt
G1 X51.620 Y106.531 E5.05862 ; skirt
G1 X51.600 Y105.981 E5.07677 ; skirt
G1 X51.600 Y89.981 E5.60419 ; skirt
G1 X51.690 Y87.961 E5.67084 ; skirt
G1 X51.760 Y87.291 E5.69305 ; skirt
G1 X52.020 Y85.591 E5.74974 ; skirt
G1 X52.140 Y84.961 E5.77088 ; skirt
G1 X52.570 Y83.291 E5.82772 ; skirt
G1 X52.770 Y82.661 E5.84951 ; skirt
G1 X53.370 Y81.051 E5.90615 ; skirt
G1 X53.630 Y80.461 E5.92740 ; skirt
G1 X54.390 Y78.911 E5.98431 ; skirt
G1 X54.700 Y78.351 E6.00541 ; skirt
G1 X55.610 Y76.891 E6.06212 ; skirt
G1 X55.990 Y76.341 E6.08415 ; skirt
G1 X57.050 Y74.981 E6.14099 ; skirt
G1 X57.450 Y74.511 E6.16134 ; skirt
G1 X58.510 Y73.391 E6.21217 ; skirt
G1 X59.120 Y72.801 E6.24015 ; skirt
G1 X60.385 Y71.720 E6.29499 ; skirt
G1 F1800.000 E5.29499 ; retract
G92 E0 ; reset extrusion distance
G1 X91.066 Y86.687 F7800.000 ; move to first perimeter point
G1 E1.00000 F1800.000 ; compensate retraction
G1 X91.318 Y88.330 E1.05477 F540.000 ; perimeter
G1 X91.403 Y90.004 E1.11004 ; perimeter
G1 X91.403 Y105.966 E1.63619 ; perimeter
G1 X91.357 Y106.171 E1.64312 ; perimeter
G1 X91.283 Y106.272 E1.64725 ; perimeter
G1 X91.182 Y106.346 E1.65139 ; perimeter
G1 X90.977 Y106.392 E1.65832 ; perimeter
G1 X84.523 Y106.392 E1.87104 ; perimeter
G1 X84.318 Y106.346 E1.87797 ; perimeter
G1 X84.176 Y106.225 E1.88414 ; perimeter
G1 X84.119 Y106.113 E1.88827 ; perimeter
G1 X84.097 Y105.966 E1.89318 ; perimeter
G1 X84.097 Y89.968 E2.42053 ; perimeter
G1 X84.006 Y88.694 E2.46262 ; perimeter
G1 X83.730 Y87.426 E2.50542 ; perimeter
G1 X83.277 Y86.209 E2.54821 ; perimeter
G1 X82.655 Y85.070 E2.59101 ; perimeter
G1 X81.877 Y84.031 E2.63380 ; perimeter
G1 X80.959 Y83.113 E2.67660 ; perimeter
G1 X79.919 Y82.335 E2.71939 ; perimeter
G1 X78.780 Y81.712 E2.76218 ; perimeter
G1 X77.563 Y81.259 E2.80498 ; perimeter
G1 X76.295 Y80.983 E2.84777 ; perimeter
G1 X75.000 Y80.890 E2.89057 ; perimeter
G1 X73.705 Y80.983 E2.93336 ; perimeter
G1 X72.437 Y81.259 E2.97616 ; perimeter
G1 X71.220 Y81.712 E3.01895 ; perimeter
G1 X70.081 Y82.335 E3.06175 ; perimeter
G1 X69.172 Y83.015 E3.09915 ; perimeter
G1 X69.041 Y83.113 E3.10454 ; perimeter
G1 X68.123 Y84.031 E3.14733 ; perimeter
G1 X67.345 Y85.070 E3.19013 ; perimeter
G1 X66.723 Y86.209 E3.23292 ; perimeter
G1 X66.270 Y87.426 E3.27572 ; perimeter
G1 X65.994 Y88.694 E3.31851 ; perimeter
G1 X65.903 Y89.968 E3.36060 ; perimeter
G1 X65.903 Y105.966 E3.88795 ; perimeter
G1 X65.881 Y106.113 E3.89286 ; perimeter
G1 X65.824 Y106.225 E3.89699 ; perimeter
G1 X65.682 Y106.346 E3.90316 ; perimeter
G1 X65.477 Y106.392 E3.91010 ; perimeter
G1 X59.023 Y106.392 E4.12281 ; perimeter
G1 X58.818 Y106.346 E4.12975 ; perimeter
G1 X58.717 Y106.272 E4.13388 ; perimeter
G1 X58.643 Y106.171 E4.13801 ; perimeter
G1 X58.597 Y105.966 E4.14495 ; perimeter
G1 X58.597 Y90.004 E4.67110 ; perimeter
G1 X58.682 Y88.330 E4.72637 ; perimeter
G1 X58.934 Y86.687 E4.78114 ; perimeter
G1 X59.350 Y85.079 E4.83590 ; perimeter
G1 X59.927 Y83.521 E4.89067 ; perimeter
G1 X60.659 Y82.029 E4.94544 ; perimeter
G1 X61.538 Y80.619 E5.00021 ; perimeter
G1 X62.555 Y79.305 E5.05498 ; perimeter
G1 X63.700 Y78.101 E5.10975 ; perimeter
G1 X64.960 Y77.019 E5.16452 ; perimeter
G1 X66.324 Y76.070 E5.21928 ; perimeter
G1 X67.777 Y75.263 E5.27405 ; perimeter
G1 X69.304 Y74.608 E5.32882 ; perimeter
G1 X70.889 Y74.111 E5.38359 ; perimeter
G1 X72.516 Y73.776 E5.43836 ; perimeter
G1 X74.169 Y73.608 E5.49313 ; perimeter
G1 X75.831 Y73.608 E5.54790 ; perimeter
G1 X77.484 Y73.776 E5.60267 ; perimeter
G1 X79.111 Y74.111 E5.65743 ; perimeter
G1 X80.696 Y74.608 E5.71220 ; perimeter
G1 X82.223 Y75.263 E5.76697 ; perimeter
G1 X83.676 Y76.070 E5.82174 ; perimeter
G1 X85.040 Y77.019 E5.87651 ; perimeter
G1 X86.193 Y78.009 E5.92663 ; perimeter
G1 X86.300 Y78.101 E5.93128 ; perimeter
G1 X87.445 Y79.305 E5.98605 ; perimeter
G1 X88.462 Y80.619 E6.04081 ; perimeter
G1 X89.341 Y82.029 E6.09558 ; perimeter
G1 X90.073 Y83.521 E6.15035 ; perimeter
G1 X90.650 Y85.079 E6.20512 ; perimeter
G1 X91.051 Y86.630 E6.25792 ; perimeter
G1 X91.457 Y86.607 F7800.000 ; move to first perimeter point
G1 X91.715 Y88.289 E6.31402 F378.000 ; perimeter
G1 X91.801 Y89.994 E6.37029 ; perimeter
G1 X91.801 Y105.981 E6.89729 ; perimeter
G1 X91.791 Y106.114 E6.90168 ; perimeter
G1 X91.713 Y106.352 E6.90994 ; perimeter
G1 X91.566 Y106.555 E6.91819 ; perimeter
G1 X91.363 Y106.702 E6.92645 ; perimeter
G1 X91.125 Y106.780 E6.93470 ; perimeter
G1 X90.992 Y106.790 E6.93910 ; perimeter
G1 X84.508 Y106.790 E7.15285 ; perimeter
G1 X84.375 Y106.780 E7.15725 ; perimeter
G1 X84.137 Y106.702 E7.16550 ; perimeter
G1 X83.934 Y106.555 E7.17376 ; perimeter
G1 X83.852 Y106.460 E7.17790 ; perimeter
G1 X83.739 Y106.236 E7.18615 ; perimeter
G1 X83.699 Y105.981 E7.19467 ; perimeter
G1 X83.699 Y89.982 E7.72206 ; perimeter
G1 X83.611 Y88.751 E7.76275 ; perimeter
G1 X83.347 Y87.538 E7.80366 ; perimeter
G1 X82.913 Y86.375 E7.84458 ; perimeter
G1 X82.318 Y85.286 E7.88549 ; perimeter
G1 X81.575 Y84.292 E7.92641 ; perimeter
G1 X80.697 Y83.414 E7.96732 ; perimeter
G1 X79.703 Y82.671 E8.00824 ; perimeter
G1 X78.614 Y82.076 E8.04916 ; perimeter
G1 X77.451 Y81.642 E8.09007 ; perimeter
G1 X76.238 Y81.378 E8.13099 ; perimeter
G1 X75.000 Y81.290 E8.17190 ; perimeter
G1 X73.762 Y81.378 E8.21282 ; perimeter
G1 X72.549 Y81.642 E8.25374 ; perimeter
G1 X71.386 Y82.076 E8.29465 ; perimeter
G1 X70.297 Y82.671 E8.33557 ; perimeter
G1 X69.411 Y83.334 E8.37204 ; perimeter
G1 X69.303 Y83.414 E8.37648 ; perimeter
G1 X68.425 Y84.292 E8.41740 ; perimeter
G1 X67.682 Y85.286 E8.45831 ; perimeter
G1 X67.087 Y86.375 E8.49923 ; perimeter
G1 X66.653 Y87.538 E8.54015 ; perimeter
G1 X66.389 Y88.751 E8.58106 ; perimeter
G1 X66.301 Y89.982 E8.62174 ; perimeter
G1 X66.301 Y105.981 E9.14914 ; perimeter
G1 X66.261 Y106.236 E9.15765 ; perimeter
G1 X66.148 Y106.460 E9.16591 ; perimeter
G1 X66.066 Y106.555 E9.17005 ; perimeter
G1 X65.863 Y106.702 E9.17830 ; perimeter
G1 X65.625 Y106.780 E9.18656 ; perimeter
G1 X65.492 Y106.790 E9.19096 ; perimeter
G1 X59.008 Y106.790 E9.40471 ; perimeter
G1 X58.875 Y106.780 E9.40910 ; perimeter
G1 X58.637 Y106.702 E9.41736 ; perimeter
G1 X58.434 Y106.555 E9.42561 ; perimeter
G1 X58.287 Y106.352 E9.43387 ; perimeter
G1 X58.209 Y106.114 E9.44212 ; perimeter
G1 X58.199 Y105.981 E9.44652 ; perimeter
G1 X58.199 Y89.994 E9.97352 ; perimeter
G1 X58.285 Y88.289 E10.02979 ; perimeter
G1 X58.543 Y86.607 E10.08589 ; perimeter
G1 X58.970 Y84.960 E10.14199 ; perimeter
G1 X59.561 Y83.364 E10.19809 ; perimeter
G1 X60.310 Y81.836 E10.25419 ; perimeter
G1 X61.211 Y80.391 E10.31029 ; perimeter
G1 X62.252 Y79.046 E10.36639 ; perimeter
G1 X63.425 Y77.812 E10.42249 ; perimeter
G1 X64.716 Y76.703 E10.47859 ; perimeter
G1 X66.113 Y75.731 E10.53469 ; perimeter
G1 X67.601 Y74.905 E10.59080 ; perimeter
G1 X69.165 Y74.234 E10.64690 ; perimeter
G1 X70.789 Y73.725 E10.70300 ; perimeter
G1 X72.456 Y73.382 E10.75910 ; perimeter
G1 X73.989 Y73.226 E10.80988 ; perimeter
G1 X74.149 Y73.210 E10.81520 ; perimeter
G1 X75.851 Y73.210 E10.87130 ; perimeter
G1 X77.544 Y73.382 E10.92740 ; perimeter
G1 X79.211 Y73.725 E10.98350 ; perimeter
G1 X80.835 Y74.234 E11.03960 ; perimeter
G1 X82.399 Y74.905 E11.09570 ; perimeter
G1 X83.887 Y75.731 E11.15180 ; perimeter
G1 X85.284 Y76.703 E11.20790 ; perimeter
G1 X86.453 Y77.707 E11.25869 ; perimeter
G1 X86.575 Y77.812 E11.26400 ; perimeter
G1 X87.748 Y79.046 E11.32011 ; perimeter
G1 X88.789 Y80.391 E11.37621 ; perimeter
G1 X89.690 Y81.836 E11.43231 ; perimeter
G1 X90.509 Y83.506 E11.49363 ; perimeter
G1 X90.492 Y83.506 E11.49419 ; perimeter
G1 X91.030 Y84.960 E11.54529 ; perimeter
G1 X91.442 Y86.549 E11.59943 ; perimeter
G1 X91.155 Y86.867 F7800.000 ; move inwards before travel
G1 X90.204 Y84.680 F7800.000 ; move to first fill point
G1 X80.301 Y74.776 E12.06356 F1080.000 ; fill
G1 X79.475 Y74.517 E12.09223 ; fill
G1 X90.475 Y85.517 E12.60772 ; fill
G1 X90.673 Y86.281 E12.63388 ; fill
G1 X78.703 Y74.312 E13.19483 ; fill
G1 X77.990 Y74.165 E13.21895 ; fill
G1 X90.833 Y87.008 E13.82083 ; fill
G1 X90.936 Y87.677 E13.84325 ; fill
G1 X77.296 Y74.038 E14.48245 ; fill
G1 X76.666 Y73.974 E14.50346 ; fill
G1 X91.038 Y88.346 E15.17701 ; fill
G1 X91.070 Y88.944 E15.19686 ; fill
G1 X76.035 Y73.909 E15.90144 ; fill
G1 X75.447 Y73.887 E15.92097 ; fill
G1 X91.100 Y89.541 E16.65456 ; fill
G1 X91.124 Y90.131 E16.67414 ; fill
G1 X74.880 Y73.887 E17.43539 ; fill
G1 X74.314 Y73.887 E17.45417 ; fill
G1 X91.124 Y90.697 E18.24197 ; fill
G1 X91.124 Y91.264 E18.26074 ; fill
G1 X73.787 Y73.927 E19.07321 ; fill
G1 X73.273 Y73.980 E19.09033 ; fill
G1 X91.124 Y91.830 E19.92689 ; fill
G1 X91.124 Y92.397 E19.94567 ; fill
G1 X72.759 Y74.032 E20.80632 ; fill
G1 X72.272 Y74.111 E20.82268 ; fill
G1 X80.825 Y82.664 E21.22350 ; fill
G1 X79.240 Y81.646 F7800.000 ; move to first fill point
G1 X71.802 Y74.208 E21.57209 F1080.000 ; fill
G1 X71.332 Y74.304 E21.58799 ; fill
G1 X78.242 Y81.214 E21.91181 ; fill
G1 X77.399 Y80.938 E21.94121 ; fill
G1 X70.870 Y74.409 E22.24717 ; fill
G1 X70.439 Y74.544 E22.26215 ; fill
G1 X76.675 Y80.780 E22.55439 ; fill
G1 X76.011 Y80.683 E22.57661 ; fill
G1 X70.008 Y74.680 E22.85796 ; fill
G1 X69.577 Y74.815 E22.87294 ; fill
G1 X75.401 Y80.639 E23.14590 ; fill
G1 X74.819 Y80.624 E23.16520 ; fill
G1 X69.166 Y74.971 E23.43012 ; fill
G1 X68.770 Y75.141 E23.44442 ; fill
G1 X74.290 Y80.661 E23.70314 ; fill
G1 X73.762 Y80.699 E23.72070 ; fill
G1 X68.373 Y75.311 E23.97322 ; fill
G1 X67.977 Y75.481 E23.98752 ; fill
G1 X73.285 Y80.789 E24.23627 ; fill
G1 X72.820 Y80.890 E24.25205 ; fill
G1 X67.607 Y75.677 E24.49636 ; fill
G1 X67.242 Y75.879 E24.51017 ; fill
G1 X72.355 Y80.992 E24.74976 ; fill
G1 X71.942 Y81.145 E24.76436 ; fill
G1 X66.878 Y76.081 E25.00169 ; fill
G1 X66.514 Y76.283 E25.01550 ; fill
G1 X71.530 Y81.299 E25.25057 ; fill
G1 X71.117 Y81.453 E25.26516 ; fill
G1 X66.176 Y76.512 E25.49671 ; fill
G1 X65.842 Y76.745 E25.51020 ; fill
G1 X70.749 Y81.652 E25.74016 ; fill
G1 X70.383 Y81.852 E25.75400 ; fill
G1 X65.508 Y76.977 E25.98244 ; fill
G1 X65.174 Y77.210 E25.99593 ; fill
G1 X70.016 Y82.052 E26.22286 ; fill
G1 X69.682 Y82.284 E26.23634 ; fill
G1 X64.866 Y77.468 E26.46208 ; fill
G1 X64.561 Y77.729 E26.47539 ; fill
G1 X69.359 Y82.527 E26.70023 ; fill
G1 X69.035 Y82.769 E26.71364 ; fill
G1 X64.256 Y77.991 E26.93758 ; fill
G1 X63.954 Y78.255 E26.95088 ; fill
G1 X68.729 Y83.030 E27.17466 ; fill
G1 X68.446 Y83.314 E27.18793 ; fill
G1 X63.671 Y78.539 E27.41171 ; fill
G1 X63.394 Y78.828 E27.42498 ; fill
G1 X68.163 Y83.597 E27.64849 ; fill
G1 X67.884 Y83.885 E27.66176 ; fill
G1 X63.118 Y79.118 E27.88515 ; fill
G1 X62.842 Y79.409 E27.89843 ; fill
G1 X67.642 Y84.209 E28.12338 ; fill
G1 X67.399 Y84.533 E28.13679 ; fill
G1 X62.587 Y79.720 E28.36234 ; fill
G1 X62.339 Y80.039 E28.37572 ; fill
G1 X67.157 Y84.857 E28.60148 ; fill
G1 X66.949 Y85.215 E28.61521 ; fill
G1 X62.092 Y80.359 E28.84279 ; fill
G1 X61.845 Y80.678 E28.85618 ; fill
G1 X66.748 Y85.581 E29.08597 ; fill
G1 X66.548 Y85.948 E29.09980 ; fill
G1 X61.618 Y81.018 E29.33085 ; fill
G1 X61.401 Y81.367 E29.34448 ; fill
G1 X66.376 Y86.342 E29.57765 ; fill
G1 X66.222 Y86.755 E29.59224 ; fill
G1 X61.183 Y81.715 E29.82840 ; fill
G1 X60.966 Y82.064 E29.84202 ; fill
G1 X66.068 Y87.167 E30.08116 ; fill
G1 X65.944 Y87.609 E30.09638 ; fill
G1 X60.770 Y82.436 E30.33885 ; fill
G1 X60.584 Y82.816 E30.35288 ; fill
G1 X65.843 Y88.075 E30.59935 ; fill
G1 X65.742 Y88.540 E30.61512 ; fill
G1 X60.398 Y83.196 E30.86558 ; fill
G1 X60.211 Y83.576 E30.87961 ; fill
G1 X65.688 Y89.053 E31.13630 ; fill
G1 X65.651 Y89.582 E31.15386 ; fill
G1 X60.053 Y83.984 E31.41618 ; fill
G1 X59.900 Y84.397 E31.43079 ; fill
G1 X65.624 Y90.121 E31.69903 ; fill
G1 X65.624 Y90.688 E31.71780 ; fill
G1 X59.747 Y84.811 E31.99321 ; fill
G1 X59.599 Y85.230 E32.00792 ; fill
G1 X65.624 Y91.254 E32.29025 ; fill
G1 X65.624 Y91.820 E32.30902 ; fill
G1 X59.483 Y85.680 E32.59681 ; fill
G1 X59.366 Y86.130 E32.61221 ; fill
G1 X65.624 Y92.387 E32.90546 ; fill
G1 X65.624 Y92.953 E32.92423 ; fill
G1 X59.250 Y86.579 E33.22294 ; fill
G1 X59.160 Y87.056 E33.23900 ; fill
G1 X65.624 Y93.520 E33.54194 ; fill
G1 X65.624 Y94.086 E33.56071 ; fill
G1 X59.084 Y87.547 E33.86718 ; fill
G1 X59.009 Y88.038 E33.88365 ; fill
G1 X65.624 Y94.653 E34.19364 ; fill
G1 X65.624 Y95.219 E34.21241 ; fill
G1 X58.951 Y88.546 E34.52515 ; fill
