; generated by Slic3r 1.1.7 on 2014-09-14 at 17:59:37

; perimeters extrusion width = 0.42mm
; infill extrusion width = 0.74mm
; solid infill extrusion width = 0.71mm
; top infill extrusion width = 0.71mm

G21 ; set units to millimeters
M107 ; disable fan
M104 S200 ; set temperature
POSOFFSET CLEAR X Y U A B C D
M109 S200 ; wait for temperature to be reached
G90 ; use absolute coordinates
G92 E0 ; reset extrusion distance
M82 ; use absolute distances for extrusion
G1 Z0.200 F7800.000 ; move to next layer (0)
;LayerChange
G1 F1800.000 E-1.00000 ; retract
G92 E0 ; reset extrusion distance
G1 X480.683 Y116.834 F7800.000 ; move to first skirt point
G1 E1.00000 F1800.000 ; compensate retraction
G1 X480.955 Y115.929 E1.01081 F1800.000 ; skirt
G1 X481.326 Y115.065 E1.02156 ; skirt
G1 X482.229 Y113.627 E1.04099 ; skirt
G1 X482.805 Y112.991 E1.05080 ; skirt
G1 X483.473 Y112.408 E1.06095 ; skirt
G1 X483.844 Y112.137 E1.06620 ; skirt
G1 X484.925 Y111.536 E1.08036 ; skirt
G1 X485.328 Y111.369 E1.08535 ; skirt
G1 X485.803 Y111.203 E1.09110 ; skirt
G1 X486.749 Y110.977 E1.10222 ; skirt
G1 X487.282 Y110.895 E1.10839 ; skirt
G1 X502.915 Y108.872 E1.28871 ; skirt
G1 X516.491 Y108.722 E1.44402 ; skirt
G1 X517.025 Y108.743 E1.45013 ; skirt
G1 X518.604 Y109.066 E1.46857 F1800.000 ; skirt
G1 X518.773 Y109.124 E1.47061 ; skirt
G1 X519.377 Y109.363 E1.47805 ; skirt
G1 X520.134 Y109.756 E1.48780 ; skirt
G1 X520.454 Y109.953 E1.49210 ; skirt
G1 X521.258 Y110.564 E1.50364 ; skirt
G1 X521.581 Y110.866 E1.50871 ; skirt
G1 X522.403 Y111.815 E1.52307 ; skirt
G1 X522.751 Y112.342 E1.53030 ; skirt
G1 X523.273 Y113.360 E1.54338 ; skirt
G1 X523.595 Y114.191 E1.55358 ; skirt
G1 X524.951 Y118.169 E1.60165 ; skirt
G1 X525.171 Y119.037 E1.61190 ; skirt
G1 X525.286 Y119.699 E1.61958 ; skirt
G1 X525.356 Y120.282 E1.62629 ; skirt
G1 X525.375 Y120.769 E1.63187 ; skirt
G1 X525.360 Y121.312 E1.63809 ; skirt
G1 X525.311 Y121.935 E1.64524 ; skirt
G1 X525.216 Y122.650 E1.65348 ; skirt
G1 X525.045 Y123.382 E1.66209 ; skirt
G1 X524.698 Y124.382 E1.67419 ; skirt
G1 X524.525 Y124.754 E1.67889 ; skirt
G1 X524.166 Y125.403 E1.68737 ; skirt
G1 X523.647 Y126.131 E1.69760 ; skirt
G1 X516.082 Y135.324 E1.83379 ; skirt
G1 X515.609 Y135.820 E1.84163 ; skirt
G1 X515.209 Y136.193 E1.84788 ; skirt
G1 X514.771 Y136.559 E1.85441 ; skirt
G1 X514.463 Y136.788 E1.85880 ; skirt
G1 X513.675 Y137.289 E1.86949 ; skirt
G1 X512.630 Y137.789 E1.88273 ; skirt
G1 X512.145 Y137.965 E1.88864 ; skirt
G1 X511.561 Y138.151 E1.89564 ; skirt
G1 X501.386 Y141.093 E2.01681 ; skirt
G1 X500.643 Y141.288 E2.02560 ; skirt
G1 X499.850 Y141.452 E2.03487 ; skirt
G1 X498.874 Y141.596 E2.04615 ; skirt
G1 X498.133 Y141.649 E2.05464 ; skirt
G1 X497.335 Y141.628 E2.06377 ; skirt
G1 X496.278 Y141.513 E2.07594 ; skirt
G1 X494.627 Y141.276 E2.09502 ; skirt
G1 X493.993 Y141.164 E2.10238 ; skirt
G1 X492.898 Y140.914 E2.11524 ; skirt
G1 X491.790 Y140.565 E2.12852 ; skirt
G1 X490.924 Y140.193 E2.13930 ; skirt
G1 X490.243 Y139.834 E2.14811 ; skirt
G1 X489.451 Y139.348 E2.15874 ; skirt
G1 X488.655 Y138.781 E2.16991 ; skirt
G1 X487.876 Y138.149 E2.18139 ; skirt
G1 X487.319 Y137.643 E2.18999 ; skirt
G1 X486.407 Y136.707 E2.20494 ; skirt
G1 X485.733 Y135.958 E2.21647 ; skirt
G1 X485.387 Y135.543 E2.22265 ; skirt
G1 X484.437 Y134.246 E2.24104 ; skirt
G1 X484.011 Y133.571 E2.25018 ; skirt
G1 X483.520 Y132.692 E2.26169 ; skirt
G1 X482.924 Y131.476 E2.27718 ; skirt
G1 X482.791 Y131.154 E2.28117 ; skirt
G1 X482.299 Y129.856 E2.29704 ; skirt
G1 X481.857 Y128.444 E2.31398 ; skirt
G1 X481.563 Y127.120 E2.32949 ; skirt
G1 X480.429 Y121.547 E2.39454 ; skirt
G1 X480.364 Y120.613 E2.40526 ; skirt
G1 X480.454 Y118.147 E2.43348 ; skirt
G1 X480.671 Y116.896 E2.44801 ; skirt
G1 F1800.000 E1.44801 ; retract
G92 E0 ; reset extrusion distance
G1 X490.226 Y118.111 F7800.000 ; move to first fill point
G1 E1.00000 F1800.000 ; compensate retraction
G1 X492.441 Y120.326 E1.03584 F1800.000 ; fill
G1 X491.927 Y119.235 F7800.000 ; move to first fill point
G1 X491.148 Y118.456 E1.04844 F1800.000 ; fill
G1 X489.519 Y128.364 F7800.000 ; move to first fill point
G1 X495.112 Y133.957 E1.13892 F1800.000 ; fill
G1 X495.817 Y134.085 E1.14712 ; fill
G1 X489.170 Y127.438 E1.25466 ; fill
G1 X488.902 Y126.593 E1.26480 ; fill
G1 X496.493 Y134.184 E1.38760 ; fill
G1 X497.169 Y134.283 E1.39541 ; fill
G1 X488.738 Y125.852 E1.53181 ; fill
G1 X488.623 Y125.160 E1.53982 ; fill
G1 X497.814 Y134.351 E1.68851 ; fill
G1 X498.354 Y134.314 E1.69470 ; fill
G1 X488.545 Y124.505 E1.85338 ; fill
G1 X488.471 Y123.855 E1.86087 ; fill
G1 X498.843 Y134.227 E2.02866 ; fill
G1 X499.306 Y134.112 E2.03411 ; fill
G1 X488.409 Y123.215 E2.21040 ; fill
G1 X488.299 Y122.529 E2.21835 ; fill
G1 X499.735 Y133.965 E2.40336 ; fill
G1 X500.142 Y133.795 E2.40841 ; fill
G1 X487.976 Y121.629 E2.60522 ; fill
G1 X487.704 Y120.781 E2.61542 ; fill
G1 X500.496 Y133.572 E2.82235 ; fill
G1 X500.817 Y133.317 E2.82705 ; fill
G1 X487.650 Y120.150 E3.04005 ; fill
G1 X487.652 Y119.574 E3.04663 ; fill
G1 X501.138 Y133.061 E3.26481 ; fill
G1 X501.459 Y132.805 E3.26951 ; fill
G1 X487.710 Y119.056 E3.49194 ; fill
G1 X487.768 Y118.537 E3.49791 ; fill
G1 X501.793 Y132.562 E3.72481 ; fill
G1 X502.138 Y132.330 E3.72956 ; fill
G1 X487.975 Y118.168 E3.95868 ; fill
G1 X488.492 Y118.107 E3.96462 ; fill
G1 X502.492 Y132.108 E4.19111 ; fill
G1 X502.871 Y131.910 E4.19600 ; fill
G1 X489.086 Y118.124 E4.41902 ; fill
G1 X489.636 Y118.098 E4.42532 ; fill
G1 X503.274 Y131.736 E4.64596 ; fill
G1 X503.705 Y131.590 E4.65116 ; fill
G1 X493.347 Y121.232 E4.81874 ; fill
G1 X494.203 Y121.511 E4.82904 ; fill
G1 X504.175 Y131.484 E4.99037 ; fill
G1 X504.694 Y131.425 E4.99634 ; fill
G1 X494.801 Y121.532 E5.15638 ; fill
G1 X495.342 Y121.496 E5.16258 ; fill
G1 X505.270 Y131.425 E5.32321 ; fill
G1 X505.859 Y131.437 E5.32994 ; fill
G1 X495.852 Y121.430 E5.49183 ; fill
G1 X496.319 Y121.320 E5.49731 ; fill
G1 X506.455 Y131.456 E5.66129 ; fill
G1 X506.994 Y131.418 E5.66747 ; fill
G1 X496.753 Y121.177 E5.83314 ; fill
G1 X497.168 Y121.015 E5.83824 ; fill
G1 X507.473 Y131.320 E6.00495 ; fill
G1 X508.014 Y131.285 E6.01115 ; fill
G1 X497.552 Y120.823 E6.18040 ; fill
G1 X497.927 Y120.621 E6.18527 ; fill
G1 X508.603 Y131.297 E6.35798 ; fill
G1 X509.083 Y131.200 E6.36358 ; fill
G1 X498.282 Y120.399 E6.53830 ; fill
G1 X498.618 Y120.158 E6.54303 ; fill
G1 X509.592 Y131.132 E6.72056 ; fill
G1 X510.020 Y130.984 E6.72574 ; fill
G1 X498.940 Y119.903 E6.90500 ; fill
G1 X499.261 Y119.648 E6.90969 ; fill
G1 X510.358 Y130.744 E7.08921 ; fill
G1 X510.646 Y130.456 E7.09387 ; fill
G1 X499.562 Y119.372 E7.27318 ; fill
G1 X499.860 Y119.093 E7.27785 ; fill
G1 X510.890 Y130.123 E7.45629 ; fill
G1 X511.068 Y129.724 E7.46129 ; fill
G1 X500.155 Y118.812 E7.63782 ; fill
G1 X500.444 Y118.523 E7.64249 ; fill
G1 X511.243 Y129.322 E7.81718 ; fill
G1 X511.420 Y128.922 E7.82218 ; fill
G1 X500.733 Y118.235 E7.99507 ; fill
G1 X501.021 Y117.947 E7.99973 ; fill
G1 X511.590 Y128.516 E8.17071 ; fill
G1 X511.819 Y128.167 E8.17547 ; fill
G1 X501.316 Y117.665 E8.34537 ; fill
G1 X501.616 Y117.388 E8.35004 ; fill
G1 X511.992 Y127.764 E8.51791 ; fill
G1 X512.142 Y127.337 E8.52309 ; fill
G1 X501.915 Y117.111 E8.68853 ; fill
G1 X502.215 Y116.833 E8.69320 ; fill
G1 X512.246 Y126.864 E8.85547 ; fill
G1 X512.317 Y126.359 E8.86132 ; fill
G1 X502.536 Y116.577 E9.01955 ; fill
G1 X502.874 Y116.339 E9.02429 ; fill
G1 X512.364 Y125.829 E9.17782 ; fill
G1 X512.431 Y125.319 E9.18370 ; fill
G1 X503.261 Y116.149 E9.33206 ; fill
G1 X503.895 Y116.206 E9.33934 ; fill
G1 X512.499 Y124.810 E9.47853 ; fill
G1 X512.629 Y124.363 E9.48385 ; fill
G1 X504.741 Y116.476 E9.61145 ; fill
G1 X505.898 Y117.056 F7800.000 ; move to first fill point
G1 X512.787 Y123.945 E9.72290 F1800.000 ; fill
G1 X513.024 Y123.604 E9.72764 ; fill
G1 X507.490 Y118.071 E9.81715 ; fill
G1 X508.423 Y118.427 F7800.000 ; move to first fill point
G1 X513.298 Y123.302 E9.89602 F1800.000 ; fill
G1 X513.647 Y123.074 E9.90078 ; fill
G1 X509.142 Y118.570 E9.97365 ; fill
G1 X509.735 Y118.586 E9.98043 ; fill
G1 X514.080 Y122.930 E10.05071 ; fill
G1 X514.595 Y122.869 E10.05665 ; fill
G1 X510.235 Y118.509 E10.12718 ; fill
G1 X510.669 Y118.366 E10.13240 ; fill
G1 X515.203 Y122.899 E10.20574 ; fill
G1 X515.574 Y122.694 E10.21060 ; fill
G1 X511.059 Y118.179 E10.28363 ; fill
G1 X511.421 Y117.964 E10.28845 ; fill
G1 X515.945 Y122.488 E10.36163 ; fill
G1 X516.307 Y122.274 E10.36645 ; fill
G1 X511.759 Y117.725 E10.44003 ; fill
G1 X512.075 Y117.465 E10.44472 ; fill
G1 X516.656 Y122.046 E10.51883 ; fill
G1 X517.007 Y121.819 E10.52360 ; fill
G1 X512.466 Y117.279 E10.59706 ; fill
G1 X512.923 Y117.159 E10.60247 ; fill
G1 X517.389 Y121.625 E10.67471 ; fill
G1 X517.827 Y121.486 E10.67997 ; fill
G1 X513.371 Y117.031 E10.75204 ; fill
G1 X513.796 Y116.879 E10.75720 ; fill
G1 X518.066 Y121.148 E10.82628 ; fill
G1 X518.042 Y120.547 E10.83316 ; fill
G1 X514.189 Y116.695 E10.89548 ; fill
G1 X514.510 Y116.439 E10.90018 ; fill
G1 X517.467 Y119.396 E10.94802 ; fill
G1 X517.085 Y118.437 F7800.000 ; move to first fill point
G1 X514.929 Y116.281 E10.98290 F1800.000 ; fill
G1 X515.451 Y116.226 E10.98891 ; fill
G1 X516.863 Y117.638 E11.01175 ; fill
G1 X516.765 Y116.963 E11.01954 ; fill
G1 X515.946 Y116.145 E11.03279 ; fill
G1 X516.541 Y116.162 E11.03959 ; fill
G1 X516.394 Y116.015 E11.04197 ; fill
G1 X494.297 Y133.718 F7800.000 ; move to first fill point
G1 X490.056 Y129.477 E11.11058 F1800.000 ; fill
G1 X491.656 Y131.654 F7800.000 ; move to first fill point
G1 X492.632 Y132.630 E11.12638 F1800.000 ; fill
G1 X518.714 Y121.476 F7800.000 ; move to first perimeter point
G1 X518.654 Y121.710 E11.12914 F6000.000 ; perimeter
G1 X518.599 Y121.841 E11.13076 ; perimeter
G1 X518.543 Y121.936 E11.13203 ; perimeter
G1 X518.423 Y122.030 E11.13377 ; perimeter
G1 X518.339 Y122.066 E11.13482 ; perimeter
G1 X517.851 Y122.177 E11.14054 ; perimeter
G1 X517.557 Y122.292 E11.14414 ; perimeter
G1 X517.282 Y122.443 E11.14774 ; perimeter
G1 X516.634 Y122.868 E11.15660 ; perimeter
G1 X515.347 Y123.604 E11.17356 ; perimeter
G1 X515.177 Y123.684 E11.17572 ; perimeter
G1 X515.057 Y123.716 E11.17713 ; perimeter
G1 X514.817 Y123.664 E11.17995 ; perimeter
G1 X514.683 Y123.593 E11.18168 ; perimeter
G1 X514.632 Y123.542 E11.18250 ; perimeter
G1 X514.365 Y123.552 E11.18555 ; perimeter
G1 X513.935 Y123.687 E11.19071 ; perimeter
G1 X513.801 Y123.751 E11.19241 ; perimeter
G1 X513.427 Y124.173 E11.19886 ; perimeter
G1 X513.228 Y124.694 E11.20524 ; perimeter
G1 X513.170 Y124.896 E11.20764 ; perimeter
G1 X513.058 Y125.746 E11.21745 ; perimeter
G1 X512.954 Y126.788 E11.22943 ; perimeter
G1 X512.836 Y127.375 E11.23628 ; perimeter
G1 X512.654 Y127.934 E11.24300 ; perimeter
G1 X512.665 Y127.962 E11.24334 ; perimeter
G1 X512.383 Y128.571 E11.25102 ; perimeter
G1 X512.218 Y128.826 E11.25450 ; perimeter
G1 X512.158 Y128.982 E11.25641 ; perimeter
G1 X512.080 Y129.095 E11.25798 ; perimeter
G1 X512.027 Y129.248 E11.25983 ; perimeter
G1 X511.942 Y129.368 E11.26151 ; perimeter
G1 X511.940 Y129.430 E11.26222 ; perimeter
G1 X511.496 Y130.434 E11.27478 ; perimeter
G1 X511.346 Y130.638 E11.27767 ; perimeter
G1 X511.346 Y130.673 E11.27808 ; perimeter
G1 X511.249 Y130.824 E11.28013 ; perimeter
G1 X510.868 Y131.216 E11.28638 ; perimeter
G1 X510.510 Y131.494 E11.29157 ; perimeter
G1 X510.258 Y131.626 E11.29482 ; perimeter
G1 X509.662 Y131.818 E11.30198 ; perimeter
G1 X509.053 Y131.885 E11.30899 ; perimeter
G1 X508.566 Y132.004 E11.31473 ; perimeter
G1 X508.288 Y132.015 E11.31791 ; perimeter
G1 X508.098 Y131.997 E11.32009 ; perimeter
G1 X508.069 Y131.968 E11.32056 ; perimeter
G1 X507.804 Y131.955 E11.32359 ; perimeter
G1 X507.037 Y132.100 E11.33252 ; perimeter
G1 X506.620 Y132.138 E11.33731 ; perimeter
G1 X505.468 Y132.102 E11.35050 ; perimeter
G1 X504.641 Y132.103 E11.35996 ; perimeter
G1 X503.941 Y132.225 E11.36808 ; perimeter
G1 X503.401 Y132.408 E11.37461 ; perimeter
G1 X502.931 Y132.637 E11.38059 ; perimeter
G1 X502.688 Y132.788 E11.38386 ; perimeter
G1 X501.881 Y133.335 E11.39500 ; perimeter
G1 X500.780 Y134.211 E11.41111 ; perimeter
G1 X500.375 Y134.442 E11.41644 ; perimeter
G1 X499.663 Y134.716 E11.42516 ; perimeter
G1 X499.241 Y134.834 E11.43017 ; perimeter
G1 X498.748 Y134.940 E11.43594 ; perimeter
G1 X498.033 Y135.045 E11.44421 ; perimeter
G1 X497.794 Y135.039 E11.44695 ; perimeter
G1 X497.207 Y134.974 E11.45370 ; perimeter
G1 X495.686 Y134.757 E11.47127 ; perimeter
G1 X494.811 Y134.587 E11.48148 ; perimeter
G1 X494.210 Y134.420 E11.48862 ; perimeter
G1 X493.762 Y134.229 E11.49417 ; perimeter
G1 X493.195 Y133.906 E11.50165 ; perimeter
G1 X492.811 Y133.649 E11.50693 ; perimeter
G1 X492.023 Y133.008 E11.51855 ; perimeter
G1 X491.309 Y132.281 E11.53021 ; perimeter
G1 X490.628 Y131.524 E11.54185 ; perimeter
G1 X490.012 Y130.703 E11.55360 ; perimeter
G1 X489.469 Y129.818 E11.56547 ; perimeter
G1 X488.988 Y128.859 E11.57775 ; perimeter
G1 X488.561 Y127.758 E11.59125 ; perimeter
G1 X488.210 Y126.637 E11.60469 ; perimeter
G1 X488.007 Y125.661 E11.61609 ; perimeter
G1 X487.819 Y124.141 E11.63362 ; perimeter
G1 X487.708 Y122.921 E11.64762 ; perimeter
G1 X487.574 Y122.430 E11.65345 ; perimeter
G1 X487.578 Y122.375 E11.65409 ; perimeter
G1 X487.551 Y122.339 E11.65460 ; perimeter
G1 X487.493 Y122.141 E11.65696 ; perimeter
G1 X487.248 Y121.731 E11.66242 ; perimeter
G1 X486.969 Y120.627 E11.67546 ; perimeter
G1 X486.986 Y120.379 E11.67830 ; perimeter
G1 X486.977 Y119.185 E11.69196 ; perimeter
G1 X487.044 Y118.919 E11.69509 ; perimeter
G1 X487.116 Y118.331 E11.70187 ; perimeter
G1 X487.197 Y118.130 E11.70434 ; perimeter
G1 X487.242 Y118.086 E11.70507 ; perimeter
G1 X487.242 Y118.023 E11.70579 ; perimeter
G1 X487.343 Y117.804 E11.70854 ; perimeter
G1 X487.472 Y117.665 E11.71071 ; perimeter
G1 X487.692 Y117.539 E11.71361 ; perimeter
G1 X487.791 Y117.501 E11.71482 ; perimeter
G1 X488.340 Y117.427 E11.72116 ; perimeter
G1 X489.238 Y117.450 E11.73144 ; perimeter
G1 X489.962 Y117.388 E11.73975 ; perimeter
G1 X489.984 Y117.409 E11.74010 ; perimeter
G1 X490.213 Y117.419 E11.74273 ; perimeter
G1 X490.704 Y117.528 E11.74848 ; perimeter
G1 X491.268 Y117.701 E11.75523 ; perimeter
G1 X491.442 Y117.796 E11.75750 ; perimeter
G1 X491.534 Y117.819 E11.75858 ; perimeter
G1 X491.905 Y118.055 E11.76361 ; perimeter
G1 X492.283 Y118.411 E11.76955 ; perimeter
G1 X492.420 Y118.635 E11.77256 ; perimeter
G1 X492.707 Y119.379 E11.78168 ; perimeter
G1 X492.930 Y119.822 E11.78735 ; perimeter
G1 X493.291 Y120.324 E11.79443 ; perimeter
G1 X493.555 Y120.579 E11.79862 ; perimeter
G1 X493.612 Y120.587 E11.79929 ; perimeter
G1 X494.088 Y120.802 E11.80526 ; perimeter
G1 X494.420 Y120.858 E11.80911 ; perimeter
G1 X494.868 Y120.854 E11.81424 ; perimeter
G1 X495.731 Y120.763 E11.82416 ; perimeter
G1 X495.969 Y120.716 E11.82693 ; perimeter
G1 X496.486 Y120.564 E11.83310 ; perimeter
G1 X497.080 Y120.315 E11.84046 ; perimeter
G1 X497.443 Y120.122 E11.84517 ; perimeter
G1 X498.030 Y119.755 E11.85308 ; perimeter
G1 X498.860 Y119.102 E11.86516 ; perimeter
G1 X499.619 Y118.390 E11.87707 ; perimeter
G1 X500.679 Y117.332 E11.89420 ; perimeter
G1 X501.827 Y116.270 E11.91209 ; perimeter
G1 X502.203 Y115.978 E11.91753 ; perimeter
G1 X502.661 Y115.663 E11.92390 ; perimeter
G1 X502.891 Y115.549 E11.92683 ; perimeter
G1 X503.164 Y115.472 E11.93008 ; perimeter
G1 X503.775 Y115.473 E11.93707 ; perimeter
G1 X504.375 Y115.632 E11.94416 ; perimeter
G1 X504.888 Y115.801 E11.95035 ; perimeter
G1 X505.404 Y116.023 E11.95678 ; perimeter
G1 X506.089 Y116.378 E11.96560 ; perimeter
G1 X507.476 Y117.256 E11.98438 ; perimeter
G1 X508.064 Y117.594 E11.99214 ; perimeter
G1 X508.925 Y117.873 E12.00249 ; perimeter
G1 X509.174 Y117.905 E12.00537 ; perimeter
G1 X509.562 Y117.919 E12.00980 ; perimeter
G1 X509.956 Y117.887 E12.01433 ; perimeter
G1 X510.568 Y117.677 E12.02173 ; perimeter
G1 X510.810 Y117.537 E12.02493 ; perimeter
G1 X510.867 Y117.526 E12.02559 ; perimeter
G1 X511.273 Y117.250 E12.03120 ; perimeter
G1 X511.658 Y116.929 E12.03694 ; perimeter
G1 X511.863 Y116.796 E12.03974 ; perimeter
