; generated by Slic3r 1.0.0 on 2014-09-27 at 16:04:58

; layer_height = 0.2
; perimeters = 2
; top_solid_layers = 3
; bottom_solid_layers = 3
; fill_density = 0.4
; perimeter_speed = 30
; infill_speed = 60
; travel_speed = 130
; nozzle_diameter = 0.4
; filament_diameter = 1.75
; extrusion_multiplier = 1
; perimeters extrusion width = 0.40mm
; infill extrusion width = 0.67mm
; solid infill extrusion width = 0.67mm
; top infill extrusion width = 0.67mm
; first layer extrusion width = 0.40mm

G21 ; set units to millimeters
M104 S205 ; set temperature
G28 ; home all axes
G1 Z5 F5000 ; lift nozzle
M109 S205 ; wait for temperature to be reached
G90 ; use absolute coordinates
G92 E0 ; reset extrusion distance
M82 ; use absolute distances for extrusion
G1 F1800.000 E-1.00000 ; retract
G92 E0 ; reset extrusion distance
G1 Z0.200 F7800.000 ; move to next layer (0)
G1 X60.179 Y69.181 F7800.000 ; move to first skirt point
G1 E1.00000 F1800.000 ; compensate retraction
G1 X60.729 Y68.711 E1.02406 F540.000 ; skirt
G1 X63.329 Y66.741 E1.13256 ; skirt
G1 X64.509 Y66.031 E1.17836 ; skirt
G1 X65.809 Y65.591 E1.22401 ; skirt
G1 X67.169 Y65.441 E1.26952 ; skirt
G1 X87.439 Y65.361 E1.94371 ; skirt
G1 X88.809 Y65.501 E1.98951 ; skirt
G1 X90.119 Y65.931 E2.03537 ; skirt
G1 X91.299 Y66.631 E2.08100 ; skirt
G1 X93.909 Y68.581 E2.18936 ; skirt
G1 X94.449 Y69.041 E2.21296 ; skirt
G1 X94.999 Y69.611 E2.23930 ; skirt
G1 X95.789 Y70.781 E2.28626 ; skirt
G1 X96.309 Y72.081 E2.33282 ; skirt
G1 X96.529 Y73.471 E2.37963 ; skirt
G1 X96.449 Y74.881 E2.42660 ; skirt
G1 X96.049 Y76.231 E2.47343 ; skirt
G1 X84.259 Y104.701 E3.49834 ; skirt
G1 X83.539 Y105.991 E3.54747 ; skirt
G1 X82.549 Y107.081 E3.59645 ; skirt
G1 X81.329 Y107.911 E3.64552 ; skirt
G1 X79.949 Y108.451 E3.69481 ; skirt
G1 X78.489 Y108.651 E3.74382 ; skirt
G1 X77.589 Y108.671 E3.77377 ; skirt
G1 X76.469 Y108.661 E3.81102 ; skirt
G1 X74.999 Y108.471 E3.86032 ; skirt
G1 X73.609 Y107.951 E3.90968 ; skirt
G1 X72.379 Y107.131 E3.95885 ; skirt
G1 X71.369 Y106.041 E4.00827 ; skirt
G1 X70.639 Y104.751 E4.05757 ; skirt
G1 X58.649 Y76.361 E5.08258 ; skirt
G1 X58.249 Y75.021 E5.12909 ; skirt
G1 X58.149 Y73.631 E5.17545 ; skirt
G1 X58.359 Y72.241 E5.22220 ; skirt
G1 X58.859 Y70.941 E5.26853 ; skirt
G1 X59.629 Y69.771 E5.31511 ; skirt
G1 X60.138 Y69.225 E5.33995 ; skirt
G1 F1800.000 E4.33995 ; retract
G92 E0 ; reset extrusion distance
G1 X67.589 Y72.940 F7800.000 ; move to first perimeter point
G1 E1.00000 F1800.000 ; compensate retraction
G1 X68.778 Y73.920 E1.05125 F540.000 ; perimeter
G1 X68.886 Y73.986 E1.05545 ; perimeter
G1 X72.585 Y77.125 E1.21680 ; perimeter
G1 X73.002 Y77.052 E1.23088 ; perimeter
G1 X77.360 Y77.687 E1.37738 ; perimeter
G1 X81.714 Y77.023 E1.52385 ; perimeter
G1 X82.131 Y77.092 E1.53794 ; perimeter
G1 X85.808 Y73.924 E1.69936 ; perimeter
G1 X85.915 Y73.858 E1.70355 ; perimeter
G1 X87.097 Y72.869 E1.75480 ; perimeter
G1 X87.180 Y73.350 E1.77103 ; perimeter
G1 X88.276 Y73.327 E1.80748 ; perimeter
G1 X88.440 Y74.273 E1.83943 ; perimeter
G1 X89.154 Y74.293 E1.86318 ; perimeter
G1 X88.173 Y76.015 E1.92907 ; perimeter
G1 X84.056 Y83.095 E2.20149 ; perimeter
G1 X84.045 Y83.155 E2.20350 ; perimeter
G1 X78.713 Y86.198 E2.40769 ; perimeter
G1 X79.172 Y86.642 E2.42891 ; perimeter
G1 X77.807 Y101.670 E2.93080 ; perimeter
G1 X77.088 Y101.673 E2.95472 ; perimeter
G1 X75.614 Y86.655 E3.45661 ; perimeter
G1 X76.070 Y86.208 E3.47784 ; perimeter
G1 X70.716 Y83.203 E3.68203 ; perimeter
G1 X70.705 Y83.144 E3.68404 ; perimeter
G1 X66.536 Y76.094 E3.95645 ; perimeter
G1 X65.543 Y74.380 E4.02235 ; perimeter
G1 X66.256 Y74.354 E4.04610 ; perimeter
G1 X66.413 Y73.407 E4.07805 ; perimeter
G1 X67.509 Y73.422 E4.11450 ; perimeter
G1 X67.579 Y73.000 E4.12873 ; perimeter
G1 X67.171 Y73.017 F7800.000 ; move to first perimeter point
G1 X67.308 Y72.190 E4.15660 F378.000 ; perimeter
G1 X69.010 Y73.593 E4.22996 ; perimeter
G1 X69.120 Y73.660 E4.23426 ; perimeter
G1 X72.701 Y76.699 E4.39045 ; perimeter
G1 X72.996 Y76.647 E4.40042 ; perimeter
G1 X77.359 Y77.282 E4.54706 ; perimeter
G1 X81.717 Y76.618 E4.69368 ; perimeter
G1 X82.012 Y76.667 E4.70365 ; perimeter
G1 X85.571 Y73.600 E4.85990 ; perimeter
G1 X85.681 Y73.532 E4.86420 ; perimeter
G1 X87.373 Y72.117 E4.93755 ; perimeter
G1 X87.516 Y72.943 E4.96542 ; perimeter
G1 X88.611 Y72.920 E5.00188 ; perimeter
G1 X88.778 Y73.883 E5.03439 ; perimeter
G1 X89.836 Y73.912 E5.06957 ; perimeter
G1 X88.526 Y76.204 E5.15737 ; perimeter
G1 X84.436 Y83.237 E5.42795 ; perimeter
G1 X84.404 Y83.410 E5.43380 ; perimeter
G1 X79.379 Y86.285 E5.62637 ; perimeter
G1 X79.588 Y86.487 E5.63606 ; perimeter
G1 X78.174 Y102.061 E6.15618 ; perimeter
G1 X77.449 Y102.078 E6.18027 ; perimeter
G1 X76.725 Y102.067 E6.20436 ; perimeter
G1 X75.197 Y86.503 E6.72449 ; perimeter
G1 X75.405 Y86.300 E6.73417 ; perimeter
G1 X70.359 Y83.461 E6.92674 ; perimeter
G1 X70.325 Y83.288 E6.93259 ; perimeter
G1 X66.184 Y76.286 E7.20317 ; perimeter
G1 X64.858 Y74.004 E7.29097 ; perimeter
G1 X65.915 Y73.966 E7.32615 ; perimeter
G1 X66.075 Y73.002 E7.35866 ; perimeter
G1 X67.111 Y73.016 E7.39312 ; perimeter
G1 X67.568 Y73.063 F7800.000 ; move inwards before travel
G1 X68.188 Y73.797 F7800.000 ; move to first fill point
G1 X79.702 Y85.311 E7.94074 F1080.000 ; fill
G1 X79.338 Y85.519 E7.95484 ; fill
G1 X67.521 Y73.702 E8.51689 ; fill
G1 X66.941 Y73.694 E8.53640 ; fill
G1 X78.874 Y85.626 E9.10393 ; fill
G1 X78.610 Y85.935 E9.11758 ; fill
G1 X66.609 Y73.934 E9.68834 ; fill
G1 X66.528 Y74.425 E9.70507 ; fill
G1 X78.695 Y86.592 E10.28373 ; fill
G1 X78.647 Y87.116 E10.30144 ; fill
G1 X66.168 Y74.637 E10.89494 ; fill
G1 X66.592 Y75.633 F7800.000 ; move to first fill point
G1 X78.599 Y87.640 E11.46602 F1080.000 ; fill
G1 X78.552 Y88.165 E11.48373 ; fill
G1 X67.411 Y77.024 E12.01362 ; fill
G1 X68.238 Y78.423 F7800.000 ; move to first fill point
G1 X75.232 Y85.417 E12.34623 F1080.000 ; fill
G1 X76.244 Y86.429 F7800.000 ; move to first fill point
G1 X78.504 Y88.689 E12.45372 F1080.000 ; fill
G1 X78.457 Y89.214 E12.47143 ; fill
G1 X75.955 Y86.712 E12.59040 ; fill
G1 X75.957 Y87.286 E12.60970 ; fill
G1 X78.409 Y89.738 E12.72631 ; fill
G1 X78.361 Y90.262 E12.74402 ; fill
G1 X76.020 Y87.920 E12.85540 ; fill
G1 X76.082 Y88.555 E12.87683 ; fill
G1 X78.314 Y90.787 E12.98299 ; fill
G1 X78.266 Y91.311 E13.00070 ; fill
G1 X76.144 Y89.189 E13.10163 ; fill
G1 X76.206 Y89.823 E13.12306 ; fill
G1 X78.219 Y91.835 E13.21876 ; fill
G1 X78.171 Y92.360 E13.23647 ; fill
G1 X76.269 Y90.458 E13.32695 ; fill
G1 X76.331 Y91.092 E13.34838 ; fill
G1 X78.123 Y92.884 E13.43363 ; fill
G1 X78.076 Y93.409 E13.45134 ; fill
G1 X76.393 Y91.726 E13.53136 ; fill
G1 X76.455 Y92.360 E13.55280 ; fill
G1 X78.028 Y93.933 E13.62760 ; fill
G1 X77.980 Y94.457 E13.64530 ; fill
G1 X76.518 Y92.995 E13.71487 ; fill
G1 X76.580 Y93.629 E13.73631 ; fill
G1 X77.933 Y94.982 E13.80065 ; fill
G1 X77.885 Y95.506 E13.81836 ; fill
G1 X76.865 Y94.486 E13.86688 ; fill
G1 X76.927 Y95.120 E13.88832 ; fill
G1 X77.838 Y96.031 E13.93161 ; fill
G1 X77.790 Y96.555 E13.94932 ; fill
G1 X76.990 Y95.754 E13.98739 ; fill
G1 X77.052 Y96.389 E14.00882 ; fill
G1 X77.742 Y97.079 E14.04166 ; fill
G1 X77.114 Y97.023 E14.06288 ; fill
G1 X77.695 Y97.604 E14.09049 ; fill
G1 X77.176 Y97.657 E14.10802 ; fill
G1 X77.647 Y98.128 E14.13041 ; fill
G1 X77.239 Y98.292 E14.14520 ; fill
G1 X77.600 Y98.652 E14.16237 ; fill
G1 X77.301 Y98.926 E14.17598 ; fill
G1 X77.552 Y99.177 E14.18792 ; fill
G1 X77.363 Y99.560 E14.20229 ; fill
G1 X77.384 Y99.581 E14.20329 ; fill
G1 F1800.000 E13.20329 ; retract
G92 E0 ; reset extrusion distance
G1 X73.928 Y84.685 F7800.000 ; move to first fill point
G1 E1.00000 F1800.000 ; compensate retraction
G1 X69.066 Y79.823 E1.23123 F1080.000 ; fill
G1 X69.894 Y81.223 F7800.000 ; move to first fill point
G1 X72.624 Y83.953 E1.36109 F1080.000 ; fill
G1 X71.320 Y83.221 F7800.000 ; move to first fill point
G1 X70.722 Y82.623 E1.38956 F1080.000 ; fill
G1 X71.729 Y76.766 F7800.000 ; move to first fill point
G1 X80.066 Y85.103 E1.78609 F1080.000 ; fill
G1 X80.431 Y84.896 E1.80019 ; fill
G1 X72.891 Y77.356 E2.15879 ; fill
G1 X73.517 Y77.410 E2.17994 ; fill
G1 X80.795 Y84.688 E2.52606 ; fill
G1 X81.159 Y84.480 E2.54016 ; fill
G1 X74.187 Y77.508 E2.87176 ; fill
G1 X74.856 Y77.605 E2.89451 ; fill
G1 X81.523 Y84.272 E3.21158 ; fill
G1 X81.887 Y84.064 E3.22568 ; fill
G1 X75.526 Y77.703 E3.52824 ; fill
G1 X76.195 Y77.800 E3.55099 ; fill
G1 X82.251 Y83.856 E3.83902 ; fill
G1 X82.615 Y83.648 E3.85313 ; fill
G1 X76.865 Y77.898 E4.12664 ; fill
G1 X77.489 Y77.950 E4.14772 ; fill
G1 X82.979 Y83.440 E4.40884 ; fill
G1 X83.343 Y83.233 E4.42294 ; fill
G1 X77.986 Y77.875 E4.67777 ; fill
G1 X78.482 Y77.799 E4.69466 ; fill
G1 X83.708 Y83.025 E4.94320 ; fill
G1 X83.959 Y82.704 E4.95690 ; fill
G1 X78.978 Y77.723 E5.19381 ; fill
G1 X79.474 Y77.648 E5.21069 ; fill
G1 X84.169 Y82.343 E5.43399 ; fill
G1 X84.380 Y81.981 E5.44806 ; fill
G1 X79.971 Y77.572 E5.65776 ; fill
G1 X80.467 Y77.496 E5.67465 ; fill
G1 X84.590 Y81.619 E5.87075 ; fill
G1 X84.800 Y81.258 E5.88482 ; fill
G1 X80.963 Y77.420 E6.06731 ; fill
G1 X81.460 Y77.345 E6.08420 ; fill
G1 X85.011 Y80.896 E6.25309 ; fill
G1 X85.221 Y80.534 E6.26717 ; fill
G1 X82.050 Y77.363 E6.41801 ; fill
G1 X82.448 Y77.189 E6.43263 ; fill
G1 X85.431 Y80.173 E6.57452 ; fill
G1 X85.642 Y79.811 E6.58859 ; fill
G1 X82.755 Y76.924 E6.72587 ; fill
G1 X83.063 Y76.660 E6.73951 ; fill
G1 X85.852 Y79.449 E6.87219 ; fill
G1 X86.062 Y79.087 E6.88626 ; fill
G1 X83.370 Y76.395 E7.01433 ; fill
G1 X83.677 Y76.130 E7.02797 ; fill
G1 X86.273 Y78.726 E7.15143 ; fill
G1 X86.483 Y78.364 E7.16550 ; fill
G1 X83.984 Y75.865 E7.28435 ; fill
G1 X84.291 Y75.600 E7.29799 ; fill
G1 X86.693 Y78.002 E7.41224 ; fill
G1 X86.904 Y77.641 E7.42631 ; fill
G1 X84.599 Y75.336 E7.53595 ; fill
G1 X84.906 Y75.071 E7.54959 ; fill
G1 X87.114 Y77.279 E7.65462 ; fill
G1 X87.324 Y76.917 E7.66869 ; fill
G1 X85.213 Y74.806 E7.76911 ; fill
G1 X85.520 Y74.541 E7.78275 ; fill
G1 X87.535 Y76.556 E7.87856 ; fill
G1 X87.745 Y76.194 E7.89263 ; fill
G1 X85.827 Y74.276 E7.98384 ; fill
G1 X86.150 Y74.027 E7.99755 ; fill
G1 X87.955 Y75.832 E8.08342 ; fill
G1 X88.163 Y75.468 E8.09753 ; fill
G1 X86.461 Y73.766 E8.17845 ; fill
G1 X86.772 Y73.506 E8.19211 ; fill
G1 X88.370 Y75.103 E8.26810 ; fill
G1 X88.578 Y74.739 E8.28220 ; fill
G1 X87.463 Y73.624 E8.33523 ; fill
G1 X88.023 Y73.612 E8.35407 ; fill
G1 X88.045 Y73.634 E8.35512 ; fill
G1 F1800.000 E7.35512 ; retract
G92 E0 ; reset extrusion distance
G1 X77.542 Y100.051 F7800.000 ; move to first fill point
G1 E1.00000 F1800.000 ; compensate retraction
G1 X77.561 Y100.070 E1.00101 F360.000 ; fill
G1 X77.366 Y100.510 E1.01897 F360.000 ; fill
G1 X77.508 Y100.652 E1.02649 F360.000 ; fill
G1 X77.435 Y101.214 E1.04763 F360.000 ; fill
G1 X77.446 Y101.225 E1.04822 F360.000 ; fill
M104 S200 ; set temperature
G1 F1800.000 E0.04822 ; retract
G92 E0 ; reset extrusion distance
G1 Z0.400 F7800.000 ; move to next layer (1)
G1 X89.066 Y74.341 F7800.000 ; move to first perimeter point
G1 E1.00000 F1800.000 ; compensate retraction
G1 X88.354 Y75.574 E1.04736 F1800 ; perimeter
G1 X88.101 Y76.086 E1.06634 ; perimeter
G1 X84.230 Y82.743 E1.32246 ; perimeter
G1 X84.133 Y83.262 E1.34004 ; perimeter
G1 X79.823 Y85.733 E1.50528 ; perimeter
G1 X78.575 Y86.427 E1.55277 ; perimeter
G1 X79.205 Y87.036 E1.58192 ; perimeter
G1 X77.864 Y101.795 E2.07483 ; perimeter
G1 X77.033 Y101.798 E2.10249 ; perimeter
G1 X75.584 Y87.049 E2.59541 ; perimeter
G1 X76.210 Y86.436 E2.62456 ; perimeter
G1 X74.957 Y85.751 E2.67205 ; perimeter
G1 X70.629 Y83.311 E2.83729 ; perimeter
G1 X70.528 Y82.793 E2.85487 ; perimeter
G1 X66.608 Y76.164 E3.11099 ; perimeter
G1 X66.352 Y75.654 E3.12997 ; perimeter
G1 X65.630 Y74.427 E3.17733 ; perimeter
G1 X66.339 Y74.402 E3.20090 ; perimeter
G1 X66.490 Y73.487 E3.23175 ; perimeter
G1 X67.516 Y73.501 E3.26585 ; perimeter
G1 X67.599 Y72.999 E3.28279 ; perimeter
G1 X68.595 Y73.820 E3.32573 ; perimeter
G1 X68.927 Y74.020 E3.33862 ; perimeter
G1 X72.412 Y76.978 E3.49066 ; perimeter
G1 X73.298 Y76.824 E3.52057 ; perimeter
G1 X77.359 Y77.415 E3.65707 ; perimeter
G1 X81.416 Y76.796 E3.79355 ; perimeter
G1 X82.303 Y76.944 E3.82347 ; perimeter
G1 X85.767 Y73.959 E3.97556 ; perimeter
G1 X86.097 Y73.756 E3.98845 ; perimeter
G1 X87.087 Y72.927 E4.03140 ; perimeter
G1 X87.174 Y73.429 E4.04833 ; perimeter
G1 X88.199 Y73.407 E4.08244 ; perimeter
G1 X88.358 Y74.321 E4.11329 ; perimeter
G1 X89.006 Y74.340 E4.13486 ; perimeter
G1 X88.696 Y73.931 F7800.000 ; move to first perimeter point
G1 X89.748 Y73.960 E4.16987 F1260 ; perimeter
G1 X88.706 Y75.763 E4.23912 ; perimeter
G1 X88.453 Y76.275 E4.25812 ; perimeter
G1 X84.610 Y82.884 E4.51239 ; perimeter
G1 X84.492 Y83.517 E4.53381 ; perimeter
G1 X79.241 Y86.515 E4.73491 ; perimeter
G1 X79.621 Y86.881 E4.75246 ; perimeter
G1 X78.230 Y102.187 E5.26361 ; perimeter
G1 X77.450 Y102.204 E5.28957 ; perimeter
G1 X76.669 Y102.192 E5.31554 ; perimeter
G1 X75.167 Y86.898 E5.82668 ; perimeter
G1 X75.544 Y86.528 E5.84423 ; perimeter
G1 X70.271 Y83.569 E6.04533 ; perimeter
G1 X70.149 Y82.937 E6.06675 ; perimeter
G1 X66.257 Y76.356 E6.32102 ; perimeter
G1 X66.000 Y75.846 E6.34003 ; perimeter
G1 X64.946 Y74.051 E6.40927 ; perimeter
G1 X65.998 Y74.013 E6.44428 ; perimeter
G1 X66.152 Y73.082 E6.47569 ; perimeter
G1 X67.177 Y73.096 E6.50980 ; perimeter
G1 X67.318 Y72.248 E6.53837 ; perimeter
G1 X68.827 Y73.493 E6.60343 ; perimeter
G1 X69.161 Y73.695 E6.61642 ; perimeter
G1 X72.528 Y76.552 E6.76329 ; perimeter
G1 X73.075 Y76.457 E6.78176 ; perimeter
G1 X73.292 Y76.419 E6.79327 F3600 ; perimeter
G1 X77.358 Y77.011 E7.00792 ; perimeter
G1 X81.419 Y76.391 E7.22253 ; perimeter
G1 X81.636 Y76.428 E7.23406 ; perimeter
G1 X82.184 Y76.519 E7.25252 F1260 ; perimeter
G1 X85.530 Y73.635 E7.39944 ; perimeter
G1 X85.862 Y73.430 E7.41243 ; perimeter
G1 X87.363 Y72.175 E7.47749 ; perimeter
G1 X87.510 Y73.022 E7.50607 ; perimeter
G1 X88.535 Y73.000 E7.54017 ; perimeter
G1 X88.686 Y73.872 E7.56958 ; perimeter
G1 X88.711 Y74.330 F7800.000 ; move inwards before travel
G1 X87.774 Y75.549 F7800.000 ; move to first fill point
G1 X75.949 Y87.373 E8.46279 F3600 ; fill
G1 X76.304 Y86.110 F7800.000 ; move to first fill point
G1 X88.032 Y74.382 E9.34866 F3600 ; fill
G1 X87.757 Y73.748 E9.38556 ; fill
G1 X75.717 Y85.789 E10.29506 ; fill
G1 X75.129 Y85.468 E10.33082 ; fill
G1 X86.887 Y73.710 E11.21895 ; fill
G1 X86.571 Y77.660 F7800.000 ; move to first fill point
G1 X76.030 Y88.201 E12.01516 F3600 ; fill
G1 X76.111 Y89.028 E12.05956 ; fill
G1 X78.269 Y86.870 E12.22253 ; fill
G1 X78.637 Y87.410 E12.25744 ; fill
G1 X76.193 Y89.855 E12.44210 ; fill
G1 X76.274 Y90.682 E12.48650 ; fill
G1 X78.546 Y88.410 E12.65817 ; fill
G1 X78.456 Y89.409 E12.71176 ; fill
G1 X76.355 Y91.509 E12.87043 ; fill
G1 X76.436 Y92.337 E12.91483 ; fill
G1 X78.365 Y90.408 E13.06051 ; fill
G1 X78.274 Y91.407 E13.11410 ; fill
G1 X76.518 Y93.164 E13.24680 ; fill
G1 X76.599 Y93.991 E13.29119 ; fill
G1 X78.183 Y92.406 E13.41089 ; fill
G1 X78.093 Y93.406 E13.46448 ; fill
G1 X76.680 Y94.818 E13.57119 ; fill
G1 X76.761 Y95.645 E13.61558 ; fill
G1 X78.002 Y94.405 E13.70930 ; fill
G1 X77.911 Y95.404 E13.76289 ; fill
G1 X76.842 Y96.473 E13.84361 ; fill
G1 X77.820 Y96.403 E13.89597 ; fill
G1 X76.924 Y97.300 E13.96370 ; fill
G1 X77.730 Y97.402 E14.00709 ; fill
G1 X77.005 Y98.127 E14.06183 ; fill
G1 X77.639 Y98.402 E14.09873 ; fill
G1 X77.086 Y98.954 E14.14048 ; fill
G1 X77.548 Y99.401 E14.17479 ; fill
G1 X77.167 Y99.781 E14.20354 ; fill
G1 X77.436 Y100.421 E14.24060 ; fill
G1 X77.457 Y100.400 E14.24220 ; fill
G1 F1800.000 E13.24220 ; retract
G92 E0 ; reset extrusion distance
G1 X80.281 Y84.858 F7800.000 ; move to first fill point
G1 E1.00000 F1800.000 ; compensate retraction
G1 X85.308 Y79.831 E1.37975 F3600 ; fill
G1 X84.046 Y82.002 F7800.000 ; move to first fill point
G1 X82.411 Y83.637 E1.50325 F3600 ; fill
G1 X82.393 Y77.295 F7800.000 ; move to first fill point
G1 X74.548 Y85.140 E2.09584 F3600 ; fill
G1 X73.967 Y84.813 E2.13146 ; fill
