; generated by Slic3r 1.1.7 on 2014-08-27 at 22:47:37

; perimeters extrusion width = 0.42mm
; infill extrusion width = 0.52mm
; solid infill extrusion width = 0.52mm
; top infill extrusion width = 0.52mm

; perimeters extrusion width = 1.00mm
; infill extrusion width = 2.87mm
; solid infill extrusion width = 1.70mm
; top infill extrusion width = 1.70mm

G21 ; set units to millimeters
M107 ; disable fan
M104 S200 T0 ; set temperature
M104 S200 T1 ; set temperature
POSOFFSET CLEAR X Y U A B C D
M109 S200 T0 ; wait for temperature to be reached
M109 S200 T1 ; wait for temperature to be reached
G90 ; use absolute coordinates
G92 E0 ; reset extrusion distance
M82 ; use absolute distances for extrusion
T0 ; change extruder
G92 E0 ; reset extrusion distance
G1 Z0.280 F7800.000 ; move to next layer (0)
;LayerChange
G1 F1800.000 E-1.00000 ; retract
G92 E0 ; reset extrusion distance
G1 X474.147 Y121.251 F7800.000 ; move to first skirt point
G1 E1.00000 F1800.000 ; compensate retraction
G1 X474.448 Y120.361 E1.01973 F1800.000 ; skirt
G1 X474.815 Y119.496 E1.03944 ; skirt
G1 X474.986 Y119.150 E1.04755 ; skirt
G1 X475.247 Y118.663 E1.05916 ; skirt
G1 X475.742 Y117.864 E1.07888 ; skirt
G1 X476.295 Y117.105 E1.09860 ; skirt
G1 X489.429 Y101.615 E1.52493 ; skirt
G1 X491.182 Y100.162 E1.57272 ; skirt
G1 X494.408 Y99.310 E1.64276 ; skirt
G1 X519.405 Y99.310 E2.16751 ; skirt
G1 X521.647 Y99.707 E2.21531 ; skirt
G1 X524.404 Y101.639 E2.28598 F1800.000 ; skirt
G1 X525.497 Y102.967 E2.32209 ; skirt
G1 X526.489 Y104.371 E2.35819 ; skirt
G1 X527.376 Y105.846 E2.39431 ; skirt
G1 X528.152 Y107.381 E2.43042 ; skirt
G1 X528.626 Y108.488 E2.45570 ; skirt
G1 X528.813 Y108.969 E2.46653 ; skirt
G1 X529.355 Y110.601 E2.50265 ; skirt
G1 X529.777 Y112.270 E2.53876 ; skirt
G1 X530.074 Y113.964 E2.57487 ; skirt
G1 X530.206 Y115.159 E2.60011 ; skirt
G1 X530.246 Y115.675 E2.61099 ; skirt
G1 X530.296 Y117.155 E2.64206 ; skirt
G1 X530.291 Y132.559 E2.96543 ; skirt
G1 X530.215 Y134.229 E3.00054 ; skirt
G1 X530.019 Y135.891 E3.03565 ; skirt
G1 X529.811 Y137.042 E3.06021 ; skirt
G1 X529.705 Y137.533 E3.07077 ; skirt
G1 X529.275 Y139.150 E3.10589 ; skirt
G1 X528.730 Y140.731 E3.14100 ; skirt
G1 X528.073 Y142.270 E3.17612 ; skirt
G1 X527.308 Y143.757 E3.21123 ; skirt
G1 X526.438 Y145.186 E3.24634 ; skirt
G1 X525.469 Y146.550 E3.28146 ; skirt
G1 X524.405 Y147.840 E3.31657 ; skirt
G1 X523.251 Y149.051 E3.35169 ; skirt
G1 X522.014 Y150.177 E3.38680 ; skirt
G1 X521.073 Y150.932 E3.41212 ; skirt
G1 X519.077 Y152.026 E3.45992 ; skirt
G1 X516.985 Y152.370 E3.50441 ; skirt
G1 X496.828 Y152.370 E3.92757 ; skirt
G1 X494.586 Y151.973 E3.97537 ; skirt
G1 X492.739 Y150.932 E4.01987 ; skirt
G1 X491.445 Y149.871 E4.05498 ; skirt
G1 X490.589 Y149.076 E4.07952 ; skirt
G1 X490.231 Y148.721 E4.09010 ; skirt
G1 X489.200 Y147.606 E4.12198 ; skirt
G1 X476.575 Y132.716 E4.53180 ; skirt
G1 X475.995 Y131.978 E4.55151 ; skirt
G1 X475.472 Y131.197 E4.57124 ; skirt
G1 X475.010 Y130.379 E4.59095 ; skirt
G1 X474.612 Y129.529 E4.61066 ; skirt
G1 X474.280 Y128.650 E4.63039 ; skirt
G1 X474.016 Y127.748 E4.65011 ; skirt
G1 X473.821 Y126.830 E4.66981 ; skirt
G1 X473.762 Y126.448 E4.67794 ; skirt
G1 X473.697 Y125.898 E4.68955 ; skirt
G1 X473.644 Y124.961 E4.70927 ; skirt
G1 X473.663 Y124.022 E4.72898 ; skirt
G1 X473.754 Y123.086 E4.74872 ; skirt
G1 X473.915 Y122.161 E4.76842 ; skirt
G1 X474.132 Y121.312 E4.78681 ; skirt
G1 F1800.000 E3.78681 ; retract
G92 E0 ; reset extrusion distance
G1 X489.561 Y128.912 F7800.000 ; move to first perimeter point
G1 E1.00000 F1800.000 ; compensate retraction
G1 X489.081 Y129.270 E1.01257 F6000.000 ; perimeter
G1 X488.726 Y129.496 E1.02139 ; perimeter
G1 X488.356 Y129.693 E1.03021 ; perimeter
G1 X487.971 Y129.862 E1.03902 ; perimeter
G1 X487.575 Y130.001 E1.04784 ; perimeter
G1 X487.169 Y130.109 E1.05665 ; perimeter
G1 X486.756 Y130.186 E1.06547 ; perimeter
G1 X486.339 Y130.231 E1.07428 ; perimeter
G1 X485.919 Y130.244 E1.08310 ; perimeter
G1 X485.500 Y130.226 E1.09191 ; perimeter
G1 X485.083 Y130.175 E1.10073 ; perimeter
G1 X484.671 Y130.093 E1.10954 ; perimeter
G1 X484.267 Y129.979 E1.11836 ; perimeter
G1 X483.872 Y129.835 E1.12718 ; perimeter
G1 X483.490 Y129.662 E1.13599 ; perimeter
G1 X483.122 Y129.459 E1.14481 ; perimeter
G1 X482.770 Y129.230 E1.15362 ; perimeter
G1 X482.437 Y128.974 E1.16244 ; perimeter
G1 X482.125 Y128.693 E1.17125 ; perimeter
G1 X481.835 Y128.390 E1.18007 ; perimeter
G1 X481.568 Y128.065 E1.18888 ; perimeter
G1 X481.328 Y127.721 E1.19770 ; perimeter
G1 X481.114 Y127.360 E1.20652 ; perimeter
G1 X480.928 Y126.983 E1.21533 ; perimeter
G1 X480.772 Y126.593 E1.22415 ; perimeter
G1 X480.646 Y126.193 E1.23296 ; perimeter
G1 X480.550 Y125.784 E1.24178 ; perimeter
G1 X480.486 Y125.369 E1.25059 ; perimeter
G1 X480.454 Y124.950 E1.25941 ; perimeter
G1 X480.454 Y124.530 E1.26822 ; perimeter
G1 X480.486 Y124.111 E1.27704 ; perimeter
G1 X480.550 Y123.696 E1.28586 ; perimeter
G1 X480.646 Y123.287 E1.29467 ; perimeter
G1 X480.772 Y122.887 E1.30349 ; perimeter
G1 X480.928 Y122.497 E1.31230 ; perimeter
G1 X481.114 Y122.120 E1.32112 ; perimeter
G1 X481.327 Y121.759 E1.32993 ; perimeter
G1 X481.568 Y121.415 E1.33875 ; perimeter
G1 X481.806 Y121.124 E1.34663 ; perimeter
G1 X482.125 Y120.786 E1.35638 ; perimeter
G1 X482.437 Y120.506 E1.36519 ; perimeter
G1 X482.770 Y120.250 E1.37401 ; perimeter
G1 X483.122 Y120.020 E1.38282 ; perimeter
G1 X483.451 Y119.840 E1.39071 ; perimeter
G1 X483.872 Y119.645 E1.40045 ; perimeter
G1 X484.267 Y119.501 E1.40927 ; perimeter
G1 X484.671 Y119.387 E1.41808 ; perimeter
G1 X485.083 Y119.305 E1.42690 ; perimeter
G1 X485.500 Y119.254 E1.43571 ; perimeter
G1 X485.919 Y119.236 E1.44453 ; perimeter
G1 X486.339 Y119.249 E1.45335 ; perimeter
G1 X486.756 Y119.294 E1.46216 ; perimeter
G1 X487.169 Y119.371 E1.47098 ; perimeter
G1 X487.575 Y119.479 E1.47979 ; perimeter
G1 X487.971 Y119.618 E1.48861 ; perimeter
G1 X488.356 Y119.787 E1.49742 ; perimeter
G1 X488.726 Y119.984 E1.50624 ; perimeter
G1 X489.081 Y120.209 E1.51505 ; perimeter
G1 X489.561 Y120.568 E1.52764 ; perimeter
G1 X489.909 Y120.384 E1.53589 ; perimeter
G1 X490.131 Y120.164 E1.54247 ; perimeter
G1 X490.251 Y119.961 E1.54741 ; perimeter
G1 X490.327 Y119.715 E1.55281 ; perimeter
G1 X490.327 Y117.160 E1.60646 ; perimeter
G1 X490.372 Y115.936 E1.63217 ; perimeter
G1 X490.506 Y114.724 E1.65777 ; perimeter
G1 X490.729 Y113.525 E1.68337 ; perimeter
G1 X491.040 Y112.346 E1.70897 ; perimeter
G1 X491.436 Y111.193 E1.73457 ; perimeter
G1 X491.917 Y110.071 E1.76017 ; perimeter
G1 X492.478 Y108.989 E1.78577 ; perimeter
G1 X493.117 Y107.950 E1.81137 ; perimeter
G1 X493.831 Y106.962 E1.83697 ; perimeter
G1 X494.538 Y106.120 E1.86005 ; perimeter
G1 X519.274 Y106.120 E2.37932 ; perimeter
G1 X519.982 Y106.962 E2.40240 ; perimeter
G1 X520.696 Y107.950 E2.42800 ; perimeter
G1 X521.335 Y108.989 E2.45361 ; perimeter
G1 X521.896 Y110.072 E2.47921 ; perimeter
G1 X522.376 Y111.193 E2.50480 ; perimeter
G1 X522.773 Y112.346 E2.53041 ; perimeter
G1 X523.083 Y113.525 E2.55601 ; perimeter
G1 X523.306 Y114.724 E2.58161 ; perimeter
G1 X523.441 Y115.936 E2.60721 ; perimeter
G1 X523.486 Y117.160 E2.63292 ; perimeter
G1 X523.486 Y132.320 E2.95116 ; perimeter
G1 X523.443 Y133.510 E2.97616 ; perimeter
G1 X523.316 Y134.689 E3.00106 ; perimeter
G1 X523.105 Y135.856 E3.02595 ; perimeter
G1 X522.811 Y137.005 E3.05084 ; perimeter
G1 X522.436 Y138.130 E3.07574 ; perimeter
G1 X521.992 Y139.200 E3.10006 ; perimeter
G1 X521.450 Y140.285 E3.12552 ; perimeter
G1 X520.843 Y141.304 E3.15042 ; perimeter
G1 X520.182 Y142.255 E3.17474 ; perimeter
G1 X519.421 Y143.200 E3.20020 ; perimeter
G1 X518.611 Y144.066 E3.22509 ; perimeter
G1 X517.742 Y144.873 E3.24999 ; perimeter
G1 X516.887 Y145.560 E3.27302 ; perimeter
G1 X496.926 Y145.560 E3.69205 ; perimeter
G1 X496.070 Y144.873 E3.71508 ; perimeter
G1 X495.201 Y144.066 E3.73998 ; perimeter
G1 X494.392 Y143.200 E3.76487 ; perimeter
G1 X493.647 Y142.277 E3.78976 ; perimeter
G1 X492.969 Y141.304 E3.81466 ; perimeter
G1 X492.377 Y140.308 E3.83898 ; perimeter
G1 X491.831 Y139.225 E3.86444 ; perimeter
G1 X491.377 Y138.130 E3.88934 ; perimeter
G1 X491.001 Y137.005 E3.91423 ; perimeter
G1 X490.708 Y135.856 E3.93912 ; perimeter
G1 X490.497 Y134.689 E3.96402 ; perimeter
G1 X490.370 Y133.510 E3.98891 ; perimeter
G1 X490.327 Y132.320 E4.01391 ; perimeter
G1 X490.327 Y129.765 E4.06755 ; perimeter
G1 X490.251 Y129.518 E4.07296 ; perimeter
G1 X490.082 Y129.254 E4.07954 ; perimeter
G1 X489.909 Y129.095 E4.08448 ; perimeter
G1 X489.618 Y128.939 E4.09142 ; perimeter
G1 X489.262 Y128.616 F7800.000 ; move inwards before travel
G1 X489.498 Y128.296 F7800.000 ; move to first perimeter point
G1 X488.780 Y128.834 E4.11026 F1800.000 ; perimeter
G1 X488.459 Y129.037 E4.11823 ; perimeter
G1 X488.125 Y129.216 E4.12619 ; perimeter
G1 X487.777 Y129.368 E4.13416 ; perimeter
G1 X487.419 Y129.494 E4.14212 ; perimeter
G1 X487.052 Y129.591 E4.15009 ; perimeter
G1 X486.679 Y129.661 E4.15806 ; perimeter
G1 X486.302 Y129.702 E4.16602 ; perimeter
G1 X485.923 Y129.714 E4.17399 ; perimeter
G1 X485.568 Y129.698 E4.18145 ; perimeter
G1 X485.167 Y129.651 E4.18992 ; perimeter
G1 X484.795 Y129.577 E4.19789 ; perimeter
G1 X484.429 Y129.474 E4.20585 ; perimeter
G1 X484.073 Y129.344 E4.21382 ; perimeter
G1 X483.727 Y129.187 E4.22178 ; perimeter
G1 X483.395 Y129.005 E4.22975 ; perimeter
G1 X483.077 Y128.797 E4.23772 ; perimeter
G1 X482.776 Y128.566 E4.24568 ; perimeter
G1 X482.494 Y128.312 E4.25365 ; perimeter
G1 X482.232 Y128.038 E4.26161 ; perimeter
G1 X481.991 Y127.745 E4.26958 ; perimeter
G1 X481.773 Y127.434 E4.27755 ; perimeter
G1 X481.580 Y127.107 E4.28552 ; perimeter
G1 X481.412 Y126.767 E4.29348 ; perimeter
G1 X481.271 Y126.415 E4.30145 ; perimeter
G1 X481.157 Y126.053 E4.30941 ; perimeter
G1 X481.071 Y125.683 E4.31738 ; perimeter
G1 X481.013 Y125.308 E4.32534 ; perimeter
G1 X480.984 Y124.930 E4.33331 ; perimeter
G1 X480.984 Y124.550 E4.34128 ; perimeter
G1 X481.013 Y124.172 E4.34924 ; perimeter
G1 X481.071 Y123.797 E4.35721 ; perimeter
G1 X481.157 Y123.427 E4.36518 ; perimeter
G1 X481.271 Y123.065 E4.37314 ; perimeter
G1 X481.412 Y122.713 E4.38111 ; perimeter
G1 X481.580 Y122.373 E4.38907 ; perimeter
G1 X481.761 Y122.067 E4.39653 ; perimeter
G1 X481.991 Y121.735 E4.40501 ; perimeter
G1 X482.231 Y121.442 E4.41297 ; perimeter
G1 X482.494 Y121.167 E4.42094 ; perimeter
G1 X482.776 Y120.914 E4.42890 ; perimeter
G1 X483.077 Y120.683 E4.43687 ; perimeter
G1 X483.395 Y120.475 E4.44484 ; perimeter
G1 X483.727 Y120.292 E4.45280 ; perimeter
G1 X484.073 Y120.136 E4.46077 ; perimeter
G1 X484.429 Y120.005 E4.46874 ; perimeter
G1 X484.795 Y119.903 E4.47670 ; perimeter
G1 X485.167 Y119.829 E4.48467 ; perimeter
G1 X485.544 Y119.783 E4.49263 ; perimeter
G1 X485.923 Y119.766 E4.50060 ; perimeter
G1 X486.302 Y119.778 E4.50856 ; perimeter
G1 X486.679 Y119.819 E4.51653 ; perimeter
G1 X487.052 Y119.888 E4.52450 ; perimeter
G1 X487.419 Y119.986 E4.53246 ; perimeter
G1 X487.777 Y120.112 E4.54043 ; perimeter
G1 X488.125 Y120.264 E4.54840 ; perimeter
G1 X488.459 Y120.442 E4.55636 ; perimeter
G1 X488.780 Y120.646 E4.56433 ; perimeter
G1 X489.500 Y121.184 E4.58320 ; perimeter
G1 X490.123 Y120.879 E4.59776 ; perimeter
G1 X490.313 Y120.740 E4.60272 ; perimeter
G1 X490.482 Y120.574 E4.60769 ; perimeter
G1 X490.623 Y120.385 E4.61264 ; perimeter
G1 X490.735 Y120.177 E4.61760 ; perimeter
G1 X490.857 Y119.777 E4.62636 ; perimeter
G1 X490.857 Y117.170 E4.68110 ; perimeter
G1 X490.901 Y115.975 E4.70619 ; perimeter
G1 X491.031 Y114.802 E4.73098 ; perimeter
G1 X491.245 Y113.649 E4.75558 ; perimeter
G1 X491.547 Y112.500 E4.78054 ; perimeter
G1 X491.931 Y111.383 E4.80532 ; perimeter
G1 X492.396 Y110.298 E4.83011 ; perimeter
G1 X492.939 Y109.250 E4.85488 ; perimeter
G1 X493.558 Y108.245 E4.87967 ; perimeter
G1 X494.249 Y107.288 E4.90445 ; perimeter
G1 X494.785 Y106.650 E4.92194 ; perimeter
G1 X519.028 Y106.650 E5.43085 ; perimeter
G1 X519.564 Y107.288 E5.44834 ; perimeter
G1 X520.255 Y108.245 E5.47312 ; perimeter
G1 X520.873 Y109.250 E5.49790 ; perimeter
G1 X521.417 Y110.298 E5.52268 ; perimeter
G1 X521.881 Y111.383 E5.54746 ; perimeter
G1 X522.265 Y112.500 E5.57224 ; perimeter
G1 X522.566 Y113.641 E5.59702 ; perimeter
G1 X522.782 Y114.802 E5.62181 ; perimeter
G1 X522.912 Y115.975 E5.64659 ; perimeter
G1 X522.956 Y117.170 E5.67168 ; perimeter
G1 X522.956 Y132.310 E5.98953 ; perimeter
G1 X522.914 Y133.472 E6.01393 ; perimeter
G1 X522.791 Y134.613 E6.03802 ; perimeter
G1 X522.587 Y135.743 E6.06212 ; perimeter
G1 X522.303 Y136.855 E6.08622 ; perimeter
G1 X521.939 Y137.944 E6.11032 ; perimeter
G1 X521.502 Y138.997 E6.13424 ; perimeter
G1 X520.985 Y140.030 E6.15851 ; perimeter
G1 X520.398 Y141.017 E6.18261 ; perimeter
G1 X519.747 Y141.952 E6.20654 ; perimeter
G1 X519.020 Y142.852 E6.23080 ; perimeter
G1 X518.237 Y143.691 E6.25490 ; perimeter
G1 X517.396 Y144.472 E6.27900 ; perimeter
G1 X516.700 Y145.030 E6.29772 ; perimeter
G1 X497.112 Y145.030 E6.70892 ; perimeter
G1 X496.417 Y144.472 E6.72764 ; perimeter
G1 X495.576 Y143.691 E6.75174 ; perimeter
G1 X494.792 Y142.852 E6.77584 ; perimeter
G1 X494.071 Y141.959 E6.79993 ; perimeter
G1 X493.415 Y141.017 E6.82403 ; perimeter
G1 X492.832 Y140.037 E6.84796 ; perimeter
G1 X492.313 Y139.004 E6.87222 ; perimeter
G1 X491.873 Y137.944 E6.89632 ; perimeter
G1 X491.510 Y136.855 E6.92042 ; perimeter
G1 X491.226 Y135.743 E6.94452 ; perimeter
G1 X491.021 Y134.613 E6.96861 ; perimeter
G1 X490.899 Y133.472 E6.99271 ; perimeter
G1 X490.857 Y132.311 E7.01711 ; perimeter
G1 X490.857 Y129.704 E7.07184 ; perimeter
G1 X490.815 Y129.526 E7.07567 ; perimeter
G1 X490.735 Y129.303 E7.08064 ; perimeter
G1 X490.624 Y129.095 E7.08560 ; perimeter
G1 X490.400 Y128.819 E7.09305 ; perimeter
G1 X490.122 Y128.600 E7.10048 ; perimeter
G1 X489.555 Y128.323 E7.11372 ; perimeter
G1 X487.412 Y126.143 F7800.000 ; move to first perimeter point
G1 X487.054 Y126.438 E7.12345 F6000.000 ; perimeter
G1 X486.638 Y126.643 E7.13319 ; perimeter
G1 X486.340 Y126.726 E7.13969 ; perimeter
G1 X486.159 Y126.751 E7.14352 ; perimeter
G1 X485.877 Y126.761 E7.14945 ; perimeter
G1 X485.570 Y126.726 E7.15595 ; perimeter
G1 X485.127 Y126.586 E7.16569 ; perimeter
G1 X484.729 Y126.348 E7.17543 ; perimeter
G1 X484.394 Y126.027 E7.18517 ; perimeter
G1 X484.142 Y125.637 E7.19491 ; perimeter
G1 X483.985 Y125.201 E7.20464 ; perimeter
G1 X483.938 Y124.895 E7.21114 ; perimeter
G1 X483.938 Y124.585 E7.21764 ; perimeter
G1 X484.026 Y124.130 E7.22738 ; perimeter
G1 X484.216 Y123.706 E7.23712 ; perimeter
G1 X484.498 Y123.337 E7.24686 ; perimeter
G1 X484.729 Y123.131 E7.25336 ; perimeter
G1 X484.988 Y122.963 E7.25986 ; perimeter
G1 X485.419 Y122.790 E7.26960 ; perimeter
G1 X485.877 Y122.719 E7.27934 ; perimeter
G1 X486.187 Y122.731 E7.28584 F6000.000 ; perimeter
G1 X486.491 Y122.790 E7.29234 ; perimeter
G1 X486.782 Y122.894 E7.29884 ; perimeter
G1 X487.054 Y123.042 E7.30534 ; perimeter
G1 X487.300 Y123.230 E7.31184 ; perimeter
G1 X487.515 Y123.453 E7.31834 ; perimeter
G1 X487.767 Y123.843 E7.32808 ; perimeter
G1 X487.883 Y124.130 E7.33458 ; perimeter
G1 X487.954 Y124.431 E7.34108 ; perimeter
G1 X487.977 Y124.740 E7.34758 ; perimeter
G1 X487.954 Y125.049 E7.35408 ; perimeter
G1 X487.883 Y125.350 E7.36058 ; perimeter
G1 X487.767 Y125.637 E7.36709 ; perimeter
G1 X487.609 Y125.904 E7.37359 ; perimeter
G1 X487.454 Y126.095 E7.37877 ; perimeter
G1 F1800.000 E6.37877 ; retract
G92 E0 ; reset extrusion distance
G1 X485.834 Y122.412 F7800.000 ; move inwards before travel
G1 X487.808 Y126.495 F7800.000 ; move to first perimeter point
G1 E1.00000 F1800.000 ; compensate retraction
G1 X487.653 Y126.646 E1.00453 F1800.000 ; perimeter
G1 X487.343 Y126.883 E1.01273 ; perimeter
G1 X487.132 Y127.004 E1.01784 ; perimeter
G1 X486.818 Y127.143 E1.02504 ; perimeter
G1 X486.441 Y127.246 E1.03325 ; perimeter
G1 X486.200 Y127.280 E1.03835 ; perimeter
G1 X485.857 Y127.291 E1.04556 ; perimeter
G1 X485.469 Y127.246 E1.05376 ; perimeter
G1 X485.092 Y127.143 E1.06197 ; perimeter
