; generated by Slic3r 1.0.0 on 2014-10-12 at 21:39:18

; layer_height = 0.2
; perimeters = 2
; top_solid_layers = 3
; bottom_solid_layers = 3
; fill_density = 0.4
; perimeter_speed = 30
; infill_speed = 60
; travel_speed = 130
; nozzle_diameter = 0.4
; filament_diameter = 1.75
; extrusion_multiplier = 1
; perimeters extrusion width = 0.40mm
; infill extrusion width = 0.67mm
; solid infill extrusion width = 0.67mm
; top infill extrusion width = 0.67mm
; first layer extrusion width = 0.40mm

G21 ; set units to millimeters
M104 S205 ; set temperature
G28 ; home all axes
G1 Z5 F5000 ; lift nozzle
M109 S205 ; wait for temperature to be reached
G90 ; use absolute coordinates
G92 E0 ; reset extrusion distance
M82 ; use absolute distances for extrusion
G1 F1800.000 E-1.00000 ; retract
G92 E0 ; reset extrusion distance
G1 Z0.200 F7800.000 ; move to next layer (0)
G1 X63.294 Y75.874 F7800.000 ; move to first skirt point
G1 E1.00000 F1800.000 ; compensate retraction
G1 X64.034 Y75.294 E1.03127 F540.000 ; skirt
G1 X65.174 Y74.514 E1.07721 ; skirt
G1 X65.624 Y74.234 E1.09484 ; skirt
G1 X66.444 Y73.774 E1.12611 ; skirt
G1 X66.904 Y73.534 E1.14337 ; skirt
G1 X67.754 Y73.144 E1.17448 ; skirt
G1 X68.234 Y72.954 E1.19165 ; skirt
G1 X69.524 Y72.494 E1.23720 ; skirt
G1 X70.424 Y72.234 E1.26836 ; skirt
G1 X70.974 Y72.104 E1.28715 ; skirt
G1 X71.894 Y71.924 E1.31833 ; skirt
G1 X72.424 Y71.844 E1.33616 ; skirt
G1 X73.424 Y71.734 E1.36962 ; skirt
G1 X73.904 Y71.694 E1.38564 ; skirt
G1 X74.774 Y71.664 E1.41459 ; skirt
G1 X76.134 Y71.694 E1.45984 ; skirt
G1 X76.684 Y71.734 E1.47818 ; skirt
G1 X77.614 Y71.844 E1.50933 ; skirt
G1 X79.014 Y72.104 E1.55669 ; skirt
G1 X79.564 Y72.234 E1.57549 ; skirt
G1 X80.464 Y72.494 E1.60664 ; skirt
G1 X81.754 Y72.954 E1.65220 ; skirt
G1 X82.234 Y73.144 E1.66937 ; skirt
G1 X83.084 Y73.534 E1.70047 ; skirt
G1 X83.544 Y73.774 E1.71773 ; skirt
G1 X84.784 Y74.484 E1.76525 ; skirt
G1 X85.564 Y75.004 E1.79643 ; skirt
G1 X86.724 Y75.904 E1.84526 ; skirt
G1 X87.784 Y76.864 E1.89283 ; skirt
G1 X88.124 Y77.204 E1.90882 ; skirt
G1 X89.114 Y78.294 E1.95780 ; skirt
G1 X89.694 Y79.034 E1.98907 ; skirt
G1 X90.474 Y80.174 E2.03501 ; skirt
G1 X90.754 Y80.624 E2.05264 ; skirt
G1 X91.214 Y81.444 E2.08391 ; skirt
G1 X91.454 Y81.904 E2.10117 ; skirt
G1 X91.844 Y82.754 E2.13227 ; skirt
G1 X92.034 Y83.234 E2.14944 ; skirt
G1 X92.494 Y84.524 E2.19499 ; skirt
G1 X92.754 Y85.424 E2.22615 ; skirt
G1 X92.884 Y85.974 E2.24495 ; skirt
G1 X93.144 Y87.374 E2.29231 ; skirt
G1 X93.254 Y88.304 E2.32346 ; skirt
G1 X93.324 Y89.724 E2.37074 ; skirt
G1 X93.324 Y90.264 E2.38870 ; skirt
G1 X93.254 Y91.684 E2.43599 ; skirt
G1 X93.144 Y92.614 E2.46714 ; skirt
G1 X92.884 Y94.014 E2.51450 ; skirt
G1 X92.754 Y94.564 E2.53330 ; skirt
G1 X92.494 Y95.464 E2.56445 ; skirt
G1 X92.034 Y96.754 E2.61001 ; skirt
G1 X91.844 Y97.234 E2.62718 ; skirt
G1 X91.454 Y98.084 E2.65828 ; skirt
G1 X91.214 Y98.544 E2.67554 ; skirt
G1 X90.504 Y99.784 E2.72306 ; skirt
G1 X89.984 Y100.564 E2.75424 ; skirt
G1 X89.084 Y101.724 E2.80307 ; skirt
G1 X88.124 Y102.784 E2.85064 ; skirt
G1 X87.784 Y103.124 E2.86663 ; skirt
G1 X86.724 Y104.084 E2.91420 ; skirt
G1 X85.564 Y104.984 E2.96303 ; skirt
G1 X84.784 Y105.504 E2.99421 ; skirt
G1 X83.544 Y106.214 E3.04173 ; skirt
G1 X83.084 Y106.454 E3.05899 ; skirt
G1 X82.234 Y106.844 E3.09010 ; skirt
G1 X81.754 Y107.034 E3.10727 ; skirt
G1 X80.464 Y107.494 E3.15282 ; skirt
G1 X79.564 Y107.754 E3.18398 ; skirt
G1 X79.014 Y107.884 E3.20277 ; skirt
G1 X77.614 Y108.144 E3.25013 ; skirt
G1 X76.684 Y108.254 E3.28128 ; skirt
G1 X75.264 Y108.324 E3.32857 ; skirt
G1 X74.724 Y108.324 E3.34653 ; skirt
G1 X73.264 Y108.244 E3.39516 ; skirt
G1 X71.894 Y108.064 E3.44112 ; skirt
G1 X71.004 Y107.894 E3.47126 ; skirt
G1 X70.424 Y107.754 E3.49110 ; skirt
G1 X69.524 Y107.494 E3.52226 ; skirt
G1 X68.234 Y107.034 E3.56781 ; skirt
G1 X67.754 Y106.844 E3.58498 ; skirt
G1 X66.904 Y106.454 E3.61609 ; skirt
G1 X66.444 Y106.214 E3.63334 ; skirt
G1 X65.624 Y105.754 E3.66461 ; skirt
G1 X65.174 Y105.474 E3.68224 ; skirt
G1 X64.034 Y104.694 E3.72818 ; skirt
G1 X63.294 Y104.114 E3.75946 ; skirt
G1 X62.204 Y103.124 E3.80843 ; skirt
G1 X61.864 Y102.784 E3.82442 ; skirt
G1 X60.904 Y101.724 E3.87199 ; skirt
G1 X60.004 Y100.564 E3.92082 ; skirt
G1 X59.484 Y99.784 E3.95200 ; skirt
G1 X58.784 Y98.554 E3.99907 ; skirt
G1 X58.164 Y97.264 E4.04668 ; skirt
G1 X57.954 Y96.754 E4.06502 ; skirt
G1 X57.494 Y95.464 E4.11057 ; skirt
G1 X57.234 Y94.564 E4.14173 ; skirt
G1 X57.104 Y94.014 E4.16053 ; skirt
G1 X56.844 Y92.614 E4.20789 ; skirt
G1 X56.734 Y91.684 E4.23904 ; skirt
G1 X56.694 Y91.134 E4.25738 ; skirt
G1 X56.664 Y90.194 E4.28866 ; skirt
G1 X56.694 Y88.854 E4.33324 ; skirt
G1 X56.734 Y88.304 E4.35158 ; skirt
G1 X56.844 Y87.374 E4.38273 ; skirt
G1 X57.104 Y85.974 E4.43009 ; skirt
G1 X57.234 Y85.424 E4.44888 ; skirt
G1 X57.494 Y84.524 E4.48004 ; skirt
G1 X57.954 Y83.234 E4.52559 ; skirt
G1 X58.144 Y82.754 E4.54276 ; skirt
G1 X58.534 Y81.904 E4.57387 ; skirt
G1 X58.774 Y81.444 E4.59113 ; skirt
G1 X59.234 Y80.624 E4.62240 ; skirt
G1 X59.514 Y80.174 E4.64002 ; skirt
G1 X60.294 Y79.034 E4.68597 ; skirt
G1 X60.874 Y78.294 E4.71724 ; skirt
G1 X61.864 Y77.204 E4.76621 ; skirt
G1 X62.204 Y76.864 E4.78221 ; skirt
G1 X63.249 Y75.914 E4.82919 ; skirt
G1 F1800.000 E3.82919 ; retract
G92 E0 ; reset extrusion distance
G1 X70.902 Y84.863 F7800.000 ; move to first perimeter point
G1 E1.00000 F1800.000 ; compensate retraction
G1 X71.504 Y84.438 E1.02451 F540.000 ; perimeter
G1 X72.149 Y84.082 E1.04900 ; perimeter
G1 X72.830 Y83.798 E1.07354 ; perimeter
G1 X73.539 Y83.594 E1.09807 ; perimeter
G1 X74.262 Y83.472 E1.12247 ; perimeter
G1 X74.999 Y83.430 E1.14702 ; perimeter
G1 X75.736 Y83.472 E1.17158 ; perimeter
G1 X76.459 Y83.594 E1.19595 ; perimeter
G1 X77.170 Y83.798 E1.22057 ; perimeter
G1 X77.848 Y84.082 E1.24502 ; perimeter
G1 X78.495 Y84.437 E1.26955 ; perimeter
G1 X79.095 Y84.863 E1.29402 ; perimeter
G1 X79.372 Y85.110 E1.30636 ; perimeter
G1 X79.645 Y85.356 E1.31860 ; perimeter
G1 X80.134 Y85.902 E1.34300 ; perimeter
G1 X80.563 Y86.505 E1.36757 ; perimeter
G1 X80.918 Y87.149 E1.39205 ; perimeter
G1 X81.200 Y87.831 E1.41659 ; perimeter
G1 X81.403 Y88.537 E1.44103 ; perimeter
G1 X81.528 Y89.264 E1.46557 ; perimeter
G1 X81.568 Y90.000 E1.49008 ; perimeter
G1 X81.528 Y90.734 E1.51453 ; perimeter
G1 X81.403 Y91.461 E1.53905 ; perimeter
G1 X81.200 Y92.168 E1.56353 ; perimeter
G1 X80.918 Y92.849 E1.58805 ; perimeter
G1 X80.563 Y93.496 E1.61259 ; perimeter
G1 X80.135 Y94.095 E1.63707 ; perimeter
G1 X79.645 Y94.645 E1.66157 ; perimeter
G1 X79.095 Y95.135 E1.68606 ; perimeter
G1 X78.495 Y95.563 E1.71056 ; perimeter
G1 X77.848 Y95.919 E1.73514 ; perimeter
G1 X77.169 Y96.200 E1.75958 ; perimeter
G1 X76.461 Y96.403 E1.78410 ; perimeter
G1 X75.734 Y96.528 E1.80862 ; perimeter
G1 X75.000 Y96.568 E1.83307 ; perimeter
G1 X74.264 Y96.528 E1.85758 ; perimeter
G1 X73.537 Y96.403 E1.88212 ; perimeter
G1 X72.831 Y96.200 E1.90656 ; perimeter
G1 X72.150 Y95.919 E1.93107 ; perimeter
G1 X71.505 Y95.563 E1.95557 ; perimeter
G1 X70.902 Y95.134 E1.98015 ; perimeter
G1 X70.355 Y94.645 E2.00457 ; perimeter
G1 X69.863 Y94.095 E2.02911 ; perimeter
G1 X69.438 Y93.496 E2.05355 ; perimeter
G1 X69.082 Y92.849 E2.07810 ; perimeter
G1 X68.798 Y92.170 E2.10258 ; perimeter
G1 X68.694 Y91.810 E2.11506 ; perimeter
G1 X68.594 Y91.460 E2.12717 ; perimeter
G1 X68.472 Y90.735 E2.15161 ; perimeter
G1 X68.430 Y90.000 E2.17609 ; perimeter
G1 X68.472 Y89.262 E2.20068 ; perimeter
G1 X68.594 Y88.539 E2.22507 ; perimeter
G1 X68.798 Y87.830 E2.24960 ; perimeter
G1 X69.082 Y87.149 E2.27414 ; perimeter
G1 X69.437 Y86.505 E2.29859 ; perimeter
G1 X69.863 Y85.903 E2.32312 ; perimeter
G1 X70.355 Y85.355 E2.34762 ; perimeter
G1 X70.858 Y84.903 E2.37010 ; perimeter
G1 X71.152 Y85.176 F7800.000 ; move to first perimeter point
G1 X71.718 Y84.777 E2.39312 F540.000 ; perimeter
G1 X72.323 Y84.443 E2.41611 ; perimeter
G1 X72.963 Y84.176 E2.43917 ; perimeter
G1 X73.627 Y83.985 E2.46216 ; perimeter
G1 X74.308 Y83.870 E2.48513 ; perimeter
G1 X75.000 Y83.831 E2.50817 ; perimeter
G1 X75.690 Y83.870 E2.53116 ; perimeter
G1 X76.371 Y83.985 E2.55413 ; perimeter
G1 X77.037 Y84.176 E2.57720 ; perimeter
G1 X77.675 Y84.443 E2.60017 ; perimeter
G1 X78.282 Y84.777 E2.62322 ; perimeter
G1 X78.845 Y85.176 E2.64619 ; perimeter
G1 X79.105 Y85.408 E2.65775 ; perimeter
G1 X79.362 Y85.639 E2.66925 ; perimeter
G1 X79.821 Y86.152 E2.69218 ; perimeter
G1 X80.223 Y86.718 E2.71525 ; perimeter
G1 X80.557 Y87.323 E2.73824 ; perimeter
G1 X80.821 Y87.963 E2.76127 ; perimeter
G1 X81.013 Y88.626 E2.78423 ; perimeter
G1 X81.130 Y89.309 E2.80726 ; perimeter
G1 X81.167 Y90.000 E2.83029 ; perimeter
G1 X81.130 Y90.689 E2.85324 ; perimeter
G1 X81.013 Y91.371 E2.87626 ; perimeter
G1 X80.822 Y92.037 E2.89929 ; perimeter
G1 X80.557 Y92.675 E2.92227 ; perimeter
G1 X80.223 Y93.282 E2.94532 ; perimeter
G1 X79.822 Y93.845 E2.96832 ; perimeter
G1 X79.361 Y94.361 E2.99132 ; perimeter
G1 X78.845 Y94.821 E3.01432 ; perimeter
G1 X78.282 Y95.223 E3.03733 ; perimeter
G1 X77.675 Y95.558 E3.06039 ; perimeter
G1 X77.037 Y95.821 E3.08334 ; perimeter
G1 X76.371 Y96.013 E3.10638 ; perimeter
G1 X75.689 Y96.130 E3.12940 ; perimeter
G1 X75.000 Y96.167 E3.15235 ; perimeter
G1 X74.309 Y96.130 E3.17538 ; perimeter
G1 X73.626 Y96.013 E3.19841 ; perimeter
G1 X72.963 Y95.821 E3.22137 ; perimeter
G1 X72.323 Y95.558 E3.24439 ; perimeter
G1 X71.718 Y95.223 E3.26739 ; perimeter
G1 X71.152 Y94.821 E3.29046 ; perimeter
G1 X70.639 Y94.361 E3.31340 ; perimeter
G1 X70.176 Y93.845 E3.33645 ; perimeter
G1 X69.777 Y93.282 E3.35940 ; perimeter
G1 X69.443 Y92.675 E3.38246 ; perimeter
G1 X69.176 Y92.037 E3.40544 ; perimeter
G1 X69.082 Y91.711 E3.41673 ; perimeter
G1 X68.985 Y91.371 E3.42850 ; perimeter
G1 X68.870 Y90.689 E3.45149 ; perimeter
G1 X68.831 Y90.000 E3.47446 ; perimeter
G1 X68.870 Y89.308 E3.49751 ; perimeter
G1 X68.985 Y88.627 E3.52048 ; perimeter
G1 X69.176 Y87.963 E3.54347 ; perimeter
G1 X69.443 Y87.323 E3.56653 ; perimeter
G1 X69.777 Y86.718 E3.58950 ; perimeter
G1 X70.176 Y86.153 E3.61253 ; perimeter
G1 X70.639 Y85.639 E3.63553 ; perimeter
G1 X71.108 Y85.216 E3.65653 ; perimeter
G1 X71.100 Y84.780 F7800.000 ; move inwards before travel
G1 X80.145 Y79.899 F7800.000 ; move to first perimeter point
G1 X80.922 Y80.334 E3.68614 F540.000 ; perimeter
G1 X81.663 Y80.829 E3.71579 ; perimeter
G1 X82.013 Y81.103 E3.73055 ; perimeter
G1 X82.362 Y81.379 E3.74536 ; perimeter
G1 X83.015 Y81.983 E3.77497 ; perimeter
G1 X83.620 Y82.637 E3.80459 ; perimeter
G1 X84.170 Y83.337 E3.83420 ; perimeter
G1 X84.666 Y84.076 E3.86379 ; perimeter
G1 X85.099 Y84.853 E3.89337 ; perimeter
G1 X85.271 Y85.225 E3.90701 ; perimeter
G1 X85.473 Y85.662 E3.92303 ; perimeter
G1 X85.782 Y86.497 E3.95264 ; perimeter
G1 X86.022 Y87.353 E3.98220 ; perimeter
G1 X86.196 Y88.227 E4.01186 ; perimeter
G1 X86.296 Y89.063 E4.03985 ; perimeter
G1 X86.336 Y90.000 E4.07104 ; perimeter
G1 X86.301 Y90.889 E4.10062 ; perimeter
G1 X86.196 Y91.773 E4.13023 ; perimeter
G1 X86.022 Y92.647 E4.15987 ; perimeter
G1 X85.782 Y93.503 E4.18946 ; perimeter
G1 X85.473 Y94.337 E4.21904 ; perimeter
G1 X85.099 Y95.145 E4.24864 ; perimeter
G1 X84.665 Y95.922 E4.27824 ; perimeter
G1 X84.170 Y96.663 E4.30789 ; perimeter
G1 X83.620 Y97.362 E4.33747 ; perimeter
G1 X83.015 Y98.015 E4.36707 ; perimeter
G1 X82.362 Y98.620 E4.39668 ; perimeter
G1 X81.663 Y99.170 E4.42626 ; perimeter
G1 X80.922 Y99.665 E4.45591 ; perimeter
G1 X80.145 Y100.099 E4.48551 ; perimeter
G1 X79.337 Y100.473 E4.51511 ; perimeter
G1 X78.503 Y100.782 E4.54469 ; perimeter
G1 X77.647 Y101.022 E4.57428 ; perimeter
G1 X76.773 Y101.196 E4.60389 ; perimeter
G1 X75.888 Y101.301 E4.63355 ; perimeter
G1 X75.000 Y101.336 E4.66311 ; perimeter
G1 X74.110 Y101.301 E4.69274 ; perimeter
G1 X73.215 Y101.194 E4.72272 ; perimeter
G1 X72.354 Y101.022 E4.75192 ; perimeter
G1 X71.497 Y100.782 E4.78152 ; perimeter
G1 X70.662 Y100.473 E4.81113 ; perimeter
G1 X69.853 Y100.099 E4.84078 ; perimeter
G1 X69.075 Y99.665 E4.87039 ; perimeter
G1 X68.338 Y99.170 E4.89993 ; perimeter
G1 X67.638 Y98.620 E4.92955 ; perimeter
G1 X66.983 Y98.015 E4.95922 ; perimeter
G1 X66.379 Y97.362 E4.98877 ; perimeter
G1 X65.828 Y96.663 E5.01838 ; perimeter
G1 X65.335 Y95.923 E5.04798 ; perimeter
G1 X64.904 Y95.155 E5.07726 ; perimeter
G1 X64.527 Y94.338 E5.10718 ; perimeter
G1 X64.218 Y93.502 E5.13682 ; perimeter
G1 X63.976 Y92.647 E5.16638 ; perimeter
G1 X63.804 Y91.773 E5.19599 ; perimeter
G1 X63.699 Y90.889 E5.22562 ; perimeter
G1 X63.664 Y90.000 E5.25520 ; perimeter
G1 X63.699 Y89.109 E5.28485 ; perimeter
G1 X63.804 Y88.227 E5.31442 ; perimeter
G1 X63.976 Y87.353 E5.34403 ; perimeter
G1 X64.218 Y86.498 E5.37360 ; perimeter
G1 X64.527 Y85.662 E5.40324 ; perimeter
G1 X64.899 Y84.852 E5.43286 ; perimeter
G1 X65.334 Y84.076 E5.46247 ; perimeter
G1 X65.828 Y83.337 E5.49201 ; perimeter
G1 X66.380 Y82.637 E5.52167 ; perimeter
G1 X66.983 Y81.983 E5.55126 ; perimeter
G1 X67.638 Y81.380 E5.58087 ; perimeter
G1 X68.337 Y80.828 E5.61049 ; perimeter
G1 X69.076 Y80.334 E5.64006 ; perimeter
G1 X69.852 Y79.899 E5.66967 ; perimeter
G1 X70.662 Y79.527 E5.69929 ; perimeter
G1 X71.497 Y79.218 E5.72890 ; perimeter
G1 X72.354 Y78.976 E5.75852 ; perimeter
G1 X73.227 Y78.804 E5.78814 ; perimeter
G1 X73.667 Y78.750 E5.80288 ; perimeter
G1 X74.108 Y78.699 E5.81765 ; perimeter
G1 X75.000 Y78.664 E5.84732 ; perimeter
G1 X75.889 Y78.699 E5.87690 ; perimeter
G1 X76.773 Y78.804 E5.90653 ; perimeter
G1 X77.646 Y78.976 E5.93612 ; perimeter
G1 X78.503 Y79.218 E5.96575 ; perimeter
G1 X79.339 Y79.528 E5.99537 ; perimeter
G1 X80.091 Y79.873 E6.02291 ; perimeter
G1 X80.327 Y79.542 F7800.000 ; move to first perimeter point
G1 X81.131 Y79.993 E6.05358 F378.000 ; perimeter
G1 X81.898 Y80.504 E6.08424 ; perimeter
G1 X82.260 Y80.789 E6.09955 ; perimeter
G1 X82.622 Y81.075 E6.11490 ; perimeter
G1 X83.298 Y81.700 E6.14552 ; perimeter
G1 X83.925 Y82.377 E6.17621 ; perimeter
G1 X84.494 Y83.102 E6.20685 ; perimeter
G1 X85.007 Y83.867 E6.23748 ; perimeter
G1 X85.456 Y84.671 E6.26812 ; perimeter
G1 X85.634 Y85.057 E6.28227 ; perimeter
G1 X85.843 Y85.509 E6.29881 ; perimeter
G1 X86.162 Y86.373 E6.32947 ; perimeter
G1 X86.411 Y87.260 E6.36009 ; perimeter
G1 X86.591 Y88.165 E6.39077 ; perimeter
G1 X86.700 Y89.078 E6.42137 ; perimeter
G1 X86.736 Y90.000 E6.45206 ; perimeter
G1 X86.700 Y90.920 E6.48268 ; perimeter
G1 X86.591 Y91.836 E6.51335 ; perimeter
G1 X86.411 Y92.740 E6.54402 ; perimeter
G1 X86.162 Y93.627 E6.57466 ; perimeter
G1 X85.843 Y94.491 E6.60530 ; perimeter
G1 X85.456 Y95.327 E6.63594 ; perimeter
G1 X85.007 Y96.131 E6.66658 ; perimeter
G1 X84.493 Y96.898 E6.69727 ; perimeter
G1 X83.925 Y97.622 E6.72790 ; perimeter
G1 X83.298 Y98.298 E6.75855 ; perimeter
G1 X82.622 Y98.925 E6.78920 ; perimeter
G1 X81.898 Y99.493 E6.81983 ; perimeter
G1 X81.131 Y100.007 E6.85052 ; perimeter
G1 X80.327 Y100.456 E6.88116 ; perimeter
G1 X79.491 Y100.843 E6.91179 ; perimeter
G1 X78.627 Y101.162 E6.94244 ; perimeter
G1 X77.740 Y101.411 E6.97307 ; perimeter
G1 X76.836 Y101.591 E7.00374 ; perimeter
G1 X75.920 Y101.700 E7.03442 ; perimeter
G1 X75.000 Y101.736 E7.06504 ; perimeter
G1 X74.078 Y101.700 E7.09573 ; perimeter
G1 X73.137 Y101.586 E7.12724 ; perimeter
G1 X72.260 Y101.411 E7.15700 ; perimeter
G1 X71.373 Y101.162 E7.18763 ; perimeter
G1 X70.509 Y100.842 E7.21829 ; perimeter
G1 X69.671 Y100.456 E7.24898 ; perimeter
G1 X68.866 Y100.007 E7.27962 ; perimeter
G1 X68.102 Y99.494 E7.31024 ; perimeter
G1 X67.378 Y98.925 E7.34088 ; perimeter
G1 X66.700 Y98.298 E7.37159 ; perimeter
G1 X66.075 Y97.622 E7.40219 ; perimeter
G1 X65.504 Y96.898 E7.43286 ; perimeter
G1 X64.993 Y96.131 E7.46351 ; perimeter
G1 X64.555 Y95.350 E7.49329 ; perimeter
G1 X64.158 Y94.491 E7.52478 ; perimeter
G1 X63.837 Y93.626 E7.55545 ; perimeter
G1 X63.586 Y92.740 E7.58609 ; perimeter
G1 X63.409 Y91.836 E7.61674 ; perimeter
G1 X63.300 Y90.920 E7.64741 ; perimeter
G1 X63.264 Y90.000 E7.67804 ; perimeter
G1 X63.300 Y89.078 E7.70873 ; perimeter
