; generated by Slic3r 1.1.7 on 2014-08-27 at 16:21:16

; perimeters extrusion width = 0.42mm
; infill extrusion width = 0.52mm
; solid infill extrusion width = 0.52mm
; top infill extrusion width = 0.52mm

; perimeters extrusion width = 0.50mm
; infill extrusion width = 0.76mm
; solid infill extrusion width = 0.76mm
; top infill extrusion width = 0.76mm

G21 ; set units to millimeters
M107 ; disable fan
M104 S200 T0 ; set temperature
M104 S200 T1 ; set temperature
POSOFFSET CLEAR X Y U A B C D
M109 S200 T0 ; wait for temperature to be reached
M109 S200 T1 ; wait for temperature to be reached
G90 ; use absolute coordinates
G92 E0 ; reset extrusion distance
M82 ; use absolute distances for extrusion
T0 ; change extruder
G92 E0 ; reset extrusion distance
G1 Z0.280 F7800.000 ; move to next layer (0)
;LayerChange
G1 F1800.000 E-1.00000 ; retract
G92 E0 ; reset extrusion distance
G1 X480.039 Y118.626 F7800.000 ; move to first skirt point
G1 E1.00000 F1800.000 ; compensate retraction
G1 X480.235 Y117.834 E1.01713 F1080.000 ; skirt
G1 X480.763 Y116.140 E1.05437 ; skirt
G1 X481.391 Y114.481 E1.09161 ; skirt
G1 X481.930 Y113.261 E1.11961 ; skirt
G1 X482.118 Y112.863 E1.12886 ; skirt
G1 X482.941 Y111.291 E1.16610 ; skirt
G1 X483.856 Y109.771 E1.20335 ; skirt
G1 X484.861 Y108.309 E1.24059 ; skirt
G1 X485.951 Y106.910 E1.27783 ; skirt
G1 X487.124 Y105.578 E1.31508 ; skirt
G1 X488.374 Y104.319 E1.35232 ; skirt
G1 X489.697 Y103.137 E1.38956 ; skirt
G1 X491.089 Y102.037 E1.42680 ; skirt
G1 X492.544 Y101.022 E1.46405 ; skirt
G1 X493.718 Y100.293 E1.49308 ; skirt
G1 X495.832 Y99.447 E1.54087 ; skirt
G1 X497.163 Y99.310 E1.56896 ; skirt
G1 X518.260 Y99.310 E2.01183 ; skirt
G1 X520.502 Y99.707 E2.05963 ; skirt
G1 X522.471 Y100.850 E2.10743 F1080.000 ; skirt
G1 X523.929 Y102.599 E2.15522 ; skirt
G1 X524.790 Y105.840 E2.22563 ; skirt
G1 X524.790 Y145.840 E3.06533 ; skirt
G1 X524.393 Y148.082 E3.11312 ; skirt
G1 X523.250 Y150.051 E3.16092 ; skirt
G1 X521.501 Y151.509 E3.20872 ; skirt
G1 X518.260 Y152.370 E3.27912 ; skirt
G1 X497.330 Y152.370 E3.71850 ; skirt
G1 X495.088 Y151.973 E3.76630 ; skirt
G1 X493.931 Y151.416 E3.79325 ; skirt
G1 X492.422 Y150.482 E3.83049 ; skirt
G1 X490.972 Y149.460 E3.86773 ; skirt
G1 X489.925 Y148.635 E3.89573 ; skirt
G1 X489.586 Y148.353 E3.90498 ; skirt
G1 X488.268 Y147.165 E3.94223 ; skirt
G1 X487.025 Y145.900 E3.97947 ; skirt
G1 X485.859 Y144.563 E4.01671 ; skirt
G1 X484.775 Y143.158 E4.05395 ; skirt
G1 X483.778 Y141.691 E4.09120 ; skirt
G1 X482.870 Y140.166 E4.12844 ; skirt
G1 X482.055 Y138.591 E4.16568 ; skirt
G1 X481.336 Y136.969 E4.20293 ; skirt
G1 X480.716 Y135.307 E4.24017 ; skirt
G1 X480.196 Y133.610 E4.27741 ; skirt
G1 X479.779 Y131.886 E4.31466 ; skirt
G1 X479.534 Y130.573 E4.34269 ; skirt
G1 X479.466 Y130.140 E4.35190 ; skirt
G1 X479.258 Y128.378 E4.38915 ; skirt
G1 X479.156 Y126.607 E4.42639 ; skirt
G1 X479.160 Y124.832 E4.46363 ; skirt
G1 X479.271 Y123.062 E4.50087 ; skirt
G1 X479.487 Y121.301 E4.53812 ; skirt
G1 X479.809 Y119.556 E4.57536 ; skirt
G1 X480.024 Y118.687 E4.59415 ; skirt
G1 F1800.000 E3.59415 ; retract
G92 E0 ; reset extrusion distance
G1 X517.980 Y145.560 F7800.000 ; move to first perimeter point
G1 E1.00000 F1800.000 ; compensate retraction
G1 X497.408 Y145.560 E1.43186 F378.000 ; perimeter
G1 X496.302 Y144.886 E1.45906 ; perimeter
G1 X495.180 Y144.106 E1.48773 ; perimeter
G1 X494.107 Y143.261 E1.51641 ; perimeter
G1 X493.087 Y142.352 E1.54509 ; perimeter
G1 X492.123 Y141.385 E1.57376 ; perimeter
G1 X491.218 Y140.361 E1.60244 ; perimeter
G1 X490.377 Y139.285 E1.63111 ; perimeter
G1 X489.601 Y138.160 E1.65979 ; perimeter
G1 X488.894 Y136.991 E1.68846 ; perimeter
G1 X488.259 Y135.782 E1.71714 ; perimeter
G1 X487.697 Y134.537 E1.74582 ; perimeter
G1 X487.211 Y133.261 E1.77449 ; perimeter
G1 X486.802 Y131.957 E1.80317 ; perimeter
G1 X486.472 Y130.632 E1.83185 ; perimeter
G1 X486.230 Y129.329 E1.85966 ; perimeter
G1 X486.053 Y127.933 E1.88920 ; perimeter
G1 X485.966 Y126.570 E1.91787 ; perimeter
G1 X485.960 Y125.204 E1.94655 ; perimeter
G1 X486.036 Y123.840 E1.97522 ; perimeter
G1 X486.194 Y122.483 E2.00390 ; perimeter
G1 X486.433 Y121.138 E2.03258 ; perimeter
G1 X486.752 Y119.810 E2.06125 ; perimeter
G1 X487.150 Y118.503 E2.08993 ; perimeter
G1 X487.625 Y117.223 E2.11860 ; perimeter
G1 X488.177 Y115.973 E2.14728 ; perimeter
G1 X488.802 Y114.758 E2.17595 ; perimeter
G1 X489.499 Y113.584 E2.20463 ; perimeter
G1 X490.265 Y112.453 E2.23331 ; perimeter
G1 X491.098 Y111.370 E2.26198 ; perimeter
G1 X491.993 Y110.338 E2.29066 ; perimeter
G1 X492.949 Y109.363 E2.31934 ; perimeter
G1 X493.962 Y108.446 E2.34801 ; perimeter
G1 X495.028 Y107.592 E2.37669 ; perimeter
G1 X496.143 Y106.803 E2.40536 ; perimeter
G1 X497.243 Y106.120 E2.43254 ; perimeter
G1 X517.980 Y106.120 E2.86786 ; perimeter
G1 X517.980 Y145.497 E3.69448 ; perimeter
G1 X517.616 Y145.350 F7800.000 ; move inwards before travel
G1 X517.450 Y145.030 F7800.000 ; move to first perimeter point
G1 X497.557 Y145.030 E4.11209 F540.000 ; perimeter
G1 X496.591 Y144.441 E4.13583 ; perimeter
G1 X495.496 Y143.680 E4.16384 ; perimeter
G1 X494.447 Y142.854 E4.19185 ; perimeter
G1 X493.451 Y141.967 E4.21986 ; perimeter
G1 X492.509 Y141.022 E4.24787 ; perimeter
G1 X491.626 Y140.022 E4.27588 ; perimeter
G1 X490.804 Y138.971 E4.30389 ; perimeter
G1 X490.046 Y137.873 E4.33189 ; perimeter
G1 X489.356 Y136.731 E4.35990 ; perimeter
G1 X488.736 Y135.550 E4.38791 ; perimeter
G1 X488.187 Y134.334 E4.41592 ; perimeter
G1 X487.712 Y133.087 E4.44393 ; perimeter
G1 X487.313 Y131.814 E4.47194 ; perimeter
G1 X486.990 Y130.519 E4.49995 ; perimeter
G1 X486.751 Y129.232 E4.52743 ; perimeter
G1 X486.581 Y127.883 E4.55596 ; perimeter
G1 X486.496 Y126.552 E4.58397 ; perimeter
G1 X486.490 Y125.218 E4.61198 ; perimeter
G1 X486.564 Y123.885 E4.63999 ; perimeter
G1 X486.719 Y122.560 E4.66800 ; perimeter
G1 X486.952 Y121.247 E4.69601 ; perimeter
G1 X487.263 Y119.949 E4.72402 ; perimeter
G1 X487.652 Y118.673 E4.75202 ; perimeter
G1 X488.117 Y117.422 E4.78004 ; perimeter
G1 X488.655 Y116.201 E4.80804 ; perimeter
G1 X489.266 Y115.015 E4.83605 ; perimeter
G1 X489.947 Y113.868 E4.86406 ; perimeter
G1 X490.695 Y112.763 E4.89207 ; perimeter
G1 X491.508 Y111.705 E4.92008 ; perimeter
G1 X492.383 Y110.698 E4.94809 ; perimeter
G1 X493.317 Y109.745 E4.97610 ; perimeter
G1 X494.306 Y108.850 E5.00411 ; perimeter
G1 X495.347 Y108.015 E5.03211 ; perimeter
G1 X496.436 Y107.245 E5.06012 ; perimeter
G1 X497.394 Y106.650 E5.08379 ; perimeter
G1 X517.450 Y106.650 E5.50481 ; perimeter
G1 X517.450 Y144.967 E6.30919 ; perimeter
G1 X497.114 Y144.333 F7800.000 ; move to first fill point
G1 X490.195 Y137.415 E6.51458 F1080.000 ; fill
G1 X489.217 Y135.684 F7800.000 ; move to first fill point
G1 X498.200 Y144.666 E6.78125 F1080.000 ; fill
G1 X498.953 Y144.666 E6.79706 ; fill
G1 X488.558 Y134.271 E7.10565 ; fill
G1 X488.086 Y133.046 F7800.000 ; move to first fill point
G1 X499.706 Y144.666 E7.45063 F1080.000 ; fill
G1 X500.459 Y144.666 E7.46645 ; fill
G1 X487.734 Y131.941 E7.84423 ; fill
G1 X487.465 Y130.918 E7.86643 ; fill
G1 X501.213 Y144.666 E8.27457 ; fill
G1 X501.966 Y144.666 E8.29038 ; fill
G1 X487.256 Y129.956 E8.72710 ; fill
G1 X487.094 Y129.040 E8.74661 ; fill
G1 X502.719 Y144.666 E9.21051 ; fill
G1 X503.473 Y144.666 E9.22632 ; fill
G1 X486.985 Y128.178 E9.71580 ; fill
G1 X486.912 Y127.352 E9.73322 ; fill
G1 X504.226 Y144.666 E10.24724 ; fill
G1 X504.979 Y144.666 E10.26305 ; fill
G1 X486.860 Y126.547 E10.80097 ; fill
G1 X486.857 Y125.790 E10.81686 ; fill
G1 X505.733 Y144.666 E11.37725 ; fill
G1 X506.486 Y144.666 E11.39306 ; fill
G1 X486.865 Y125.044 E11.97558 ; fill
G1 X486.904 Y124.331 E11.99058 ; fill
G1 X507.239 Y144.666 E12.59428 ; fill
G1 X507.993 Y144.666 E12.61009 ; fill
G1 X486.960 Y123.634 E13.23449 ; fill
G1 X487.039 Y122.959 E13.24876 ; fill
G1 X508.746 Y144.666 E13.89319 ; fill
G1 X509.499 Y144.666 E13.90900 ; fill
G1 X487.134 Y122.301 E14.57297 ; fill
G1 X487.248 Y121.661 E14.58661 ; fill
G1 X510.252 Y144.666 E15.26956 ; fill
G1 X511.006 Y144.666 E15.28537 ; fill
G1 X487.377 Y121.037 E15.98687 ; fill
G1 X487.523 Y120.429 E15.99998 ; fill
G1 X511.759 Y144.666 E16.71952 ; fill
G1 X512.512 Y144.666 E16.73533 ; fill
G1 X487.679 Y119.833 E17.47257 ; fill
G1 X487.855 Y119.255 E17.48524 ; fill
G1 X513.266 Y144.666 E18.23962 ; fill
G1 X514.019 Y144.666 E18.25544 ; fill
G1 X488.037 Y118.683 E19.02680 ; fill
G1 X488.241 Y118.134 E19.03910 ; fill
G1 X514.772 Y144.666 E19.82677 ; fill
G1 X515.526 Y144.666 E19.84259 ; fill
G1 X488.445 Y117.585 E20.64657 ; fill
G1 X488.674 Y117.061 E20.65857 ; fill
G1 X516.279 Y144.666 E21.47811 ; fill
G1 X517.032 Y144.666 E21.49392 ; fill
G1 X488.905 Y116.538 E22.32898 ; fill
G1 X489.152 Y116.032 E22.34080 ; fill
G1 X517.086 Y143.966 E23.17010 ; fill
G1 X517.086 Y143.213 E23.18592 ; fill
G1 X489.408 Y115.535 E24.00762 ; fill
G1 X489.671 Y115.045 E24.01929 ; fill
G1 X517.086 Y142.460 E24.83317 ; fill
G1 X517.086 Y141.706 E24.84898 ; fill
G1 X489.952 Y114.572 E25.65453 ; fill
G1 X490.232 Y114.100 E25.66607 ; fill
G1 X517.086 Y140.953 E26.46330 ; fill
G1 X517.086 Y140.200 E26.47911 ; fill
G1 X490.535 Y113.649 E27.26736 ; fill
G1 X490.839 Y113.200 E27.27874 ; fill
G1 X517.086 Y139.446 E28.05796 ; fill
G1 X517.086 Y138.693 E28.07377 ; fill
G1 X491.155 Y112.762 E28.84361 ; fill
G1 X491.482 Y112.336 E28.85488 ; fill
G1 X517.086 Y137.940 E29.61500 ; fill
G1 X517.086 Y137.186 E29.63081 ; fill
G1 X491.811 Y111.912 E30.38117 ; fill
G1 X492.161 Y111.509 E30.39238 ; fill
G1 X517.086 Y136.433 E31.13234 ; fill
G1 X517.086 Y135.680 E31.14815 ; fill
G1 X492.511 Y111.105 E31.87771 ; fill
G1 X492.882 Y110.723 E31.88890 ; fill
G1 X517.086 Y134.927 E32.60745 ; fill
G1 X517.086 Y134.173 E32.62326 ; fill
G1 X493.259 Y110.346 E33.33063 ; fill
G1 X493.636 Y109.970 E33.34182 ; fill
G1 X517.086 Y133.420 E34.03800 ; fill
G1 X517.086 Y132.667 E34.05382 ; fill
G1 X494.020 Y109.600 E34.73861 ; fill
G1 X494.415 Y109.242 E34.74981 ; fill
G1 X517.086 Y131.913 E35.42286 ; fill
G1 X517.086 Y131.160 E35.43867 ; fill
G1 X494.826 Y108.900 E36.09953 ; fill
G1 X495.244 Y108.565 E36.11078 ; fill
G1 X517.086 Y130.407 E36.75922 ; fill
G1 X517.086 Y129.653 E36.77503 ; fill
G1 X495.667 Y108.235 E37.41090 ; fill
G1 X496.109 Y107.923 E37.42224 ; fill
G1 X517.086 Y128.900 E38.04501 ; fill
G1 X517.086 Y128.147 E38.06083 ; fill
G1 X496.550 Y107.611 E38.67050 ; fill
G1 X497.010 Y107.317 E38.68195 ; fill
G1 X517.086 Y127.393 E39.27797 ; fill
G1 X517.086 Y126.640 E39.29378 ; fill
G1 X497.475 Y107.029 E39.87600 ; fill
G1 X498.213 Y107.014 E39.89151 ; fill
G1 X517.086 Y125.887 E40.45180 ; fill
G1 X517.086 Y125.134 E40.46762 ; fill
G1 X498.966 Y107.014 E41.00554 ; fill
G1 X499.720 Y107.014 E41.02136 ; fill
G1 X517.086 Y124.380 E41.53692 ; fill
G1 X517.086 Y123.627 E41.55273 ; fill
G1 X500.473 Y107.014 E42.04593 ; fill
G1 X501.226 Y107.014 E42.06174 ; fill
G1 X517.086 Y122.874 E42.53258 ; fill
G1 X517.086 Y122.120 E42.54839 ; fill
G1 X501.980 Y107.014 E42.99686 ; fill
G1 X502.733 Y107.014 E43.01268 ; fill
G1 X517.086 Y121.367 E43.43878 ; fill
G1 X517.086 Y120.614 E43.45460 ; fill
G1 X503.486 Y107.014 E43.85834 ; fill
G1 X504.240 Y107.014 E43.87415 ; fill
G1 X517.086 Y119.860 E44.25553 ; fill
G1 X517.086 Y119.107 E44.27134 ; fill
G1 X504.993 Y107.014 E44.63036 ; fill
G1 X505.746 Y107.014 E44.64617 ; fill
G1 X517.086 Y118.354 E44.98282 ; fill
G1 X517.086 Y117.600 E44.99864 ; fill
G1 X506.500 Y107.014 E45.31292 ; fill
G1 X507.253 Y107.014 E45.32873 ; fill
G1 X517.086 Y116.847 E45.62066 ; fill
G1 X517.086 Y116.094 E45.63647 ; fill
G1 X508.006 Y107.014 E45.90603 ; fill
G1 X508.759 Y107.014 E45.92184 ; fill
G1 X517.086 Y115.341 E46.16903 ; fill
G1 X517.086 Y114.587 E46.18485 ; fill
G1 X509.513 Y107.014 E46.40968 ; fill
G1 X510.266 Y107.014 E46.42549 ; fill
G1 X517.086 Y113.834 E46.62795 ; fill
G1 X517.086 Y113.081 E46.64377 ; fill
G1 X511.019 Y107.014 E46.82387 ; fill
G1 X511.773 Y107.014 E46.83968 ; fill
G1 X517.086 Y112.327 E46.99742 ; fill
G1 X517.086 Y111.574 E47.01323 ; fill
G1 X512.526 Y107.014 E47.14861 ; fill
G1 X513.279 Y107.014 E47.16442 ; fill
G1 X517.086 Y110.821 E47.27743 ; fill
G1 X517.086 Y110.067 E47.29324 ; fill
G1 X514.033 Y107.014 E47.38389 ; fill
G1 X514.786 Y107.014 E47.39970 ; fill
G1 X517.086 Y109.314 E47.46798 ; fill
G1 X517.086 Y108.561 E47.48379 ; fill
G1 X515.539 Y107.014 E47.52971 ; fill
G1 X516.293 Y107.014 E47.54552 ; fill
G1 X517.086 Y107.807 E47.56907 ; fill
G1 X517.086 Y107.054 E47.58489 ; fill
G1 X517.046 Y107.014 E47.58608 ; fill
G1 X492.586 Y140.559 F7800.000 ; move to first fill point
G1 X493.958 Y141.931 E47.62681 F1080.000 ; fill
M106 S160 ; enable fan
G1 Z0.560 F7800.000 ; move to next layer (1)
;LayerChange
G1 X518.050 Y145.630 F7800.000 ; move to first perimeter point
G1 X497.389 Y145.630 E47.97055 F1260.000 ; perimeter
G1 X496.264 Y144.944 E47.99247 ; perimeter
G1 X495.138 Y144.162 E48.01527 ; perimeter
G1 X494.062 Y143.314 E48.03806 ; perimeter
G1 X493.039 Y142.403 E48.06086 ; perimeter
G1 X492.071 Y141.433 E48.08366 ; perimeter
G1 X491.164 Y140.406 E48.10645 ; perimeter
G1 X490.320 Y139.326 E48.12925 ; perimeter
G1 X489.542 Y138.198 E48.15205 ; perimeter
G1 X488.833 Y137.026 E48.17484 ; perimeter
G1 X488.196 Y135.813 E48.19764 ; perimeter
G1 X487.633 Y134.564 E48.22043 ; perimeter
G1 X487.145 Y133.283 E48.24323 ; perimeter
G1 X486.735 Y131.976 E48.26603 ; perimeter
G1 X486.404 Y130.646 E48.28882 ; perimeter
G1 X486.179 Y129.439 E48.30926 ; perimeter
G1 X485.984 Y127.940 E48.33441 ; perimeter
G1 X485.896 Y126.572 E48.35721 ; perimeter
G1 X485.890 Y125.202 E48.38000 ; perimeter
G1 X485.966 Y123.834 E48.40280 ; perimeter
G1 X486.125 Y122.473 E48.42559 ; perimeter
G1 X486.364 Y121.124 E48.44839 ; perimeter
G1 X486.684 Y119.792 E48.47119 ; perimeter
G1 X487.083 Y118.481 E48.49398 ; perimeter
G1 X487.560 Y117.196 E48.51678 ; perimeter
G1 X488.113 Y115.943 E48.53957 ; perimeter
G1 X488.741 Y114.724 E48.56237 ; perimeter
G1 X489.440 Y113.546 E48.58517 ; perimeter
G1 X490.208 Y112.412 E48.60796 ; perimeter
G1 X491.043 Y111.325 E48.63076 ; perimeter
G1 X491.942 Y110.291 E48.65356 ; perimeter
G1 X492.901 Y109.312 E48.67635 ; perimeter
G1 X493.917 Y108.393 E48.69915 ; perimeter
G1 X494.986 Y107.536 E48.72194 ; perimeter
G1 X496.105 Y106.745 E48.74474 ; perimeter
G1 X497.223 Y106.050 E48.76664 ; perimeter
G1 X518.050 Y106.050 E49.11314 ; perimeter
G1 X518.050 Y145.567 E49.77058 ; perimeter
G1 X517.686 Y145.420 F7800.000 ; move inwards before travel
G1 X517.630 Y145.210 F7800.000 ; move to first perimeter point
G1 X497.506 Y145.210 E50.10538 F1800.000 ; perimeter
G1 X496.493 Y144.592 E50.12513 ; perimeter
G1 X495.388 Y143.825 E50.14751 ; perimeter
G1 X494.332 Y142.992 E50.16988 ; perimeter
G1 X493.327 Y142.098 E50.19226 ; perimeter
G1 X492.378 Y141.145 E50.21464 ; perimeter
G1 X491.487 Y140.137 E50.23701 ; perimeter
G1 X490.659 Y139.078 E50.25939 ; perimeter
G1 X489.895 Y137.970 E50.28177 ; perimeter
G1 X489.199 Y136.819 E50.30414 ; perimeter
G1 X488.574 Y135.629 E50.32652 ; perimeter
G1 X488.021 Y134.403 E50.34890 ; perimeter
G1 X487.542 Y133.146 E50.37128 ; perimeter
G1 X487.139 Y131.862 E50.39365 ; perimeter
G1 X486.814 Y130.557 E50.41603 ; perimeter
G1 X486.592 Y129.362 E50.43626 ; perimeter
G1 X486.402 Y127.900 E50.46078 ; perimeter
G1 X486.316 Y126.558 E50.48316 ; perimeter
G1 X486.310 Y125.213 E50.50553 ; perimeter
G1 X486.385 Y123.870 E50.52791 ; perimeter
G1 X486.540 Y122.534 E50.55029 ; perimeter
G1 X486.776 Y121.210 E50.57267 ; perimeter
G1 X487.090 Y119.902 E50.59504 ; perimeter
G1 X487.481 Y118.615 E50.61742 ; perimeter
G1 X487.950 Y117.354 E50.63980 ; perimeter
G1 X488.493 Y116.124 E50.66217 ; perimeter
G1 X489.108 Y114.928 E50.68455 ; perimeter
G1 X489.795 Y113.771 E50.70693 ; perimeter
G1 X490.549 Y112.658 E50.72930 ; perimeter
G1 X491.369 Y111.591 E50.75168 ; perimeter
G1 X492.251 Y110.576 E50.77406 ; perimeter
G1 X493.192 Y109.615 E50.79644 ; perimeter
G1 X494.189 Y108.713 E50.81881 ; perimeter
G1 X495.239 Y107.872 E50.84119 ; perimeter
