; generated by Slic3r 1.1.7 on 2014-08-27 at 16:47:33

; perimeters extrusion width = 0.42mm
; infill extrusion width = 0.52mm
; solid infill extrusion width = 0.52mm
; top infill extrusion width = 0.52mm

; perimeters extrusion width = 0.50mm
; infill extrusion width = 0.76mm
; solid infill extrusion width = 0.76mm
; top infill extrusion width = 0.76mm

G21 ; set units to millimeters
M107 ; disable fan
M104 S200 T0 ; set temperature
M104 S200 T1 ; set temperature
POSOFFSET CLEAR X Y U A B C D
M109 S200 T0 ; wait for temperature to be reached
M109 S200 T1 ; wait for temperature to be reached
G90 ; use absolute coordinates
G92 E0 ; reset extrusion distance
M82 ; use absolute distances for extrusion
T0 ; change extruder
G92 E0 ; reset extrusion distance
G1 Z0.280 F7800.000 ; move to next layer (0)
;LayerChange
G1 F1800.000 E-1.00000 ; retract
G92 E0 ; reset extrusion distance
G1 X479.097 Y112.280 F7800.000 ; move to first skirt point
G1 E1.00000 F1800.000 ; compensate retraction
G1 X479.474 Y110.762 E1.03283 F1080.000 ; skirt
G1 X479.797 Y109.721 E1.05571 ; skirt
G1 X479.952 Y109.273 E1.06566 ; skirt
G1 X480.528 Y107.819 E1.09849 ; skirt
G1 X481.200 Y106.407 E1.13133 ; skirt
G1 X481.964 Y105.042 E1.16416 ; skirt
G1 X482.819 Y103.733 E1.19699 ; skirt
G1 X483.465 Y102.857 E1.21983 ; skirt
G1 X484.488 Y101.620 E1.25352 ; skirt
G1 X486.240 Y100.166 E1.30132 ; skirt
G1 X489.472 Y99.310 E1.37150 ; skirt
G1 X514.468 Y99.310 E1.89625 ; skirt
G1 X516.710 Y99.707 E1.94405 ; skirt
G1 X519.453 Y101.622 E2.01427 F1080.000 ; skirt
G1 X520.452 Y102.825 E2.04710 ; skirt
G1 X521.369 Y104.092 E2.07993 ; skirt
G1 X522.198 Y105.418 E2.11276 ; skirt
G1 X522.938 Y106.796 E2.14559 ; skirt
G1 X523.397 Y107.785 E2.16848 ; skirt
G1 X523.583 Y108.221 E2.17843 ; skirt
G1 X524.132 Y109.685 E2.21126 ; skirt
G1 X524.581 Y111.183 E2.24409 ; skirt
G1 X524.930 Y112.708 E2.27692 ; skirt
G1 X525.176 Y114.252 E2.30975 ; skirt
G1 X525.318 Y115.810 E2.34258 ; skirt
G1 X525.354 Y116.898 E2.36545 ; skirt
G1 X525.356 Y132.542 E2.69384 ; skirt
G1 X525.320 Y133.624 E2.71657 ; skirt
G1 X525.290 Y134.094 E2.72645 ; skirt
G1 X525.121 Y135.638 E2.75906 ; skirt
G1 X524.850 Y137.167 E2.79167 ; skirt
G1 X524.478 Y138.675 E2.82428 ; skirt
G1 X524.007 Y140.155 E2.85688 ; skirt
G1 X523.438 Y141.601 E2.88949 ; skirt
G1 X522.775 Y143.006 E2.92210 ; skirt
G1 X522.020 Y144.363 E2.95471 ; skirt
G1 X521.177 Y145.668 E2.98732 ; skirt
G1 X520.249 Y146.913 E3.01992 ; skirt
G1 X519.240 Y148.094 E3.05253 ; skirt
G1 X518.155 Y149.206 E3.08514 ; skirt
G1 X516.999 Y150.243 E3.11775 ; skirt
G1 X516.123 Y150.943 E3.14127 ; skirt
G1 X514.124 Y152.031 E3.18907 ; skirt
G1 X512.049 Y152.370 E3.23321 ; skirt
G1 X491.891 Y152.370 E3.65636 ; skirt
G1 X489.649 Y151.973 E3.70416 ; skirt
G1 X487.816 Y150.942 E3.74832 ; skirt
G1 X486.611 Y149.962 E3.78092 ; skirt
G1 X485.813 Y149.232 E3.80362 ; skirt
G1 X485.474 Y148.903 E3.81353 ; skirt
G1 X484.410 Y147.771 E3.84614 ; skirt
G1 X483.424 Y146.572 E3.87875 ; skirt
G1 X482.519 Y145.309 E3.91136 ; skirt
G1 X481.700 Y143.989 E3.94396 ; skirt
G1 X480.970 Y142.618 E3.97657 ; skirt
G1 X480.333 Y141.201 E4.00918 ; skirt
G1 X479.792 Y139.746 E4.04179 ; skirt
G1 X479.348 Y138.257 E4.07440 ; skirt
G1 X479.004 Y136.742 E4.10700 ; skirt
G1 X478.825 Y135.674 E4.12974 ; skirt
G1 X478.762 Y135.208 E4.13962 ; skirt
G1 X478.622 Y133.661 E4.17222 ; skirt
G1 X478.581 Y132.325 E4.20028 ; skirt
G1 X478.584 Y116.937 E4.52333 ; skirt
G1 X478.651 Y115.374 E4.55616 ; skirt
G1 X478.760 Y114.289 E4.57905 ; skirt
G1 X478.822 Y113.820 E4.58899 ; skirt
G1 X479.086 Y112.342 E4.62050 ; skirt
G1 F1800.000 E3.62050 ; retract
G92 E0 ; reset extrusion distance
G1 X518.221 Y135.607 F7800.000 ; move to first perimeter point
G1 E1.00000 F1800.000 ; compensate retraction
G1 X517.967 Y136.679 E1.02312 F378.000 ; perimeter
G1 X517.643 Y137.731 E1.04623 ; perimeter
G1 X517.260 Y138.732 E1.06872 ; perimeter
G1 X516.789 Y139.760 E1.09246 ; perimeter
G1 X516.263 Y140.727 E1.11558 ; perimeter
G1 X515.673 Y141.657 E1.13869 ; perimeter
G1 X515.024 Y142.546 E1.16181 ; perimeter
G1 X514.316 Y143.390 E1.18493 ; perimeter
G1 X513.555 Y144.185 E1.20804 ; perimeter
G1 X512.742 Y144.928 E1.23116 ; perimeter
G1 X511.951 Y145.560 E1.25241 ; perimeter
G1 X491.989 Y145.560 E1.67145 ; perimeter
G1 X491.198 Y144.928 E1.69270 ; perimeter
G1 X490.385 Y144.185 E1.71582 ; perimeter
G1 X489.624 Y143.390 E1.73893 ; perimeter
G1 X488.916 Y142.546 E1.76205 ; perimeter
G1 X488.267 Y141.657 E1.78517 ; perimeter
G1 X487.677 Y140.727 E1.80828 ; perimeter
G1 X487.151 Y139.760 E1.83140 ; perimeter
G1 X486.690 Y138.760 E1.85452 ; perimeter
G1 X486.297 Y137.731 E1.87763 ; perimeter
G1 X485.973 Y136.679 E1.90075 ; perimeter
G1 X485.719 Y135.607 E1.92386 ; perimeter
G1 X485.537 Y134.521 E1.94698 ; perimeter
G1 X485.427 Y133.426 E1.97010 ; perimeter
G1 X485.391 Y132.320 E1.99331 ; perimeter
G1 X485.391 Y117.160 E2.31157 ; perimeter
G1 X485.428 Y116.047 E2.33495 ; perimeter
G1 X485.539 Y114.944 E2.35822 ; perimeter
G1 X485.723 Y113.850 E2.38149 ; perimeter
G1 X485.981 Y112.772 E2.40477 ; perimeter
G1 X486.309 Y111.713 E2.42804 ; perimeter
G1 X486.708 Y110.679 E2.45132 ; perimeter
G1 X487.175 Y109.673 E2.47459 ; perimeter
G1 X487.708 Y108.701 E2.49787 ; perimeter
G1 X488.305 Y107.767 E2.52114 ; perimeter
G1 X488.963 Y106.874 E2.54441 ; perimeter
G1 X489.601 Y106.120 E2.56516 ; perimeter
G1 X514.339 Y106.120 E3.08446 ; perimeter
G1 X514.958 Y106.851 E3.10457 ; perimeter
G1 X515.635 Y107.767 E3.12847 F378.000 ; perimeter
G1 X516.232 Y108.701 E3.15175 ; perimeter
G1 X516.765 Y109.673 E3.17502 ; perimeter
G1 X517.232 Y110.679 E3.19830 ; perimeter
G1 X517.631 Y111.713 E3.22157 ; perimeter
G1 X517.959 Y112.772 E3.24485 ; perimeter
G1 X518.217 Y113.850 E3.26812 ; perimeter
G1 X518.401 Y114.944 E3.29139 ; perimeter
G1 X518.512 Y116.047 E3.31467 ; perimeter
G1 X518.549 Y117.160 E3.33804 ; perimeter
G1 X518.549 Y132.320 E3.65630 ; perimeter
G1 X518.513 Y133.426 E3.67952 ; perimeter
G1 X518.403 Y134.521 E3.70263 ; perimeter
G1 X518.231 Y135.545 E3.72443 ; perimeter
G1 X515.146 Y107.227 F7800.000 ; move inwards before travel
G1 X517.701 Y135.502 F7800.000 ; move to first perimeter point
G1 X517.456 Y136.540 E3.74680 F540.000 ; perimeter
G1 X517.142 Y137.558 E3.76918 ; perimeter
G1 X516.765 Y138.542 E3.79130 ; perimeter
G1 X516.315 Y139.522 E3.81393 ; perimeter
G1 X515.805 Y140.458 E3.83631 ; perimeter
G1 X515.235 Y141.359 E3.85869 ; perimeter
G1 X514.606 Y142.219 E3.88106 ; perimeter
G1 X513.921 Y143.036 E3.90344 ; perimeter
G1 X513.184 Y143.806 E3.92582 ; perimeter
G1 X512.397 Y144.525 E3.94819 ; perimeter
G1 X511.765 Y145.030 E3.96518 ; perimeter
G1 X492.175 Y145.030 E4.37642 ; perimeter
G1 X491.543 Y144.525 E4.39341 ; perimeter
G1 X490.756 Y143.806 E4.41578 ; perimeter
G1 X490.019 Y143.036 E4.43816 ; perimeter
G1 X489.334 Y142.219 E4.46054 ; perimeter
G1 X488.705 Y141.359 E4.48292 ; perimeter
G1 X488.135 Y140.458 E4.50529 ; perimeter
G1 X487.631 Y139.533 E4.52741 ; perimeter
G1 X487.179 Y138.554 E4.55005 ; perimeter
G1 X486.798 Y137.558 E4.57242 ; perimeter
G1 X486.484 Y136.539 E4.59480 ; perimeter
G1 X486.239 Y135.502 E4.61717 ; perimeter
G1 X486.063 Y134.451 E4.63955 ; perimeter
G1 X485.956 Y133.390 E4.66193 ; perimeter
G1 X485.921 Y132.311 E4.68459 ; perimeter
G1 X485.921 Y117.168 E5.00248 ; perimeter
G1 X485.957 Y116.082 E5.02529 ; perimeter
G1 X486.064 Y115.015 E5.04782 ; perimeter
G1 X486.243 Y113.956 E5.07035 ; perimeter
G1 X486.492 Y112.912 E5.09288 ; perimeter
G1 X486.810 Y111.887 E5.11541 ; perimeter
G1 X487.196 Y110.886 E5.13795 ; perimeter
G1 X487.648 Y109.912 E5.16047 ; perimeter
G1 X488.164 Y108.971 E5.18300 ; perimeter
G1 X488.742 Y108.067 E5.20553 ; perimeter
G1 X489.379 Y107.203 E5.22806 ; perimeter
G1 X489.847 Y106.650 E5.24328 ; perimeter
G1 X514.093 Y106.650 E5.75225 F540.000 ; perimeter
G1 X514.561 Y107.203 E5.76747 ; perimeter
G1 X515.198 Y108.067 E5.79000 ; perimeter
G1 X515.776 Y108.971 E5.81253 ; perimeter
G1 X516.292 Y109.912 E5.83506 ; perimeter
G1 X516.744 Y110.886 E5.85758 ; perimeter
G1 X517.130 Y111.887 E5.88011 ; perimeter
G1 X517.448 Y112.912 E5.90265 ; perimeter
G1 X517.697 Y113.956 E5.92518 ; perimeter
G1 X517.876 Y115.014 E5.94770 ; perimeter
G1 X517.983 Y116.082 E5.97024 ; perimeter
G1 X518.019 Y117.168 E5.99305 ; perimeter
G1 X518.019 Y132.312 E6.31094 ; perimeter
G1 X517.984 Y133.390 E6.33360 ; perimeter
G1 X517.877 Y134.451 E6.35598 ; perimeter
G1 X517.712 Y135.440 E6.37704 ; perimeter
G1 X516.409 Y111.032 F7800.000 ; move to first fill point
G1 X512.391 Y107.014 E6.49632 F1080.000 ; fill
G1 X511.639 Y107.014 E6.51210 ; fill
G1 X516.855 Y112.229 E6.66693 ; fill
G1 X517.164 Y113.290 E6.69013 ; fill
G1 X510.888 Y107.014 E6.87645 ; fill
G1 X510.136 Y107.014 E6.89223 ; fill
G1 X517.378 Y114.256 E7.10721 ; fill
G1 X517.523 Y115.153 E7.12631 ; fill
G1 X509.384 Y107.014 E7.36795 ; fill
G1 X508.633 Y107.014 E7.38373 ; fill
G1 X517.608 Y115.989 E7.65018 ; fill
G1 X517.642 Y116.775 E7.66669 ; fill
G1 X507.881 Y107.014 E7.95648 ; fill
G1 X507.129 Y107.014 E7.97226 ; fill
G1 X517.655 Y117.540 E8.28476 ; fill
G1 X517.655 Y118.292 E8.30054 ; fill
G1 X506.377 Y107.014 E8.63536 ; fill
G1 X505.626 Y107.014 E8.65114 ; fill
G1 X517.655 Y119.044 E9.00827 ; fill
G1 X517.655 Y119.795 E9.02405 ; fill
G1 X504.874 Y107.014 E9.40351 ; fill
G1 X504.122 Y107.014 E9.41929 ; fill
G1 X517.655 Y120.547 E9.82106 ; fill
G1 X517.655 Y121.299 E9.83684 ; fill
G1 X503.370 Y107.014 E10.26092 ; fill
G1 X502.619 Y107.014 E10.27670 ; fill
G1 X517.655 Y122.051 E10.72311 ; fill
G1 X517.655 Y122.802 E10.73889 ; fill
G1 X501.867 Y107.014 E11.20761 ; fill
G1 X501.115 Y107.014 E11.22339 ; fill
G1 X517.655 Y123.554 E11.71443 ; fill
G1 X517.655 Y124.306 E11.73021 ; fill
G1 X500.363 Y107.014 E12.24357 ; fill
G1 X499.612 Y107.014 E12.25935 ; fill
G1 X517.655 Y125.058 E12.79502 ; fill
G1 X517.655 Y125.809 E12.81080 ; fill
G1 X498.860 Y107.014 E13.36879 ; fill
G1 X498.108 Y107.014 E13.38457 ; fill
G1 X517.655 Y126.561 E13.96488 ; fill
G1 X517.655 Y127.313 E13.98066 ; fill
G1 X497.357 Y107.014 E14.58329 ; fill
G1 X496.605 Y107.014 E14.59907 ; fill
G1 X517.655 Y128.065 E15.22401 ; fill
G1 X517.655 Y128.816 E15.23979 ; fill
G1 X495.853 Y107.014 E15.88705 ; fill
G1 X495.101 Y107.014 E15.90283 ; fill
G1 X517.655 Y129.568 E16.57241 ; fill
G1 X517.655 Y130.320 E16.58819 ; fill
G1 X494.350 Y107.014 E17.28009 ; fill
G1 X493.598 Y107.014 E17.29587 ; fill
G1 X517.655 Y131.071 E18.01008 ; fill
G1 X517.655 Y131.823 E18.02586 ; fill
G1 X492.846 Y107.014 E18.76239 ; fill
G1 X492.094 Y107.014 E18.77817 ; fill
G1 X517.647 Y132.566 E19.53677 ; fill
G1 X517.622 Y133.294 E19.55205 ; fill
G1 X491.343 Y107.014 E20.33224 ; fill
G1 X490.591 Y107.014 E20.34802 ; fill
G1 X517.558 Y133.982 E21.14863 ; fill
G1 X517.475 Y134.650 E21.16276 ; fill
G1 X489.942 Y107.117 E21.98015 ; fill
G1 X489.596 Y107.523 E21.99134 ; fill
G1 X517.367 Y135.294 E22.81581 ; fill
G1 X517.231 Y135.909 E22.82904 ; fill
G1 X489.277 Y107.955 E23.65893 ; fill
G1 X488.965 Y108.395 E23.67025 ; fill
G1 X517.083 Y136.513 E24.50502 ; fill
G1 X516.906 Y137.088 E24.51764 ; fill
G1 X488.672 Y108.854 E25.35585 ; fill
G1 X488.388 Y109.321 E25.36734 ; fill
G1 X516.717 Y137.650 E26.20837 ; fill
G1 X516.509 Y138.194 E26.22059 ; fill
G1 X488.121 Y109.807 E27.06334 ; fill
G1 X487.868 Y110.305 E27.07508 ; fill
G1 X516.283 Y138.720 E27.91867 ; fill
G1 X516.046 Y139.235 E27.93056 ; fill
G1 X487.629 Y110.818 E28.77420 ; fill
G1 X487.408 Y111.349 E28.78627 ; fill
G1 X515.788 Y139.728 E29.62880 ; fill
G1 X515.523 Y140.215 E29.64044 ; fill
G1 X487.199 Y111.891 E30.48132 ; fill
G1 X487.014 Y112.458 E30.49384 ; fill
G1 X515.235 Y140.679 E31.33165 ; fill
G1 X514.943 Y141.139 E31.34308 ; fill
G1 X486.838 Y113.033 E32.17748 ; fill
G1 X486.693 Y113.640 E32.19058 ; fill
G1 X514.627 Y141.574 E33.01988 ; fill
G1 X514.308 Y142.008 E33.03117 ; fill
G1 X486.561 Y114.260 E33.85493 ; fill
G1 X486.453 Y114.904 E33.86862 ; fill
G1 X513.966 Y142.417 E34.68542 ; fill
G1 X513.621 Y142.824 E34.69662 ; fill
G1 X486.374 Y115.577 E35.50553 ; fill
G1 X486.315 Y116.270 E35.52013 ; fill
G1 X513.246 Y143.200 E36.31965 ; fill
G1 X512.870 Y143.576 E36.33081 ; fill
G1 X486.291 Y116.997 E37.11990 ; fill
G1 X486.285 Y117.743 E37.13555 ; fill
G1 X512.489 Y143.947 E37.91352 ; fill
G1 X512.093 Y144.302 E37.92469 ; fill
G1 X486.285 Y118.494 E38.69087 ; fill
G1 X486.285 Y119.246 E38.70666 ; fill
G1 X511.675 Y144.636 E39.46043 ; fill
G1 X510.953 Y144.666 E39.47560 ; fill
G1 X486.285 Y119.998 E40.20794 ; fill
G1 X486.285 Y120.750 E40.22372 ; fill
G1 X510.201 Y144.666 E40.93374 ; fill
G1 X509.449 Y144.666 E40.94952 ; fill
G1 X486.285 Y121.501 E41.63723 ; fill
G1 X486.285 Y122.253 E41.65301 ; fill
G1 X508.698 Y144.666 E42.31840 ; fill
G1 X507.946 Y144.666 E42.33418 ; fill
G1 X486.285 Y123.005 E42.97725 ; fill
G1 X486.285 Y123.757 E42.99303 ; fill
G1 X507.194 Y144.666 E43.61378 ; fill
G1 X506.442 Y144.666 E43.62957 ; fill
G1 X486.285 Y124.508 E44.22800 ; fill
G1 X486.285 Y125.260 E44.24378 ; fill
G1 X505.691 Y144.666 E44.81990 ; fill
G1 X504.939 Y144.666 E44.83568 ; fill
G1 X486.285 Y126.012 E45.38948 ; fill
G1 X486.285 Y126.764 E45.40526 ; fill
G1 X504.187 Y144.666 E45.93675 ; fill
G1 X503.435 Y144.666 E45.95253 ; fill
G1 X486.285 Y127.515 E46.46170 ; fill
G1 X486.285 Y128.267 E46.47748 ; fill
G1 X502.684 Y144.666 E46.96433 ; fill
G1 X501.932 Y144.666 E46.98011 ; fill
G1 X486.285 Y129.019 E47.44464 ; fill
G1 X486.285 Y129.770 E47.46042 ; fill
G1 X501.180 Y144.666 E47.90263 ; fill
G1 X500.428 Y144.666 E47.91841 ; fill
G1 X486.285 Y130.522 E48.33831 ; fill
G1 X486.285 Y131.274 E48.35409 ; fill
G1 X499.677 Y144.666 E48.75167 ; fill
G1 X498.925 Y144.666 E48.76745 ; fill
G1 X486.285 Y132.026 E49.14272 ; fill
G1 X486.301 Y132.794 E49.15884 ; fill
G1 X498.173 Y144.666 E49.51130 ; fill
G1 X497.422 Y144.666 E49.52708 ; fill
G1 X486.342 Y133.587 E49.85600 ; fill
G1 X486.427 Y134.423 E49.87366 ; fill
G1 X496.670 Y144.666 E50.17774 ; fill
G1 X495.918 Y144.666 E50.19352 ; fill
G1 X486.579 Y135.326 E50.47079 ; fill
G1 X486.802 Y136.302 E50.49180 ; fill
G1 X495.166 Y144.666 E50.74012 ; fill
G1 X494.415 Y144.666 E50.75590 ; fill
G1 X487.123 Y137.374 E50.97238 ; fill
G1 X487.605 Y138.608 F7800.000 ; move to first fill point
G1 X493.663 Y144.666 E51.15222 F1080.000 ; fill
G1 X492.911 Y144.666 E51.16801 ; fill
G1 X488.367 Y140.121 E51.30292 ; fill
G1 X490.365 Y142.872 F7800.000 ; move to first fill point
G1 X491.339 Y143.845 E51.33183 F1080.000 ; fill
G1 X515.676 Y109.548 F7800.000 ; move to first fill point
G1 X513.143 Y107.014 E51.40704 F1080.000 ; fill
G1 X514.085 Y107.205 E51.42722 ; fill
G1 X513.895 Y107.014 E51.43287 ; fill
M106 S144 ; enable fan
G1 Z0.560 F7800.000 ; move to next layer (1)
;LayerChange
G1 X518.285 Y135.641 F7800.000 ; move to first perimeter point
G1 X518.035 Y136.697 E51.45093 F1260.000 ; perimeter
G1 X517.709 Y137.754 E51.46933 ; perimeter
G1 X517.314 Y138.787 E51.48773 ; perimeter
G1 X516.851 Y139.791 E51.50613 ; perimeter
G1 X516.323 Y140.762 E51.52452 ; perimeter
G1 X515.731 Y141.697 E51.54292 ; perimeter
G1 X515.079 Y142.589 E51.56132 ; perimeter
G1 X514.368 Y143.437 E51.57971 ; perimeter
G1 X513.603 Y144.235 E51.59811 ; perimeter
G1 X512.787 Y144.981 E51.61651 ; perimeter
G1 X511.975 Y145.630 E51.63380 ; perimeter
G1 X491.965 Y145.630 E51.96671 ; perimeter
G1 X491.153 Y144.981 E51.98400 ; perimeter
G1 X490.337 Y144.235 E52.00240 ; perimeter
G1 X489.572 Y143.437 E52.02080 ; perimeter
G1 X488.861 Y142.589 E52.03919 ; perimeter
G1 X488.209 Y141.697 E52.05759 ; perimeter
G1 X487.617 Y140.762 E52.07599 ; perimeter
G1 X487.089 Y139.791 E52.09439 ; perimeter
G1 X486.626 Y138.787 E52.11278 ; perimeter
G1 X486.231 Y137.754 E52.13118 ; perimeter
G1 X485.905 Y136.697 E52.14958 ; perimeter
G1 X485.650 Y135.621 E52.16797 ; perimeter
G1 X485.468 Y134.531 E52.18637 ; perimeter
G1 X485.358 Y133.430 E52.20477 ; perimeter
G1 X485.321 Y132.322 E52.22322 ; perimeter
G1 X485.321 Y117.158 E52.47549 ; perimeter
G1 X485.358 Y116.042 E52.49408 ; perimeter
