; generated by Slic3r 1.1.7 on 2014-09-19 at 14:34:30

; perimeters extrusion width = 0.40mm
; infill extrusion width = 0.87mm
; solid infill extrusion width = 0.68mm
; top infill extrusion width = 0.68mm

G21 ; set units to millimeters
M107 ; disable fan
M104 S200 ; set temperature
POSOFFSET CLEAR X Y U A B C D
M109 S200 ; wait for temperature to be reached
G90 ; use absolute coordinates
G92 E0 ; reset extrusion distance
M82 ; use absolute distances for extrusion
G1 Z0.150 F7800.000 ; move to next layer (0)
;LayerChange
G1 F1800.000 E-1.00000 ; retract
G92 E0 ; reset extrusion distance
G1 X486.768 Y124.198 F7800.000 ; move to first skirt point
G1 E1.00000 F1800.000 ; compensate retraction
G1 X487.055 Y123.191 E1.00714 F600.000 ; skirt
G1 X487.163 Y122.913 E1.00918 ; skirt
G1 X487.794 Y121.718 E1.01840 ; skirt
G1 X490.513 Y117.840 E1.05071 ; skirt
G1 X492.103 Y116.263 E1.06598 ; skirt
G1 X494.144 Y115.340 E1.08126 ; skirt
G1 X495.688 Y115.148 E1.09188 ; skirt
G1 X498.827 Y115.981 E1.11403 ; skirt
G1 X500.552 Y117.423 E1.12937 F600.000 ; skirt
G1 X501.369 Y118.678 E1.13959 ; skirt
G1 X505.680 Y127.421 E1.20608 ; skirt
G1 X506.331 Y130.324 E1.22638 ; skirt
G1 X505.441 Y133.490 E1.24881 ; skirt
G1 X504.177 Y135.012 E1.26231 ; skirt
G1 X503.942 Y135.219 E1.26444 ; skirt
G1 X503.027 Y135.887 E1.27217 ; skirt
G1 X502.413 Y136.218 E1.27693 ; skirt
G1 X501.086 Y136.680 E1.28652 ; skirt
G1 X499.637 Y136.851 E1.29647 ; skirt
G1 X498.501 Y136.756 E1.30424 ; skirt
G1 X497.301 Y136.440 E1.31271 ; skirt
G1 X495.970 Y135.759 E1.32291 ; skirt
G1 X489.945 Y131.687 E1.37252 ; skirt
G1 X489.493 Y131.288 E1.37663 ; skirt
G1 X488.783 Y130.588 E1.38343 ; skirt
G1 X488.427 Y130.180 E1.38713 ; skirt
G1 X487.628 Y129.084 E1.39638 ; skirt
G1 X487.012 Y127.763 E1.40632 ; skirt
G1 X486.942 Y127.552 E1.40783 ; skirt
G1 X486.678 Y124.706 E1.42733 ; skirt
G1 X486.757 Y124.257 E1.43044 ; skirt
G1 F1800.000 E0.43044 ; retract
G92 E0 ; reset extrusion distance
G1 X494.392 Y126.153 F7800.000 ; move to first fill point
G1 E1.00000 F1800.000 ; compensate retraction
G1 X494.440 Y126.201 E1.00046 F600.000 ; fill
G1 X495.282 Y125.947 E1.00646 ; fill
G1 X495.311 Y125.976 E1.00674 ; fill
G1 X495.226 Y126.439 E1.00995 ; fill
G1 X494.487 Y125.700 E1.01708 ; fill
G1 X494.754 Y125.418 E1.01972 ; fill
G1 X494.695 Y125.360 E1.02029 ; fill
G1 X494.297 Y125.941 F7800.000 ; move to first fill point
G1 X494.084 Y125.748 E1.02153 F600.000 ; fill
G1 X493.917 Y125.656 E1.02235 ; fill
G1 X493.680 Y125.455 E1.02370 ; fill
G1 F1800.000 E0.02370 ; retract
G92 E0 ; reset extrusion distance
G1 X495.067 Y123.010 F7800.000 ; move to first perimeter point
G1 E1.00000 F1800.000 ; compensate retraction
G1 X495.216 Y123.734 E1.00505 F600.000 ; perimeter
G1 X495.090 Y124.040 E1.00731 ; perimeter
G1 X496.111 Y124.762 F7800.000 ; move to first perimeter point
G1 X496.160 Y124.788 E1.00768 F600.000 ; perimeter
G1 X496.188 Y124.920 E1.00861 ; perimeter
G1 X496.173 Y125.028 E1.00935 ; perimeter
G1 X495.928 Y125.159 E1.01125 ; perimeter
G1 X495.886 Y124.600 E1.01507 ; perimeter
G1 X496.062 Y124.727 E1.01655 ; perimeter
G1 X496.110 Y124.817 F7800.000 ; move inwards before travel
G1 X495.157 Y124.789 F7800.000 ; move to first perimeter point
G1 X495.250 Y125.207 E1.01947 F600.000 ; perimeter
G1 X495.335 Y125.348 E1.02060 ; perimeter
G1 X495.409 Y125.427 E1.02134 ; perimeter
G1 X495.588 Y125.468 E1.02259 ; perimeter
G1 X495.808 Y125.354 E1.02428 ; perimeter
G1 X495.838 Y125.883 E1.02789 ; perimeter
G1 X496.029 Y126.336 E1.03125 ; perimeter
G1 X496.145 Y126.428 E1.03225 ; perimeter
G1 X496.277 Y126.696 E1.03429 ; perimeter
G1 X496.357 Y127.077 E1.03695 ; perimeter
G1 X496.525 Y127.000 E1.03821 ; perimeter
G1 X496.569 Y127.441 E1.04123 ; perimeter
G1 X496.321 Y127.421 E1.04293 ; perimeter
G1 X496.015 Y127.358 E1.04506 ; perimeter
G1 X495.790 Y127.141 E1.04719 ; perimeter
G1 X495.626 Y127.101 E1.04834 ; perimeter
G1 X495.424 Y126.982 E1.04994 ; perimeter
G1 X495.315 Y126.968 E1.05069 ; perimeter
G1 X494.955 Y126.987 E1.05315 ; perimeter
G1 X494.800 Y127.056 E1.05430 ; perimeter
G1 X494.610 Y126.935 E1.05584 ; perimeter
G1 X494.532 Y126.864 E1.05656 ; perimeter
G1 X494.288 Y126.721 E1.05849 ; perimeter
G1 X494.145 Y126.665 E1.05954 ; perimeter
G1 X493.996 Y126.637 E1.06057 ; perimeter
G1 X493.894 Y126.462 E1.06196 ; perimeter
G1 X493.720 Y126.242 E1.06387 ; perimeter
G1 X493.489 Y126.149 E1.06556 ; perimeter
G1 X493.394 Y125.986 E1.06685 ; perimeter
G1 X493.296 Y125.900 E1.06774 ; perimeter
G1 X493.148 Y125.707 E1.06940 ; perimeter
G1 X493.096 Y125.550 E1.07053 ; perimeter
G1 X493.170 Y125.321 E1.07217 ; perimeter
G1 X493.288 Y125.165 E1.07350 ; perimeter
G1 X493.597 Y124.861 E1.07646 ; perimeter
G1 X493.676 Y124.805 E1.07712 ; perimeter
G1 X493.733 Y124.830 E1.07754 ; perimeter
G1 X493.803 Y124.824 E1.07802 ; perimeter
G1 X494.204 Y125.103 E1.08135 ; perimeter
G1 X494.549 Y124.495 E1.08612 ; perimeter
G1 X494.945 Y124.353 E1.08899 ; perimeter
G1 X495.332 Y124.045 E1.09237 ; perimeter
G1 X495.465 Y124.328 E1.09451 ; perimeter
G1 X495.708 Y124.397 E1.09623 ; perimeter
G1 X495.893 Y124.585 E1.09803 ; perimeter
G1 X495.215 Y124.773 E1.10283 ; perimeter
G1 X494.768 Y124.883 F7800.000 ; move inwards before travel
G1 X494.315 Y125.572 F7800.000 ; move to first perimeter point
G1 X494.803 Y124.676 E1.10979 F600.000 ; perimeter
G1 X494.948 Y125.328 E1.11434 ; perimeter
G1 X495.077 Y125.542 E1.11605 ; perimeter
G1 X495.241 Y125.719 E1.11769 ; perimeter
G1 X495.502 Y125.778 E1.11952 ; perimeter
G1 X495.525 Y125.966 E1.12081 ; perimeter
G1 X495.803 Y126.628 E1.12570 ; perimeter
G1 X495.665 Y126.750 E1.12696 ; perimeter
G1 X495.528 Y126.671 E1.12804 ; perimeter
G1 X495.329 Y126.646 E1.12941 ; perimeter
G1 X494.805 Y126.677 E1.13299 ; perimeter
G1 X494.711 Y126.592 E1.13385 ; perimeter
G1 X494.397 Y126.412 E1.13632 ; perimeter
G1 X494.193 Y126.337 E1.13781 ; perimeter
G1 X494.081 Y126.169 E1.13918 ; perimeter
G1 X493.904 Y125.963 E1.14104 ; perimeter
G1 X493.720 Y125.906 E1.14235 ; perimeter
G1 X493.645 Y125.779 E1.14336 ; perimeter
G1 X493.526 Y125.675 E1.14443 ; perimeter
G1 X493.410 Y125.536 E1.14567 ; perimeter
G1 X493.531 Y125.377 E1.14703 ; perimeter
G1 X493.738 Y125.170 E1.14902 ; perimeter
G1 X494.265 Y125.537 E1.15341 ; perimeter
G1 X495.507 Y123.092 F7800.000 ; move to first perimeter point
G1 X495.439 Y122.844 E1.15516 F600.000 ; perimeter
G1 X495.426 Y122.366 E1.15843 ; perimeter
G1 X495.535 Y122.104 E1.16036 ; perimeter
G1 X495.591 Y121.881 E1.16193 ; perimeter
G1 X495.606 Y121.726 E1.16299 ; perimeter
G1 X495.649 Y121.612 E1.16382 ; perimeter
M106 S255 ; enable fan
G1 Z0.300 F7800.000 ; move to next layer (1)
;LayerChange
G1 X495.451 Y122.332 F7800.000 ; move to first fill point
M106 S255 ; enable fan
G1 X495.499 Y122.156 E1.16707 F1800.000 ; fill
G1 X495.022 Y122.071 E1.17567 ; fill
G1 X493.953 Y126.062 E1.24912 ; fill
G1 X493.526 Y125.794 E1.25808 ; fill
G1 X494.079 Y123.729 E1.29609 ; fill
G1 X494.970 Y124.127 E1.31343 ; fill
G1 X494.392 Y126.286 E1.35317 ; fill
G1 X494.843 Y126.463 E1.36179 ; fill
G1 X495.328 Y124.652 E1.39511 ; fill
G1 X495.747 Y124.951 E1.40426 ; fill
G1 X495.296 Y126.634 E1.43522 ; fill
G1 X495.776 Y126.703 E1.44385 ; fill
G1 X496.169 Y125.239 E1.47080 ; fill
G1 X496.645 Y125.322 E1.47940 ; fill
G1 X496.229 Y126.874 E1.50797 ; fill
G1 X496.687 Y127.028 E1.51656 ; fill
G1 X496.700 Y126.979 E1.51746 ; fill
M106 S255 ; enable fan
G1 X493.305 Y124.758 F7800.000 ; move to first fill point
M106 S255 ; enable fan
G1 X493.353 Y124.576 E1.52080 F1800.000 ; fill
M106 S255 ; enable fan
G1 X497.857 Y129.357 F7800.000 ; move to first fill point
G1 X498.075 Y129.634 E1.52262 F600.000 ; fill
G1 X498.312 Y129.807 E1.52413 ; fill
G1 X498.722 Y130.010 E1.52649 ; fill
G1 X499.036 Y130.030 E1.52812 ; fill
G1 X501.049 Y129.768 F7800.000 ; move to first fill point
G1 X501.686 Y129.599 E1.53151 F600.000 ; fill
G1 X502.647 Y129.450 E1.53652 ; fill
G1 F1800.000 E0.53652 ; retract
G92 E0 ; reset extrusion distance
G1 X495.475 Y121.489 F7800.000 ; move to first fill point
G1 E1.00000 F1800.000 ; compensate retraction
M106 S255 ; enable fan
G1 X495.398 Y121.590 E1.00226 F1800.000 ; fill
G1 X494.817 Y121.068 E1.01616 ; fill
G1 X494.853 Y121.020 E1.01723 ; fill
M106 S255 ; enable fan
G1 F1800.000 E0.01723 ; retract
G92 E0 ; reset extrusion distance
G1 X499.133 Y121.879 F7800.000 ; move to first perimeter point
G1 E1.00000 F1800.000 ; compensate retraction
G1 X498.945 Y121.400 E1.00437 F785.357 ; perimeter
G1 X498.768 Y121.069 E1.00755 ; perimeter
G1 X498.862 Y120.624 E1.01142 ; perimeter
G1 X495.681 Y123.788 F7800.000 ; move to first perimeter point
M106 S255 ; enable fan
G1 X495.701 Y123.901 E1.01346 F1800.000 ; perimeter
G1 X495.745 Y123.987 E1.01518 ; perimeter
G1 X495.850 Y124.076 E1.01763 ; perimeter
M106 S255 ; enable fan
G1 F1800.000 E0.01763 ; retract
G92 E0 ; reset extrusion distance
G1 X500.181 Y130.359 F7800.000 ; move to first perimeter point
G1 E1.00000 F1800.000 ; compensate retraction
G1 X499.956 Y130.532 E1.00241 F785.357 ; perimeter
G1 X499.828 Y130.594 E1.00361 ; perimeter
G1 X499.362 Y130.675 E1.00763 ; perimeter
M106 S255 ; enable fan
G1 X498.882 Y130.738 E1.01623 F1800.000 ; perimeter
G1 X498.602 Y130.795 E1.02132 ; perimeter
G1 X498.269 Y130.602 E1.02815 ; perimeter
G1 X498.038 Y130.539 E1.03241 ; perimeter
G1 X497.935 Y130.480 E1.03453 ; perimeter
G1 X497.763 Y130.337 E1.03850 ; perimeter
G1 X497.583 Y130.237 E1.04216 ; perimeter
G1 X497.424 Y130.044 E1.04660 ; perimeter
G1 X497.176 Y129.492 E1.05736 ; perimeter
G1 X496.977 Y128.765 E1.07076 ; perimeter
G1 X496.647 Y128.067 E1.08450 ; perimeter
G1 X496.549 Y127.905 E1.08786 ; perimeter
G1 X496.382 Y127.777 E1.09159 ; perimeter
M106 S255 ; enable fan
G1 X496.216 Y127.659 E1.09332 F785.357 ; perimeter
G1 X495.927 Y127.596 E1.09583 ; perimeter
G1 X495.739 Y127.476 E1.09773 ; perimeter
G1 X495.622 Y127.463 E1.09872 ; perimeter
M106 S255 ; enable fan
G1 X495.326 Y127.475 E1.10399 F1800.000 ; perimeter
G1 X495.153 Y127.393 E1.10740 ; perimeter
G1 X495.002 Y127.348 E1.11019 ; perimeter
M106 S255 ; enable fan
G1 X494.813 Y127.238 E1.11204 F785.357 ; perimeter
G1 X494.567 Y127.199 E1.11417 ; perimeter
G1 X494.360 Y127.085 E1.11617 ; perimeter
G1 X494.080 Y127.008 E1.11863 ; perimeter
G1 X493.828 Y126.819 E1.12130 ; perimeter
G1 X493.673 Y126.777 E1.12267 ; perimeter
G1 X495.850 Y124.076 F7800.000 ; move to first perimeter point
G1 X495.993 Y124.187 E1.12421 F785.357 ; perimeter
M106 S255 ; enable fan
G1 X496.246 Y124.362 E1.12968 F1800.000 ; perimeter
G1 X496.403 Y124.500 E1.13339 ; perimeter
G1 X496.510 Y124.536 E1.13539 ; perimeter
G1 X496.776 Y124.559 E1.14015 ; perimeter
M106 S255 ; enable fan
G1 X496.942 Y124.544 E1.14156 F785.357 ; perimeter
M106 S255 ; enable fan
G1 X497.397 Y124.470 E1.14976 F1800.000 ; perimeter
G1 X497.566 Y124.423 E1.15288 ; perimeter
G1 X498.092 Y124.177 E1.16320 ; perimeter
G1 X498.580 Y123.850 E1.17364 ; perimeter
G1 X498.875 Y123.468 E1.18222 ; perimeter
G1 X498.949 Y123.304 E1.18542 ; perimeter
G1 X498.999 Y123.125 E1.18873 ; perimeter
G1 X498.966 Y122.113 E1.20673 ; perimeter
G1 X499.232 Y122.064 E1.21154 ; perimeter
G1 X499.480 Y122.734 E1.22424 ; perimeter
G1 X499.383 Y123.309 E1.23460 ; perimeter
G1 X498.809 Y124.139 E1.25255 ; perimeter
G1 X497.846 Y125.424 E1.28109 ; perimeter
G1 X497.711 Y125.767 E1.28763 ; perimeter
G1 X497.541 Y125.996 E1.29271 ; perimeter
G1 X497.419 Y126.583 E1.30336 ; perimeter
G1 X497.536 Y127.383 E1.31774 ; perimeter
G1 X497.701 Y127.903 E1.32744 ; perimeter
G1 X497.827 Y128.177 E1.33279 ; perimeter
G1 X498.007 Y128.462 E1.33880 ; perimeter
G1 X498.318 Y128.850 E1.34763 ; perimeter
G1 X498.910 Y129.288 E1.36072 ; perimeter
G1 X499.291 Y129.395 E1.36776 ; perimeter
G1 X499.628 Y129.438 E1.37379 ; perimeter
G1 X499.958 Y129.447 E1.37966 ; perimeter
G1 X500.639 Y129.409 E1.39180 ; perimeter
G1 X503.086 Y129.105 E1.43563 ; perimeter
G1 X504.049 Y128.946 E1.45298 ; perimeter
G1 X504.472 Y128.919 E1.46051 ; perimeter
G1 X505.154 Y128.791 E1.47285 ; perimeter
G1 X505.420 Y128.763 E1.47761 ; perimeter
G1 X505.815 Y128.668 E1.48483 ; perimeter
G1 X506.485 Y128.366 E1.49790 ; perimeter
G1 X506.623 Y128.287 E1.50072 ; perimeter
G1 X506.740 Y128.208 E1.50323 ; perimeter
G1 X506.944 Y127.987 E1.50858 ; perimeter
G1 X507.160 Y128.109 E1.51299 ; perimeter
G1 X507.099 Y128.299 E1.51653 ; perimeter
G1 X507.026 Y128.375 E1.51841 ; perimeter
G1 X506.980 Y128.390 E1.51927 ; perimeter
G1 X506.613 Y128.752 E1.52843 ; perimeter
G1 X506.403 Y128.876 E1.53276 ; perimeter
G1 X506.257 Y129.021 E1.53642 ; perimeter
G1 X506.103 Y129.080 E1.53935 ; perimeter
G1 X505.830 Y129.106 E1.54423 ; perimeter
G1 X505.337 Y129.277 E1.55351 ; perimeter
G1 X504.968 Y129.336 E1.56016 ; perimeter
G1 X504.774 Y129.394 E1.56376 ; perimeter
G1 X504.525 Y129.410 E1.56819 ; perimeter
G1 X504.193 Y129.492 E1.57427 ; perimeter
G1 X503.571 Y129.595 E1.58548 ; perimeter
G1 X502.989 Y129.624 E1.59584 ; perimeter
G1 X502.652 Y129.752 E1.60225 ; perimeter
G1 X501.666 Y129.933 E1.62007 ; perimeter
G1 X501.398 Y130.077 E1.62548 ; perimeter
G1 X501.239 Y130.129 E1.62846 ; perimeter
G1 X500.414 Y130.267 E1.64333 ; perimeter
G1 X500.181 Y130.359 E1.64778 ; perimeter
M106 S255 ; enable fan
G1 F1800.000 E0.64778 ; retract
G92 E0 ; reset extrusion distance
G1 X493.673 Y126.777 F7800.000 ; move to first perimeter point
G1 E1.00000 F1800.000 ; compensate retraction
M106 S255 ; enable fan
G1 X493.591 Y126.759 E1.00149 F1800.000 ; perimeter
G1 X493.304 Y126.632 E1.00706 ; perimeter
G1 X492.807 Y126.197 E1.01880 ; perimeter
G1 X492.737 Y126.030 E1.02203 ; perimeter
G1 X492.673 Y125.736 E1.02737 ; perimeter
G1 X492.537 Y125.475 E1.03262 ; perimeter
G1 X492.506 Y125.256 E1.03655 ; perimeter
G1 X492.500 Y125.033 E1.04051 ; perimeter
G1 X492.535 Y124.867 E1.04353 ; perimeter
G1 X492.537 Y124.620 E1.04792 ; perimeter
G1 X492.560 Y124.479 E1.05046 ; perimeter
G1 X492.685 Y124.190 E1.05605 ; perimeter
G1 X493.039 Y123.719 E1.06652 ; perimeter
G1 X493.676 Y123.033 E1.08318 ; perimeter
G1 X494.039 Y122.577 E1.09354 ; perimeter
G1 X494.124 Y122.452 E1.09622 ; perimeter
G1 X494.204 Y122.275 E1.09968 ; perimeter
G1 X494.231 Y121.893 E1.10648 ; perimeter
G1 X494.218 Y121.732 E1.10935 ; perimeter
G1 X494.082 Y121.321 E1.11706 ; perimeter
G1 X494.018 Y120.964 E1.12351 ; perimeter
G1 X493.990 Y120.510 E1.13158 ; perimeter
G1 X493.923 Y120.042 E1.13999 ; perimeter
G1 X493.927 Y119.877 E1.14292 ; perimeter
G1 X494.137 Y119.769 E1.14712 ; perimeter
G1 X494.281 Y119.452 E1.15331 ; perimeter
G1 X494.481 Y119.811 E1.16061 ; perimeter
G1 X494.613 Y119.939 E1.16388 ; perimeter
G1 X494.864 Y119.960 E1.16836 ; perimeter
G1 X495.107 Y120.163 E1.17398 ; perimeter
G1 X495.217 Y120.201 E1.17606 ; perimeter
G1 X495.477 Y120.151 E1.18077 ; perimeter
G1 X495.536 Y120.307 E1.18373 ; perimeter
G1 X495.633 Y120.296 E1.18547 ; perimeter
G1 X495.684 Y120.377 E1.18717 ; perimeter
G1 X495.851 Y120.530 E1.19119 ; perimeter
G1 X496.091 Y120.449 E1.19570 ; perimeter
G1 X496.161 Y120.476 E1.19704 ; perimeter
G1 X496.323 Y120.487 E1.19991 ; perimeter
G1 X496.650 Y120.463 E1.20575 ; perimeter
G1 X496.867 Y120.425 E1.20966 ; perimeter
G1 X496.939 Y120.439 E1.21097 ; perimeter
G1 X497.132 Y120.429 E1.21441 ; perimeter
G1 X497.387 Y120.489 E1.21907 ; perimeter
G1 X497.658 Y120.374 E1.22431 ; perimeter
G1 X497.759 Y120.278 E1.22677 ; perimeter
G1 X498.034 Y119.871 E1.23551 ; perimeter
G1 X498.346 Y120.134 E1.24275 ; perimeter
G1 X498.491 Y120.331 E1.24711 ; perimeter
G1 X498.615 Y120.570 E1.25189 ; perimeter
G1 X498.419 Y120.734 E1.25645 ; perimeter
G1 X498.305 Y120.647 E1.25899 ; perimeter
G1 X498.099 Y120.532 E1.26320 ; perimeter
G1 X497.743 Y120.786 E1.27097 ; perimeter
G1 X497.386 Y120.752 E1.27734 ; perimeter
G1 X497.372 Y120.661 E1.27897 ; perimeter
G1 X496.978 Y121.090 E1.28933 ; perimeter
G1 X496.753 Y121.291 E1.29468 ; perimeter
G1 X495.795 Y123.476 E1.33710 ; perimeter
G1 X495.709 Y123.634 E1.34031 ; perimeter
G1 X495.685 Y123.728 E1.34203 ; perimeter
