; generated by Slic3r 1.1.7 on 2014-08-28 at 00:02:16

; perimeters extrusion width = 0.42mm
; infill extrusion width = 0.52mm
; solid infill extrusion width = 0.52mm
; top infill extrusion width = 0.52mm

; perimeters extrusion width = 0.50mm
; infill extrusion width = 0.76mm
; solid infill extrusion width = 0.76mm
; top infill extrusion width = 0.76mm

G21 ; set units to millimeters
M107 ; disable fan
M104 S200 T0 ; set temperature
M104 S200 T1 ; set temperature
POSOFFSET CLEAR X Y U A B C D
M109 S200 T0 ; wait for temperature to be reached
M109 S200 T1 ; wait for temperature to be reached
G90 ; use absolute coordinates
G92 E0 ; reset extrusion distance
M82 ; use absolute distances for extrusion
T0 ; change extruder
G92 E0 ; reset extrusion distance
G1 Z0.280 F7800.000 ; move to next layer (0)
;LayerChange
G1 F1800.000 E-1.00000 ; retract
G92 E0 ; reset extrusion distance
G1 X480.837 Y113.598 F7800.000 ; move to first skirt point
G1 E1.00000 F1800.000 ; compensate retraction
G1 X481.980 Y111.629 E1.04780 F1800.000 ; skirt
G1 X483.729 Y110.171 E1.09559 ; skirt
G1 X486.970 Y109.310 E1.16599 ; skirt
G1 X516.970 Y109.310 E1.79577 ; skirt
G1 X519.212 Y109.707 E1.84357 ; skirt
G1 X521.181 Y110.850 E1.89136 F1800.000 ; skirt
G1 X522.639 Y112.599 E1.93916 ; skirt
G1 X523.500 Y115.840 E2.00956 ; skirt
G1 X523.500 Y135.840 E2.42941 ; skirt
G1 X523.103 Y138.082 E2.47721 ; skirt
G1 X521.960 Y140.051 E2.52501 ; skirt
G1 X520.211 Y141.509 E2.57280 ; skirt
G1 X516.970 Y142.370 E2.64321 ; skirt
G1 X486.970 Y142.370 E3.27298 ; skirt
G1 X484.728 Y141.973 E3.32078 ; skirt
G1 X482.759 Y140.830 E3.36857 ; skirt
G1 X481.301 Y139.081 E3.41637 ; skirt
G1 X480.440 Y135.840 E3.48677 ; skirt
G1 X480.440 Y115.840 E3.90662 ; skirt
G1 X480.826 Y113.660 E3.95310 ; skirt
G1 F1800.000 E2.95310 ; retract
G92 E0 ; reset extrusion distance
G1 X516.690 Y135.560 F7800.000 ; move to first perimeter point
G1 E1.00000 F1800.000 ; compensate retraction
G1 X487.250 Y135.560 E1.61802 F6000.000 ; perimeter
G1 X487.250 Y116.120 E2.02612 ; perimeter
G1 X516.690 Y116.120 E2.64414 ; perimeter
G1 X516.690 Y135.497 E3.05091 ; perimeter
G1 X516.326 Y135.350 F7800.000 ; move inwards before travel
G1 X516.160 Y135.030 F7800.000 ; move to first perimeter point
G1 X487.780 Y135.030 E3.64668 F1800.000 ; perimeter
G1 X487.780 Y116.650 E4.03252 ; perimeter
G1 X516.160 Y116.650 E4.62830 ; perimeter
G1 X516.160 Y134.967 E5.01282 ; perimeter
G1 X515.756 Y117.014 F7800.000 ; move to first fill point
G1 X515.796 Y117.054 E5.01401 F1800.000 ; fill
G1 X515.796 Y117.808 E5.02983 ; fill
G1 X515.002 Y117.014 E5.05339 ; fill
G1 X514.248 Y117.014 E5.06921 ; fill
G1 X515.796 Y118.562 E5.11516 ; fill
G1 X515.796 Y119.315 E5.13098 ; fill
G1 X513.495 Y117.014 E5.19929 ; fill
G1 X512.741 Y117.014 E5.21512 ; fill
G1 X515.796 Y120.069 E5.30581 ; fill
G1 X515.796 Y120.823 E5.32163 ; fill
G1 X511.987 Y117.014 E5.43470 ; fill
G1 X511.234 Y117.014 E5.45053 ; fill
G1 X515.796 Y121.576 E5.58597 ; fill
G1 X515.796 Y122.330 E5.60180 ; fill
G1 X510.480 Y117.014 E5.75962 ; fill
G1 X509.726 Y117.014 E5.77544 ; fill
G1 X515.796 Y123.084 E5.95564 ; fill
G1 X515.796 Y123.838 E5.97146 ; fill
G1 X508.972 Y117.014 E6.17404 ; fill
G1 X508.219 Y117.014 E6.18986 ; fill
G1 X515.796 Y124.591 E6.41481 ; fill
G1 X515.796 Y125.345 E6.43064 ; fill
G1 X507.465 Y117.014 E6.67797 ; fill
G1 X506.711 Y117.014 E6.69379 ; fill
G1 X515.796 Y126.099 E6.96349 ; fill
G1 X515.796 Y126.853 E6.97932 ; fill
G1 X505.957 Y117.014 E7.27140 ; fill
G1 X505.204 Y117.014 E7.28722 ; fill
G1 X515.796 Y127.606 E7.60168 ; fill
G1 X515.796 Y128.360 E7.61750 ; fill
G1 X504.450 Y117.014 E7.95434 ; fill
G1 X503.696 Y117.014 E7.97016 ; fill
G1 X515.796 Y129.114 E8.32937 ; fill
G1 X515.796 Y129.867 E8.34519 ; fill
G1 X502.943 Y117.014 E8.72678 ; fill
G1 X502.189 Y117.014 E8.74260 ; fill
G1 X515.796 Y130.621 E9.14657 ; fill
G1 X515.796 Y131.375 E9.16239 ; fill
G1 X501.435 Y117.014 E9.58873 ; fill
G1 X500.681 Y117.014 E9.60456 ; fill
G1 X515.796 Y132.129 E10.05327 ; fill
G1 X515.796 Y132.882 E10.06910 ; fill
G1 X499.928 Y117.014 E10.54019 ; fill
G1 X499.174 Y117.014 E10.55601 ; fill
G1 X515.796 Y133.636 E11.04948 ; fill
G1 X515.796 Y134.390 E11.06530 ; fill
G1 X498.420 Y117.014 E11.58115 ; fill
G1 X497.667 Y117.014 E11.59697 ; fill
G1 X515.318 Y134.666 E12.12102 ; fill
G1 X514.564 Y134.666 E12.13684 ; fill
G1 X496.913 Y117.014 E12.66088 ; fill
G1 X496.159 Y117.014 E12.67670 ; fill
G1 X513.811 Y134.666 E13.20075 ; fill
G1 X513.057 Y134.666 E13.21657 ; fill
G1 X495.405 Y117.014 E13.74061 ; fill
G1 X494.652 Y117.014 E13.75644 ; fill
G1 X512.303 Y134.666 E14.28048 ; fill
G1 X511.550 Y134.666 E14.29630 ; fill
G1 X493.898 Y117.014 E14.82034 ; fill
G1 X493.144 Y117.014 E14.83617 ; fill
G1 X510.796 Y134.666 E15.36021 ; fill
G1 X510.042 Y134.666 E15.37603 ; fill
G1 X492.390 Y117.014 E15.90007 ; fill
G1 X491.637 Y117.014 E15.91590 ; fill
G1 X509.288 Y134.666 E16.43994 ; fill
G1 X508.535 Y134.666 E16.45576 ; fill
G1 X490.883 Y117.014 E16.97980 ; fill
G1 X490.129 Y117.014 E16.99563 ; fill
G1 X507.781 Y134.666 E17.51967 ; fill
G1 X507.027 Y134.666 E17.53549 ; fill
G1 X489.376 Y117.014 E18.05954 ; fill
G1 X488.622 Y117.014 E18.07536 ; fill
G1 X506.274 Y134.666 E18.59940 ; fill
G1 X505.520 Y134.666 E18.61522 ; fill
G1 X488.144 Y117.290 E19.13107 ; fill
G1 X488.144 Y118.044 E19.14689 ; fill
G1 X504.766 Y134.666 E19.64036 ; fill
G1 X504.012 Y134.666 E19.65619 ; fill
G1 X488.144 Y118.798 E20.12728 ; fill
G1 X488.144 Y119.551 E20.14310 ; fill
G1 X503.259 Y134.666 E20.59182 ; fill
G1 X502.505 Y134.666 E20.60764 ; fill
G1 X488.144 Y120.305 E21.03398 ; fill
G1 X488.144 Y121.059 E21.04981 ; fill
G1 X501.751 Y134.666 E21.45377 ; fill
G1 X500.997 Y134.666 E21.46959 ; fill
G1 X488.144 Y121.813 E21.85118 ; fill
G1 X488.144 Y122.566 E21.86700 ; fill
G1 X500.244 Y134.666 E22.22621 ; fill
G1 X499.490 Y134.666 E22.24204 ; fill
G1 X488.144 Y123.320 E22.57887 ; fill
G1 X488.144 Y124.074 E22.59470 ; fill
G1 X498.736 Y134.666 E22.90915 ; fill
G1 X497.983 Y134.666 E22.92498 ; fill
G1 X488.144 Y124.827 E23.21706 ; fill
G1 X488.144 Y125.581 E23.23288 ; fill
G1 X497.229 Y134.666 E23.50259 ; fill
G1 X496.475 Y134.666 E23.51841 ; fill
G1 X488.144 Y126.335 E23.76574 ; fill
G1 X488.144 Y127.089 E23.78156 ; fill
G1 X495.721 Y134.666 E24.00651 ; fill
G1 X494.968 Y134.666 E24.02234 ; fill
G1 X488.144 Y127.842 E24.22491 ; fill
G1 X488.144 Y128.596 E24.24073 ; fill
G1 X494.214 Y134.666 E24.42093 ; fill
G1 X493.460 Y134.666 E24.43676 ; fill
G1 X488.144 Y129.350 E24.59458 ; fill
G1 X488.144 Y130.104 E24.61040 ; fill
G1 X492.707 Y134.666 E24.74585 ; fill
G1 X491.953 Y134.666 E24.76167 ; fill
G1 X488.144 Y130.857 E24.87474 ; fill
G1 X488.144 Y131.611 E24.89056 ; fill
G1 X491.199 Y134.666 E24.98126 ; fill
G1 X490.445 Y134.666 E24.99708 ; fill
G1 X488.144 Y132.365 E25.06540 ; fill
G1 X488.144 Y133.118 E25.08122 ; fill
G1 X489.692 Y134.666 E25.12716 ; fill
G1 X488.938 Y134.666 E25.14298 ; fill
G1 X488.144 Y133.872 E25.16655 ; fill
G1 X488.144 Y134.626 E25.18237 ; fill
G1 X488.184 Y134.666 E25.18356 ; fill
M106 S199 ; enable fan
G1 Z0.560 F7800.000 ; move to next layer (1)
;LayerChange
G1 X516.760 Y135.630 F7800.000 ; move to first perimeter point
G1 X487.180 Y135.630 E25.67568 F6000.000 ; perimeter
G1 X487.180 Y116.050 E26.00143 ; perimeter
G1 X516.760 Y116.050 E26.49355 ; perimeter
G1 X516.760 Y135.567 E26.81826 ; perimeter
G1 X516.396 Y135.420 F7800.000 ; move inwards before travel
G1 X516.340 Y135.210 F7800.000 ; move to first perimeter point
G1 X487.600 Y135.210 E27.29640 F1800.000 ; perimeter
G1 X487.600 Y116.470 E27.60818 ; perimeter
G1 X516.340 Y116.470 E28.08633 ; perimeter
G1 X516.340 Y135.147 E28.39706 ; perimeter
G1 X516.039 Y134.869 F7800.000 ; move to first fill point
G1 X515.999 Y134.909 E28.39817 F1800.000 ; fill
G1 X515.299 Y134.909 E28.41189 ; fill
G1 X516.039 Y134.169 E28.43240 ; fill
G1 X516.039 Y133.469 E28.44611 ; fill
G1 X514.599 Y134.909 E28.48602 ; fill
G1 X513.899 Y134.909 E28.49974 ; fill
G1 X516.039 Y132.769 E28.55905 ; fill
G1 X516.039 Y132.069 E28.57277 ; fill
G1 X513.199 Y134.909 E28.65148 ; fill
G1 X512.499 Y134.909 E28.66520 ; fill
G1 X516.039 Y131.369 E28.76332 ; fill
G1 X516.039 Y130.669 E28.77703 ; fill
G1 X511.799 Y134.909 E28.89455 ; fill
G1 X511.099 Y134.909 E28.90827 ; fill
G1 X516.039 Y129.969 E29.04518 ; fill
G1 X516.039 Y129.269 E29.05890 ; fill
G1 X510.399 Y134.909 E29.21522 ; fill
G1 X509.699 Y134.909 E29.22893 ; fill
G1 X516.039 Y128.569 E29.40465 ; fill
G1 X516.039 Y127.869 E29.41837 ; fill
G1 X509.000 Y134.909 E29.61349 ; fill
G1 X508.300 Y134.909 E29.62720 ; fill
G1 X516.039 Y127.170 E29.84172 ; fill
G1 X516.039 Y126.470 E29.85544 ; fill
G1 X507.600 Y134.909 E30.08936 ; fill
G1 X506.900 Y134.909 E30.10308 ; fill
G1 X516.039 Y125.770 E30.35640 ; fill
G1 X516.039 Y125.070 E30.37012 ; fill
G1 X506.200 Y134.909 E30.64284 ; fill
G1 X505.500 Y134.909 E30.65655 ; fill
G1 X516.039 Y124.370 E30.94868 ; fill
G1 X516.039 Y123.670 E30.96239 ; fill
G1 X504.800 Y134.909 E31.27392 ; fill
G1 X504.100 Y134.909 E31.28763 ; fill
G1 X516.039 Y122.970 E31.61856 ; fill
G1 X516.039 Y122.270 E31.63228 ; fill
G1 X503.400 Y134.909 E31.98260 ; fill
G1 X502.700 Y134.909 E31.99632 ; fill
G1 X516.039 Y121.570 E32.36604 ; fill
G1 X516.039 Y120.870 E32.37976 ; fill
G1 X502.000 Y134.909 E32.76889 ; fill
G1 X501.300 Y134.909 E32.78260 ; fill
G1 X516.039 Y120.170 E33.19113 ; fill
G1 X516.039 Y119.470 E33.20485 ; fill
G1 X500.600 Y134.909 E33.63278 ; fill
G1 X499.901 Y134.909 E33.64649 ; fill
G1 X516.039 Y118.771 E34.09382 ; fill
G1 X516.039 Y118.071 E34.10754 ; fill
G1 X499.201 Y134.909 E34.57427 ; fill
G1 X498.501 Y134.909 E34.58799 ; fill
G1 X516.039 Y117.371 E35.07412 ; fill
G1 X515.938 Y116.771 E35.08603 ; fill
G1 X497.801 Y134.909 E35.58877 ; fill
G1 X497.101 Y134.909 E35.60249 ; fill
G1 X515.238 Y116.771 E36.10523 ; fill
G1 X514.538 Y116.771 E36.11895 ; fill
G1 X496.401 Y134.909 E36.62170 ; fill
G1 X495.701 Y134.909 E36.63541 ; fill
G1 X513.838 Y116.771 E37.13816 ; fill
G1 X513.138 Y116.771 E37.15188 ; fill
G1 X495.001 Y134.909 E37.65462 ; fill
G1 X494.301 Y134.909 E37.66834 ; fill
G1 X512.439 Y116.771 E38.17108 ; fill
G1 X511.739 Y116.771 E38.18480 ; fill
G1 X493.601 Y134.909 E38.68754 ; fill
G1 X492.901 Y134.909 E38.70126 ; fill
G1 X511.039 Y116.771 E39.20400 ; fill
G1 X510.339 Y116.771 E39.21772 ; fill
G1 X492.201 Y134.909 E39.72047 ; fill
G1 X491.501 Y134.909 E39.73418 ; fill
G1 X509.639 Y116.771 E40.23693 ; fill
G1 X508.939 Y116.771 E40.25065 ; fill
G1 X490.802 Y134.909 E40.75339 ; fill
G1 X490.102 Y134.909 E40.76711 ; fill
G1 X508.239 Y116.771 E41.26985 ; fill
G1 X507.539 Y116.771 E41.28357 ; fill
G1 X489.402 Y134.909 E41.78631 ; fill
G1 X488.702 Y134.909 E41.80003 ; fill
G1 X506.839 Y116.771 E42.30277 ; fill
G1 X506.139 Y116.771 E42.31649 ; fill
G1 X488.002 Y134.909 E42.81923 ; fill
G1 X487.901 Y134.309 E42.83115 ; fill
G1 X505.439 Y116.771 E43.31728 ; fill
G1 X504.739 Y116.771 E43.33099 ; fill
G1 X487.901 Y133.609 E43.79772 ; fill
G1 X487.901 Y132.909 E43.81144 ; fill
G1 X504.040 Y116.771 E44.25877 ; fill
G1 X503.340 Y116.771 E44.27249 ; fill
G1 X487.901 Y132.210 E44.70041 ; fill
G1 X487.901 Y131.510 E44.71413 ; fill
G1 X502.640 Y116.771 E45.12266 ; fill
G1 X501.940 Y116.771 E45.13638 ; fill
G1 X487.901 Y130.810 E45.52550 ; fill
G1 X487.901 Y130.110 E45.53922 ; fill
G1 X501.240 Y116.771 E45.90895 ; fill
G1 X500.540 Y116.771 E45.92266 ; fill
G1 X487.901 Y129.410 E46.27299 ; fill
G1 X487.901 Y128.710 E46.28671 ; fill
G1 X499.840 Y116.771 E46.61763 ; fill
G1 X499.140 Y116.771 E46.63135 ; fill
G1 X487.901 Y128.010 E46.94287 ; fill
G1 X487.901 Y127.310 E46.95659 ; fill
G1 X498.440 Y116.771 E47.24871 ; fill
G1 X497.740 Y116.771 E47.26243 ; fill
G1 X487.901 Y126.610 E47.53515 ; fill
G1 X487.901 Y125.910 E47.54887 ; fill
G1 X497.040 Y116.771 E47.80219 ; fill
G1 X496.340 Y116.771 E47.81590 ; fill
G1 X487.901 Y125.210 E48.04982 ; fill
G1 X487.901 Y124.510 E48.06354 ; fill
G1 X495.640 Y116.771 E48.27806 ; fill
G1 X494.941 Y116.771 E48.29178 ; fill
G1 X487.901 Y123.811 E48.48689 ; fill
G1 X487.901 Y123.111 E48.50061 ; fill
G1 X494.241 Y116.771 E48.67633 ; fill
G1 X493.541 Y116.771 E48.69005 ; fill
G1 X487.901 Y122.411 E48.84636 ; fill
G1 X487.901 Y121.711 E48.86008 ; fill
G1 X492.841 Y116.771 E48.99700 ; fill
G1 X492.141 Y116.771 E49.01071 ; fill
G1 X487.901 Y121.011 E49.12823 ; fill
G1 X487.901 Y120.311 E49.14195 ; fill
G1 X491.441 Y116.771 E49.24006 ; fill
G1 X490.741 Y116.771 E49.25378 ; fill
G1 X487.901 Y119.611 E49.33249 ; fill
G1 X487.901 Y118.911 E49.34621 ; fill
G1 X490.041 Y116.771 E49.40552 ; fill
G1 X489.341 Y116.771 E49.41924 ; fill
G1 X487.901 Y118.211 E49.45915 ; fill
G1 X487.901 Y117.511 E49.47287 ; fill
G1 X488.641 Y116.771 E49.49338 ; fill
G1 X487.941 Y116.771 E49.50710 ; fill
G1 X487.901 Y116.811 E49.50820 ; fill
M106 S199 ; enable fan
G1 Z0.840 F7800.000 ; move to next layer (2)
;LayerChange
G1 X516.760 Y135.630 F7800.000 ; move to first perimeter point
G1 X487.180 Y135.630 E50.00033 F6000.000 ; perimeter
G1 X487.180 Y116.050 E50.32608 ; perimeter
G1 X516.760 Y116.050 E50.81820 ; perimeter
G1 X516.760 Y135.567 E51.14291 ; perimeter
G1 X516.396 Y135.420 F7800.000 ; move inwards before travel
G1 X516.340 Y135.210 F7800.000 ; move to first perimeter point
G1 X487.600 Y135.210 E51.62105 F1800.000 ; perimeter
G1 X487.600 Y116.470 E51.93283 ; perimeter
G1 X516.340 Y116.470 E52.41098 ; perimeter
G1 X516.340 Y135.147 E52.72171 ; perimeter
G1 X515.999 Y116.771 F7800.000 ; move to first fill point
G1 X516.039 Y116.811 E52.72282 F1800.000 ; fill
G1 X516.039 Y117.511 E52.73653 ; fill
G1 X515.299 Y116.771 E52.75704 ; fill
G1 X514.599 Y116.771 E52.77076 ; fill
G1 X516.039 Y118.211 E52.81067 ; fill
G1 X516.039 Y118.911 E52.82439 ; fill
G1 X513.899 Y116.771 E52.88370 ; fill
G1 X513.199 Y116.771 E52.89742 ; fill
G1 X516.039 Y119.611 E52.97613 ; fill
G1 X516.039 Y120.311 E52.98985 ; fill
G1 X512.499 Y116.771 E53.08796 ; fill
G1 X511.799 Y116.771 E53.10168 ; fill
G1 X516.039 Y121.011 E53.21920 ; fill
G1 X516.039 Y121.711 E53.23291 ; fill
G1 X511.099 Y116.771 E53.36983 ; fill
G1 X510.399 Y116.771 E53.38355 ; fill
G1 X516.039 Y122.411 E53.53986 ; fill
G1 X516.039 Y123.111 E53.55358 ; fill
G1 X509.699 Y116.771 E53.72930 ; fill
G1 X509.000 Y116.771 E53.74302 ; fill
G1 X516.039 Y123.811 E53.93813 ; fill
G1 X516.039 Y124.510 E53.95185 ; fill
G1 X508.300 Y116.771 E54.16637 ; fill
G1 X507.600 Y116.771 E54.18009 ; fill
G1 X516.039 Y125.210 E54.41401 ; fill
G1 X516.039 Y125.910 E54.42773 ; fill
G1 X506.900 Y116.771 E54.68104 ; fill
G1 X506.200 Y116.771 E54.69476 ; fill
G1 X516.039 Y126.610 E54.96748 ; fill
G1 X516.039 Y127.310 E54.98120 ; fill
G1 X505.500 Y116.771 E55.27332 ; fill
G1 X504.800 Y116.771 E55.28704 ; fill
G1 X516.039 Y128.010 E55.59856 ; fill
G1 X516.039 Y128.710 E55.61228 ; fill
G1 X504.100 Y116.771 E55.94320 ; fill
G1 X503.400 Y116.771 E55.95692 ; fill
G1 X516.039 Y129.410 E56.30725 ; fill
G1 X516.039 Y130.110 E56.32097 ; fill
G1 X502.700 Y116.771 E56.69069 ; fill
G1 X502.000 Y116.771 E56.70441 ; fill
G1 X516.039 Y130.810 E57.09353 ; fill
G1 X516.039 Y131.510 E57.10725 ; fill
G1 X501.300 Y116.771 E57.51578 ; fill
G1 X500.600 Y116.771 E57.52950 ; fill
G1 X516.039 Y132.210 E57.95742 ; fill
G1 X516.039 Y132.909 E57.97114 ; fill
G1 X499.901 Y116.771 E58.41847 ; fill
G1 X499.201 Y116.771 E58.43219 ; fill
G1 X516.039 Y133.609 E58.89892 ; fill
G1 X516.039 Y134.309 E58.91264 ; fill
G1 X498.501 Y116.771 E59.39876 ; fill
G1 X497.801 Y116.771 E59.41248 ; fill
G1 X515.938 Y134.909 E59.91523 ; fill
G1 X515.238 Y134.909 E59.92894 ; fill
G1 X497.101 Y116.771 E60.43169 ; fill
G1 X496.401 Y116.771 E60.44541 ; fill
G1 X514.538 Y134.909 E60.94815 ; fill
G1 X513.838 Y134.909 E60.96187 ; fill
G1 X495.701 Y116.771 E61.46461 ; fill
G1 X495.001 Y116.771 E61.47833 ; fill
G1 X513.138 Y134.909 E61.98107 ; fill
G1 X512.439 Y134.909 E61.99479 ; fill
G1 X494.301 Y116.771 E62.49753 ; fill
G1 X493.601 Y116.771 E62.51125 ; fill
G1 X511.739 Y134.909 E63.01400 ; fill
