; generated by Slic3r 1.1.7 on 2014-08-27 at 23:55:33

; perimeters extrusion width = 0.42mm
; infill extrusion width = 0.52mm
; solid infill extrusion width = 0.52mm
; top infill extrusion width = 0.52mm

; perimeters extrusion width = 0.50mm
; infill extrusion width = 0.76mm
; solid infill extrusion width = 0.76mm
; top infill extrusion width = 0.76mm

G21 ; set units to millimeters
M107 ; disable fan
M104 S200 T0 ; set temperature
M104 S200 T1 ; set temperature
POSOFFSET CLEAR X Y U A B C D
M109 S200 T0 ; wait for temperature to be reached
M109 S200 T1 ; wait for temperature to be reached
G90 ; use absolute coordinates
G92 E0 ; reset extrusion distance
M82 ; use absolute distances for extrusion
T0 ; change extruder
G92 E0 ; reset extrusion distance
G1 Z0.280 F7800.000 ; move to next layer (0)
;LayerChange
G1 F1800.000 E-1.00000 ; retract
G92 E0 ; reset extrusion distance
G1 X486.028 Y131.425 F7800.000 ; move to first skirt point
G1 E1.00000 F1800.000 ; compensate retraction
G1 X486.191 Y130.889 E1.01175 F824.771 ; skirt
G1 X486.393 Y130.365 E1.02355 ; skirt
G1 X486.789 Y129.575 E1.04209 ; skirt
G1 X495.574 Y114.367 E1.41080 ; skirt
G1 X495.890 Y113.898 E1.42265 ; skirt
G1 X496.238 Y113.458 E1.43442 ; skirt
G1 X496.621 Y113.041 E1.44632 ; skirt
G1 X497.030 Y112.658 E1.45808 ; skirt
G1 X497.467 Y112.305 E1.46988 ; skirt
G1 X497.933 Y111.984 E1.48175 ; skirt
G1 X498.419 Y111.701 E1.49355 ; skirt
G1 X498.926 Y111.454 E1.50539 ; skirt
G1 X499.526 Y111.218 E1.51893 ; skirt
G1 X499.985 Y111.077 E1.52900 ; skirt
G1 X500.612 Y110.934 E1.54251 ; skirt
G1 X501.090 Y110.862 E1.55265 ; skirt
G1 X501.651 Y110.817 E1.56447 ; skirt
G1 X502.296 Y110.818 E1.57801 ; skirt
G1 X503.145 Y110.902 E1.59592 F824.771 ; skirt
G1 X503.883 Y111.058 E1.61175 ; skirt
G1 X504.423 Y111.221 E1.62359 ; skirt
G1 X504.944 Y111.423 E1.63534 ; skirt
G1 X505.456 Y111.667 E1.64724 ; skirt
G1 X505.944 Y111.945 E1.65902 ; skirt
G1 X506.412 Y112.260 E1.67087 ; skirt
G1 X506.852 Y112.608 E1.68264 ; skirt
G1 X507.319 Y113.041 E1.69600 ; skirt
G1 X507.653 Y113.400 E1.70631 ; skirt
G1 X508.005 Y113.838 E1.71811 ; skirt
G1 X508.491 Y114.575 E1.73664 ; skirt
G1 X517.269 Y129.788 E2.10534 ; skirt
G1 X517.552 Y130.376 E2.11905 ; skirt
G1 X517.725 Y130.820 E2.12905 ; skirt
G1 X517.915 Y131.436 E2.14258 ; skirt
G1 X518.021 Y131.903 E2.15264 ; skirt
G1 X518.108 Y132.459 E2.16445 ; skirt
G1 X518.153 Y133.022 E2.17631 ; skirt
G1 X518.153 Y133.664 E2.18978 ; skirt
G1 X518.116 Y134.146 E2.19993 ; skirt
G1 X518.035 Y134.702 E2.21172 ; skirt
G1 X517.912 Y135.255 E2.22363 ; skirt
G1 X517.718 Y135.881 E2.23737 ; skirt
G1 X517.546 Y136.318 E2.24723 ; skirt
G1 X517.304 Y136.825 E2.25903 ; skirt
G1 X517.026 Y137.313 E2.27082 ; skirt
G1 X516.710 Y137.781 E2.28268 ; skirt
G1 X516.305 Y138.288 E2.29630 ; skirt
G1 X515.980 Y138.639 E2.30634 ; skirt
G1 X515.571 Y139.022 E2.31811 ; skirt
G1 X515.059 Y139.429 E2.33182 ; skirt
G1 X514.667 Y139.696 E2.34178 ; skirt
G1 X514.182 Y139.979 E2.35358 ; skirt
G1 X513.675 Y140.226 E2.36541 ; skirt
G1 X513.075 Y140.461 E2.37895 ; skirt
G1 X512.616 Y140.603 E2.38903 ; skirt
G1 X512.067 Y140.731 E2.40087 ; skirt
G1 X511.510 Y140.818 E2.41269 ; skirt
G1 X510.630 Y140.870 E2.43120 ; skirt
G1 X493.066 Y140.865 E2.79991 ; skirt
G1 X492.504 Y140.826 E2.81175 ; skirt
G1 X491.948 Y140.745 E2.82354 ; skirt
G1 X491.315 Y140.600 E2.83718 ; skirt
G1 X490.859 Y140.459 E2.84719 ; skirt
G1 X490.334 Y140.256 E2.85901 ; skirt
G1 X489.825 Y140.014 E2.87085 ; skirt
G1 X489.273 Y139.696 E2.88421 ; skirt
G1 X488.869 Y139.421 E2.89447 ; skirt
G1 X488.426 Y139.071 E2.90632 ; skirt
G1 X488.013 Y138.692 E2.91809 ; skirt
G1 X487.627 Y138.279 E2.92996 ; skirt
G1 X487.273 Y137.840 E2.94178 ; skirt
G1 X486.956 Y137.379 E2.95353 ; skirt
G1 X486.625 Y136.804 E2.96747 ; skirt
G1 X486.389 Y136.305 E2.97906 ; skirt
G1 X486.216 Y135.862 E2.98904 ; skirt
G1 X486.025 Y135.245 E3.00261 ; skirt
G1 X485.898 Y134.669 E3.01498 ; skirt
G1 X485.832 Y134.224 E3.02443 ; skirt
G1 X485.787 Y133.658 E3.03635 ; skirt
G1 X485.784 Y133.097 E3.04812 ; skirt
G1 X485.834 Y132.440 E3.06195 ; skirt
G1 X485.904 Y131.981 E3.07170 ; skirt
G1 X486.014 Y131.486 E3.08234 ; skirt
G1 F1800.000 E2.08234 ; retract
G92 E0 ; reset extrusion distance
G1 X511.254 Y133.700 F7800.000 ; move to first perimeter point
G1 E1.00000 F1800.000 ; compensate retraction
G1 X511.158 Y133.830 E1.00338 F2749.237 ; perimeter
G1 X510.990 Y133.963 E1.00789 ; perimeter
G1 X510.790 Y134.042 E1.01239 ; perimeter
G1 X510.625 Y134.060 E1.01588 ; perimeter
G1 X493.315 Y134.060 E1.37927 ; perimeter
G1 X493.150 Y134.042 E1.38276 ; perimeter
G1 X492.998 Y133.989 E1.38614 ; perimeter
G1 X492.861 Y133.903 E1.38953 ; perimeter
G1 X492.715 Y133.746 E1.39403 ; perimeter
G1 X492.640 Y133.603 E1.39741 ; perimeter
G1 X492.592 Y133.394 E1.40192 ; perimeter
G1 X492.608 Y133.180 E1.40643 ; perimeter
G1 X492.661 Y133.028 E1.40981 ; perimeter
G1 X501.344 Y117.985 E1.77443 ; perimeter
G1 X501.442 Y117.850 E1.77792 ; perimeter
G1 X501.610 Y117.717 E1.78242 ; perimeter
G1 X501.810 Y117.638 E1.78693 ; perimeter
G1 X501.970 Y117.620 E1.79031 ; perimeter
G1 X502.182 Y117.652 E1.79482 ; perimeter
G1 X502.330 Y117.717 E1.79820 ; perimeter
G1 X502.498 Y117.850 E1.80270 ; perimeter
G1 X502.596 Y117.984 E1.80619 ; perimeter
G1 X511.251 Y132.975 E2.16958 ; perimeter
G1 X511.318 Y133.128 E2.17308 ; perimeter
G1 X511.348 Y133.286 E2.17646 ; perimeter
G1 X511.342 Y133.447 E2.17984 ; perimeter
G1 X511.282 Y133.644 E2.18416 ; perimeter
G1 X511.093 Y133.698 F7800.000 ; move inwards before travel
G1 X510.959 Y133.530 F7800.000 ; move to first perimeter point
G1 X492.981 Y133.530 E2.56158 F824.771 ; perimeter
G1 X501.970 Y117.960 E2.93900 ; perimeter
G1 X510.928 Y133.475 E3.31510 ; perimeter
G1 X509.273 Y131.338 F7800.000 ; move to first fill point
G1 X500.013 Y122.078 E3.59001 F824.771 ; fill
G1 X499.736 Y122.558 E3.60166 ; fill
G1 X510.309 Y133.131 E3.91555 ; fill
G1 X509.585 Y133.166 E3.93075 ; fill
G1 X499.458 Y123.039 E4.23140 ; fill
G1 X499.181 Y123.520 E4.24305 ; fill
G1 X508.827 Y133.166 E4.52943 ; fill
G1 X508.069 Y133.166 E4.54534 ; fill
G1 X498.903 Y124.000 E4.81746 ; fill
G1 X498.626 Y124.481 E4.82911 ; fill
G1 X507.311 Y133.166 E5.08695 ; fill
G1 X506.553 Y133.166 E5.10286 ; fill
G1 X498.348 Y124.961 E5.34644 ; fill
G1 X498.071 Y125.442 E5.35809 ; fill
G1 X505.795 Y133.166 E5.58740 ; fill
G1 X505.037 Y133.166 E5.60331 ; fill
G1 X497.793 Y125.922 E5.81836 ; fill
G1 X497.516 Y126.403 E5.83001 ; fill
G1 X504.279 Y133.166 E6.03078 ; fill
G1 X503.521 Y133.166 E6.04669 ; fill
G1 X497.238 Y126.884 E6.23320 ; fill
G1 X496.961 Y127.364 E6.24485 ; fill
G1 X502.763 Y133.166 E6.41709 ; fill
G1 X502.005 Y133.166 E6.43300 ; fill
G1 X496.684 Y127.845 E6.59097 ; fill
G1 X496.406 Y128.325 E6.60262 ; fill
G1 X501.247 Y133.166 E6.74633 ; fill
G1 X500.488 Y133.166 E6.76224 ; fill
G1 X496.129 Y128.806 E6.89168 ; fill
G1 X495.851 Y129.287 E6.90333 ; fill
G1 X499.730 Y133.166 E7.01850 ; fill
G1 X498.972 Y133.166 E7.03441 ; fill
G1 X495.574 Y129.767 E7.13531 ; fill
G1 X495.296 Y130.248 E7.14696 ; fill
G1 X498.214 Y133.166 E7.23359 ; fill
G1 X497.456 Y133.166 E7.24951 ; fill
G1 X495.019 Y130.728 E7.32187 ; fill
G1 X494.741 Y131.209 E7.33352 ; fill
G1 X496.698 Y133.166 E7.39162 ; fill
G1 X495.940 Y133.166 E7.40754 ; fill
G1 X494.464 Y131.689 E7.45137 ; fill
G1 X494.186 Y132.170 E7.46302 ; fill
G1 X495.182 Y133.166 E7.49258 ; fill
G1 X494.424 Y133.166 E7.50849 ; fill
G1 X493.909 Y132.651 E7.52379 ; fill
G1 X493.631 Y133.131 E7.53544 ; fill
G1 X493.666 Y133.166 E7.53647 ; fill
G1 X506.167 Y125.957 F7800.000 ; move to first fill point
G1 X500.845 Y120.636 E7.69444 F824.771 ; fill
G1 X501.123 Y120.155 E7.70609 ; fill
G1 X505.131 Y124.164 E7.82509 ; fill
G1 X504.096 Y122.370 F7800.000 ; move to first fill point
G1 X501.400 Y119.675 E7.90510 F824.771 ; fill
G1 X501.970 Y118.728 F7800.000 ; move to first fill point
G1 X502.025 Y118.783 E7.90672 F824.771 ; fill
G1 X501.678 Y119.194 E7.91802 ; fill
G1 X503.060 Y120.577 E7.95905 ; fill
G1 X507.202 Y127.751 F7800.000 ; move to first fill point
G1 X500.568 Y121.117 E8.15601 F824.771 ; fill
G1 X500.291 Y121.597 E8.16766 ; fill
G1 X508.238 Y129.544 E8.40359 ; fill
M106 S255 ; enable fan
G1 Z0.560 F7800.000 ; move to next layer (1)
;LayerChange
G1 X511.314 Y133.735 F7800.000 ; move to first perimeter point
G1 X511.209 Y133.877 E8.40653 F2380.396 ; perimeter
G1 X511.025 Y134.024 E8.41045 ; perimeter
G1 X510.806 Y134.110 E8.41436 ; perimeter
G1 X510.626 Y134.130 E8.41737 ; perimeter
G1 X493.251 Y134.128 E8.70645 ; perimeter
G1 X493.077 Y134.095 E8.70939 ; perimeter
G1 X492.915 Y134.024 E8.71234 ; perimeter
G1 X492.731 Y133.877 E8.71625 ; perimeter
G1 X492.626 Y133.735 E8.71919 ; perimeter
G1 X492.555 Y133.573 E8.72214 ; perimeter
G1 X492.522 Y133.399 E8.72508 ; perimeter
G1 X492.540 Y133.164 E8.72900 ; perimeter
G1 X492.598 Y132.997 E8.73194 ; perimeter
G1 X501.284 Y117.948 E9.02102 ; perimeter
G1 X501.391 Y117.803 E9.02403 ; perimeter
G1 X501.575 Y117.656 E9.02794 ; perimeter
G1 X501.794 Y117.570 E9.03186 ; perimeter
G1 X501.970 Y117.550 E9.03480 ; perimeter
G1 X502.189 Y117.581 E9.03848 ; perimeter
G1 X502.365 Y117.656 E9.04166 ; perimeter
G1 X502.549 Y117.803 E9.04558 ; perimeter
G1 X502.656 Y117.948 E9.04859 ; perimeter
G1 X511.312 Y132.942 E9.33662 ; perimeter
G1 X511.385 Y133.107 E9.33962 ; perimeter
G1 X511.418 Y133.281 E9.34257 ; perimeter
G1 X511.411 Y133.458 E9.34551 ; perimeter
G1 X511.343 Y133.679 E9.34936 ; perimeter
G1 X511.137 Y133.733 F7800.000 ; move inwards before travel
G1 X510.685 Y133.705 F7800.000 ; move to first perimeter point
G1 X493.321 Y133.710 E9.63825 F714.119 ; perimeter
G1 X493.227 Y133.700 E9.63982 ; perimeter
G1 X493.125 Y133.660 E9.64165 ; perimeter
G1 X492.990 Y133.525 E9.64483 ; perimeter
G1 X492.940 Y133.340 E9.64802 ; perimeter
G1 X492.957 Y133.231 E9.64984 ; perimeter
G1 X492.995 Y133.145 E9.65142 ; perimeter
G1 X501.644 Y118.165 E9.93919 ; perimeter
G1 X501.740 Y118.051 E9.94167 ; perimeter
G1 X501.888 Y117.980 E9.94441 ; perimeter
G1 X501.998 Y117.971 E9.94624 ; perimeter
G1 X502.130 Y118.007 E9.94853 ; perimeter
G1 X502.221 Y118.069 E9.95036 ; perimeter
G1 X502.296 Y118.165 E9.95239 ; perimeter
G1 X510.945 Y133.145 E10.24016 ; perimeter
G1 X510.999 Y133.312 E10.24308 ; perimeter
G1 X510.974 Y133.475 E10.24582 ; perimeter
G1 X510.882 Y133.611 E10.24856 ; perimeter
G1 X510.747 Y133.691 E10.25117 ; perimeter
G1 X510.729 Y133.374 F7800.000 ; move to first fill point
G1 X510.695 Y133.409 E10.25213 F714.119 ; fill
G1 X510.472 Y132.929 E10.26250 ; fill
G1 X509.992 Y133.409 E10.27580 ; fill
G1 X509.289 Y133.409 E10.28958 ; fill
G1 X510.215 Y132.483 E10.31523 ; fill
G1 X509.958 Y132.038 E10.32531 ; fill
G1 X508.587 Y133.409 E10.36331 ; fill
G1 X507.884 Y133.408 E10.37708 ; fill
G1 X509.700 Y131.592 E10.42743 ; fill
G1 X509.443 Y131.147 E10.43751 ; fill
G1 X507.182 Y133.408 E10.50020 ; fill
G1 X506.479 Y133.408 E10.51397 ; fill
G1 X509.186 Y130.701 E10.58901 ; fill
G1 X508.929 Y130.256 E10.59909 ; fill
G1 X505.776 Y133.408 E10.68647 ; fill
G1 X505.074 Y133.408 E10.70024 ; fill
G1 X508.672 Y129.810 E10.79997 ; fill
G1 X508.414 Y129.365 E10.81006 ; fill
G1 X504.371 Y133.408 E10.92213 ; fill
G1 X503.669 Y133.408 E10.93590 ; fill
G1 X508.157 Y128.919 E11.06033 ; fill
G1 X507.900 Y128.474 E11.07041 ; fill
G1 X502.966 Y133.408 E11.20718 ; fill
G1 X502.263 Y133.408 E11.22095 ; fill
G1 X507.643 Y128.028 E11.37006 ; fill
G1 X507.386 Y127.583 E11.38015 ; fill
G1 X501.561 Y133.408 E11.54161 ; fill
G1 X500.858 Y133.408 E11.55538 ; fill
G1 X507.129 Y127.137 E11.72919 ; fill
G1 X506.871 Y126.692 E11.73927 ; fill
G1 X500.155 Y133.408 E11.92542 ; fill
G1 X499.453 Y133.408 E11.93919 ; fill
G1 X506.614 Y126.246 E12.13769 ; fill
G1 X506.357 Y125.801 E12.14777 ; fill
G1 X498.750 Y133.408 E12.35862 ; fill
G1 X498.048 Y133.408 E12.37239 ; fill
G1 X506.100 Y125.356 E12.59558 ; fill
G1 X505.843 Y124.910 E12.60567 ; fill
G1 X497.345 Y133.408 E12.84120 ; fill
G1 X496.642 Y133.408 E12.85498 ; fill
G1 X505.585 Y124.465 E13.10286 ; fill
G1 X505.328 Y124.019 E13.11294 ; fill
G1 X495.940 Y133.407 E13.37317 ; fill
G1 X495.237 Y133.407 E13.38695 ; fill
G1 X505.071 Y123.574 E13.65952 ; fill
G1 X504.814 Y123.128 E13.66960 ; fill
G1 X494.535 Y133.407 E13.95453 ; fill
G1 X493.832 Y133.407 E13.96830 ; fill
G1 X504.557 Y122.683 E14.26557 ; fill
G1 X504.299 Y122.237 E14.27565 ; fill
G1 X493.277 Y133.260 E14.58119 ; fill
G1 X494.236 Y131.597 F7800.000 ; move to first fill point
G1 X504.042 Y121.792 E14.85299 F714.119 ; fill
G1 X503.785 Y121.346 E14.86307 ; fill
G1 X495.196 Y129.935 E15.10114 ; fill
G1 X496.156 Y128.272 F7800.000 ; move to first fill point
G1 X503.528 Y120.901 E15.30547 F714.119 ; fill
G1 X503.271 Y120.455 E15.31555 ; fill
G1 X497.116 Y126.610 E15.48614 ; fill
G1 X498.076 Y124.947 F7800.000 ; move to first fill point
G1 X503.013 Y120.010 E15.62300 F714.119 ; fill
G1 X502.756 Y119.564 E15.63309 ; fill
G1 X499.036 Y123.285 E15.73621 ; fill
G1 X499.996 Y121.622 F7800.000 ; move to first fill point
G1 X502.499 Y119.119 E15.80560 F714.119 ; fill
G1 X502.242 Y118.673 E15.81568 ; fill
G1 X500.956 Y119.960 E15.85134 ; fill
G1 X501.915 Y118.297 F7800.000 ; move to first fill point
G1 X501.970 Y118.243 E15.85285 F714.119 ; fill
G1 Z0.840 F7800.000 ; move to next layer (2)
;LayerChange
G1 X511.314 Y133.735 F7800.000 ; move to first perimeter point
G1 X511.209 Y133.877 E15.85580 F2376.046 ; perimeter
G1 X511.025 Y134.024 E15.85971 ; perimeter
G1 X510.806 Y134.110 E15.86363 ; perimeter
G1 X510.626 Y134.130 E15.86664 ; perimeter
G1 X493.251 Y134.128 E16.15572 ; perimeter
G1 X493.077 Y134.095 E16.15866 ; perimeter
G1 X492.915 Y134.024 E16.16160 ; perimeter
G1 X492.773 Y133.919 E16.16454 ; perimeter
G1 X492.626 Y133.735 E16.16846 ; perimeter
G1 X492.555 Y133.573 E16.17141 ; perimeter
G1 X492.522 Y133.399 E16.17435 ; perimeter
G1 X492.540 Y133.164 E16.17826 ; perimeter
G1 X492.598 Y132.997 E16.18120 ; perimeter
G1 X501.284 Y117.948 E16.47028 ; perimeter
G1 X501.391 Y117.803 E16.47329 ; perimeter
G1 X501.575 Y117.656 E16.47721 ; perimeter
G1 X501.794 Y117.570 E16.48113 ; perimeter
G1 X501.970 Y117.550 E16.48407 ; perimeter
G1 X502.146 Y117.570 E16.48701 ; perimeter
G1 X502.365 Y117.656 E16.49093 ; perimeter
G1 X502.549 Y117.803 E16.49484 ; perimeter
G1 X502.656 Y117.948 E16.49785 ; perimeter
G1 X511.312 Y132.942 E16.78588 ; perimeter
G1 X511.385 Y133.107 E16.78889 ; perimeter
G1 X511.418 Y133.281 E16.79184 ; perimeter
G1 X511.411 Y133.458 E16.79477 ; perimeter
G1 X511.343 Y133.679 E16.79863 ; perimeter
G1 X511.137 Y133.733 F7800.000 ; move inwards before travel
G1 X510.658 Y133.709 F7800.000 ; move to first perimeter point
G1 X493.322 Y133.710 E17.08705 F712.814 ; perimeter
G1 X493.228 Y133.700 E17.08862 ; perimeter
G1 X493.125 Y133.660 E17.09046 ; perimeter
G1 X492.990 Y133.525 E17.09364 ; perimeter
G1 X492.940 Y133.340 E17.09683 ; perimeter
G1 X492.957 Y133.231 E17.09865 ; perimeter
G1 X492.995 Y133.145 E17.10023 ; perimeter
G1 X501.644 Y118.165 E17.38800 ; perimeter
G1 X501.762 Y118.035 E17.39093 ; perimeter
G1 X501.915 Y117.975 E17.39366 ; perimeter
G1 X502.026 Y117.975 E17.39551 ; perimeter
G1 X502.130 Y118.007 E17.39733 ; perimeter
G1 X502.221 Y118.069 E17.39916 ; perimeter
G1 X502.296 Y118.165 E17.40119 ; perimeter
G1 X510.945 Y133.145 E17.68896 ; perimeter
G1 X510.999 Y133.312 E17.69189 ; perimeter
G1 X510.974 Y133.475 E17.69462 ; perimeter
G1 X510.882 Y133.611 E17.69736 ; perimeter
G1 X510.720 Y133.698 E17.70042 ; perimeter
G1 X509.407 Y133.409 F7800.000 ; move to first fill point
G1 X499.127 Y123.128 E17.98539 F712.814 ; fill
G1 X499.384 Y122.682 E17.99547 ; fill
G1 X510.110 Y133.409 E18.29279 ; fill
G1 X510.662 Y133.258 E18.30401 ; fill
G1 X499.641 Y122.237 E18.60952 ; fill
G1 X498.869 Y123.573 F7800.000 ; move to first fill point
G1 X508.705 Y133.409 E18.88214 F712.814 ; fill
G1 X508.002 Y133.408 E18.89591 ; fill
G1 X498.612 Y124.019 E19.15619 ; fill
G1 X498.355 Y124.464 E19.16627 ; fill
G1 X507.299 Y133.408 E19.41420 ; fill
